ncols         157
nrows         241
xllcorner     408240.0000
yllcorner     5482050.0000
cellsize      10.0000
NODATA_value  -9999
-9999 -9999 -9999 -9999 -9999 -9999 -9999 -9999 -9999 -9999 -9999 -9999 -9999 -9999 -9999 -9999 -9999 -9999 -9999 -9999 -9999 -9999 -9999 -9999 312.697998046875 313.3919982910156 313.2449951171875 316.12298583984375 -9999 -9999 -9999 -9999 -9999 -9999 -9999 -9999 -9999 -9999 -9999 -9999 -9999 -9999 -9999 -9999 -9999 -9999 -9999 -9999 -9999 -9999 -9999 -9999 -9999 -9999 -9999 -9999 -9999 -9999 -9999 -9999 -9999 -9999 -9999 -9999 -9999 -9999 -9999 -9999 -9999 -9999 -9999 -9999 -9999 -9999 -9999 -9999 -9999 -9999 -9999 -9999 -9999 -9999 -9999 -9999 -9999 -9999 -9999 -9999 -9999 -9999 -9999 -9999 -9999 -9999 -9999 -9999 -9999 -9999 -9999 -9999 -9999 -9999 -9999 -9999 -9999 -9999 -9999 -9999 -9999 -9999 -9999 -9999 -9999 -9999 -9999 -9999 -9999 -9999 -9999 -9999 -9999 -9999 -9999 -9999 -9999 -9999 -9999 -9999 -9999 -9999 -9999 -9999 -9999 -9999 -9999 -9999 -9999 -9999 -9999 -9999 -9999 -9999 -9999 -9999 -9999 -9999 -9999 -9999 -9999 -9999 -9999 -9999 -9999 -9999 -9999 -9999 -9999
-9999 -9999 -9999 -9999 -9999 -9999 -9999 -9999 -9999 -9999 -9999 -9999 -9999 -9999 -9999 -9999 -9999 -9999 -9999 -9999 -9999 -9999 -9999 -9999 312.4739990234375 313.031005859375 312.7980041503906 315.739013671875 319.5249938964844 323.4360046386719 325.6730041503906 326.3389892578125 326.50799560546875 326.62799072265625 326.5989990234375 326.5299987792969 326.4540100097656 -9999 -9999 -9999 -9999 -9999 -9999 -9999 -9999 -9999 -9999 -9999 -9999 -9999 -9999 -9999 -9999 -9999 -9999 -9999 -9999 -9999 -9999 -9999 -9999 -9999 -9999 -9999 -9999 -9999 -9999 -9999 -9999 -9999 -9999 -9999 -9999 -9999 -9999 -9999 -9999 -9999 -9999 -9999 -9999 -9999 -9999 -9999 -9999 -9999 -9999 -9999 -9999 -9999 -9999 -9999 -9999 -9999 -9999 -9999 -9999 -9999 -9999 -9999 -9999 -9999 -9999 -9999 -9999 -9999 -9999 -9999 -9999 -9999 -9999 -9999 -9999 -9999 -9999 -9999 -9999 -9999 -9999 -9999 -9999 -9999 -9999 -9999 -9999 -9999 -9999 -9999 -9999 -9999 -9999 -9999 -9999 -9999 -9999 -9999 -9999 -9999 -9999 -9999 -9999 -9999 -9999 -9999 -9999 -9999 -9999 -9999 -9999 -9999 -9999 -9999 -9999 -9999 -9999 -9999 -9999
-9999 -9999 -9999 -9999 -9999 -9999 -9999 -9999 -9999 -9999 -9999 -9999 -9999 -9999 -9999 -9999 -9999 -9999 -9999 -9999 -9999 -9999 -9999 -9999 312.3240051269531 312.4840087890625 312.2359924316406 314.8420104980469 318.5220031738281 322.6570129394531 325.3900146484375 326.14898681640625 326.2460021972656 326.3340148925781 326.2590026855469 326.1730041503906 326.02301025390625 325.8789978027344 326.1400146484375 326.3179931640625 326.27899169921875 326.3800048828125 326.20599365234375 326.2659912109375 325.96600341796875 325.6579895019531 -9999 -9999 -9999 -9999 -9999 -9999 -9999 -9999 -9999 -9999 -9999 -9999 -9999 -9999 -9999 -9999 -9999 -9999 -9999 -9999 -9999 -9999 -9999 -9999 -9999 -9999 -9999 -9999 -9999 -9999 -9999 -9999 -9999 -9999 -9999 -9999 -9999 -9999 -9999 -9999 -9999 -9999 -9999 -9999 -9999 -9999 -9999 -9999 -9999 -9999 -9999 -9999 -9999 -9999 -9999 -9999 -9999 -9999 -9999 -9999 -9999 -9999 -9999 -9999 -9999 -9999 -9999 -9999 -9999 -9999 -9999 -9999 -9999 -9999 -9999 -9999 -9999 -9999 -9999 -9999 -9999 -9999 -9999 -9999 -9999 -9999 -9999 -9999 -9999 -9999 -9999 -9999 -9999 -9999 -9999 -9999 -9999 -9999 -9999 -9999 -9999 -9999 -9999 -9999 -9999 -9999 -9999 -9999 -9999 -9999 -9999
-9999 -9999 -9999 -9999 -9999 -9999 -9999 -9999 -9999 -9999 -9999 -9999 -9999 -9999 -9999 -9999 -9999 -9999 -9999 -9999 -9999 -9999 -9999 -9999 312.1809997558594 311.9209899902344 311.7619934082031 312.9540100097656 316.45098876953125 319.9840087890625 322.04400634765625 323.32501220703125 325.5350036621094 325.96099853515625 325.85198974609375 325.6090087890625 325.3869934082031 325.51800537109375 325.6549987792969 325.9989929199219 326.12701416015625 326.1050109863281 326.0899963378906 325.95001220703125 325.6319885253906 325.0249938964844 324.3450012207031 323.5360107421875 321.927001953125 320.385986328125 320.6289978027344 322.39599609375 322.5820007324219 323.2659912109375 323.40301513671875 -9999 -9999 -9999 -9999 -9999 -9999 -9999 -9999 -9999 -9999 -9999 -9999 -9999 -9999 -9999 -9999 -9999 -9999 -9999 -9999 -9999 -9999 -9999 -9999 -9999 -9999 -9999 -9999 -9999 -9999 -9999 -9999 -9999 -9999 -9999 -9999 -9999 -9999 -9999 -9999 -9999 -9999 -9999 -9999 -9999 -9999 -9999 -9999 -9999 -9999 -9999 -9999 -9999 -9999 -9999 -9999 -9999 -9999 -9999 -9999 -9999 -9999 -9999 -9999 -9999 -9999 -9999 -9999 -9999 -9999 -9999 -9999 -9999 -9999 -9999 -9999 -9999 -9999 -9999 -9999 -9999 -9999 -9999 -9999 -9999 -9999 -9999 -9999 -9999 -9999 -9999 -9999 -9999 -9999 -9999 -9999 -9999 -9999 -9999 -9999 -9999 -9999
-9999 -9999 -9999 -9999 -9999 -9999 -9999 -9999 -9999 -9999 -9999 -9999 -9999 -9999 -9999 -9999 -9999 -9999 -9999 -9999 -9999 -9999 -9999 -9999 311.9590148925781 311.8280029296875 311.2019958496094 311.0069885253906 313.5409851074219 315.9679870605469 317.4729919433594 319.00299072265625 320.7969970703125 323.114990234375 325.427001953125 325.1189880371094 324.9840087890625 325.0509948730469 325.4599914550781 325.5920104980469 325.9209899902344 325.89599609375 325.8940124511719 325.70599365234375 325.1619873046875 324.4989929199219 323.7229919433594 322.5400085449219 318.9110107421875 317.87200927734375 319.33099365234375 322.114013671875 322.4309997558594 322.8909912109375 323.0929870605469 323.20599365234375 323.072998046875 323.114990234375 322.8999938964844 322.8269958496094 322.7539978027344 322.7300109863281 322.8680114746094 322.9549865722656 -9999 -9999 -9999 -9999 -9999 -9999 -9999 -9999 -9999 -9999 -9999 -9999 -9999 -9999 -9999 -9999 -9999 -9999 -9999 -9999 -9999 -9999 -9999 -9999 -9999 -9999 -9999 -9999 -9999 -9999 -9999 -9999 -9999 -9999 -9999 -9999 -9999 -9999 -9999 -9999 -9999 -9999 -9999 -9999 -9999 -9999 -9999 -9999 -9999 -9999 -9999 -9999 -9999 -9999 -9999 -9999 -9999 -9999 -9999 -9999 -9999 -9999 -9999 -9999 -9999 -9999 -9999 -9999 -9999 -9999 -9999 -9999 -9999 -9999 -9999 -9999 -9999 -9999 -9999 -9999 -9999 -9999 -9999 -9999 -9999 -9999 -9999 -9999 -9999 -9999 -9999 -9999 -9999
-9999 -9999 -9999 -9999 -9999 -9999 -9999 -9999 -9999 -9999 -9999 -9999 -9999 -9999 -9999 -9999 -9999 -9999 -9999 -9999 -9999 -9999 -9999 311.9729919433594 311.7929992675781 312.1610107421875 310.6730041503906 310.1499938964844 309.8529968261719 311.64898681640625 312.9809875488281 314.75799560546875 316.6390075683594 318.8630065917969 321.0429992675781 322.65399169921875 324.6570129394531 324.9849853515625 325.13299560546875 325.45599365234375 325.4830017089844 325.61199951171875 325.3479919433594 325.0639953613281 324.5150146484375 323.9010009765625 323.4289855957031 319.7640075683594 316.8819885253906 316.28900146484375 317.07501220703125 321.70599365234375 322.05499267578125 322.4859924316406 322.7850036621094 322.79400634765625 322.72198486328125 322.614013671875 322.3760070800781 322.37799072265625 322.385986328125 322.4750061035156 322.56500244140625 322.83599853515625 323.0050048828125 323.35198974609375 323.5790100097656 323.65399169921875 323.7340087890625 323.89801025390625 323.95599365234375 323.8970031738281 323.7279968261719 -9999 -9999 -9999 -9999 -9999 -9999 -9999 -9999 -9999 -9999 -9999 -9999 -9999 -9999 -9999 -9999 -9999 -9999 -9999 -9999 -9999 -9999 -9999 -9999 -9999 -9999 -9999 -9999 -9999 -9999 -9999 -9999 -9999 -9999 -9999 -9999 -9999 -9999 -9999 -9999 -9999 -9999 -9999 -9999 -9999 -9999 -9999 -9999 -9999 -9999 -9999 -9999 -9999 -9999 -9999 -9999 -9999 -9999 -9999 -9999 -9999 -9999 -9999 -9999 -9999 -9999 -9999 -9999 -9999 -9999 -9999 -9999 -9999 -9999 -9999 -9999 -9999 -9999 -9999 -9999 -9999 -9999 -9999 -9999
-9999 -9999 -9999 -9999 -9999 -9999 -9999 -9999 -9999 -9999 -9999 -9999 -9999 -9999 -9999 -9999 -9999 -9999 -9999 -9999 -9999 -9999 -9999 311.9020080566406 311.75799560546875 311.8070068359375 310.45098876953125 309.48699951171875 309.0320129394531 308.87200927734375 309.4110107421875 310.85699462890625 312.58599853515625 314.7569885253906 316.8999938964844 319.3529968261719 322.0950012207031 324.5880126953125 325.0610046386719 325.1340026855469 325.1000061035156 325.0220031738281 324.7550048828125 324.4119873046875 323.8909912109375 323.3909912109375 321.5119934082031 317.60198974609375 314.7250061035156 314.49200439453125 315.5889892578125 319.8699951171875 321.6719970703125 322.0669860839844 322.41400146484375 322.2539978027344 322.3059997558594 322.031005859375 321.9519958496094 321.81500244140625 321.93798828125 322.12701416015625 322.4159851074219 322.6449890136719 322.98699951171875 323.27899169921875 323.4230041503906 323.58099365234375 323.7080078125 323.84600830078125 323.8840026855469 323.7179870605469 323.4989929199219 323.2070007324219 322.8210144042969 322.3349914550781 321.6969909667969 321.1310119628906 320.54400634765625 319.91900634765625 319.23199462890625 318.5329895019531 -9999 -9999 -9999 -9999 -9999 -9999 -9999 -9999 -9999 -9999 -9999 -9999 -9999 -9999 -9999 -9999 -9999 -9999 -9999 -9999 -9999 -9999 -9999 -9999 -9999 -9999 -9999 -9999 -9999 -9999 -9999 -9999 -9999 -9999 -9999 -9999 -9999 -9999 -9999 -9999 -9999 -9999 -9999 -9999 -9999 -9999 -9999 -9999 -9999 -9999 -9999 -9999 -9999 -9999 -9999 -9999 -9999 -9999 -9999 -9999 -9999 -9999 -9999 -9999 -9999 -9999 -9999 -9999 -9999 -9999 -9999 -9999 -9999 -9999 -9999
-9999 -9999 -9999 -9999 -9999 -9999 -9999 -9999 -9999 -9999 -9999 -9999 -9999 -9999 -9999 -9999 -9999 -9999 -9999 -9999 -9999 -9999 -9999 311.885009765625 311.6940002441406 311.7929992675781 310.6099853515625 309.4519958496094 308.6400146484375 308.0299987792969 307.57501220703125 307.8580017089844 309.15399169921875 311.00799560546875 313.3110046386719 316.625 320.218994140625 323.0929870605469 324.7200012207031 324.74798583984375 324.6830139160156 324.3710021972656 324.0459899902344 323.5690002441406 323.23199462890625 322.4649963378906 319.28399658203125 316.0889892578125 313.0889892578125 313.02301025390625 314.5710144042969 318.5539855957031 321.59100341796875 321.8290100097656 321.864990234375 321.87298583984375 321.53900146484375 321.4389953613281 321.2879943847656 321.18499755859375 321.29901123046875 321.71600341796875 322.1310119628906 322.5570068359375 322.8970031738281 323.0270080566406 323.25299072265625 323.4960021972656 323.62701416015625 323.7340087890625 323.6629943847656 323.5159912109375 323.281005859375 322.9219970703125 322.49700927734375 321.927001953125 321.385009765625 320.8349914550781 320.20001220703125 319.4309997558594 318.6610107421875 317.8399963378906 317.3089904785156 316.64801025390625 316.2099914550781 315.70001220703125 315.5790100097656 315.5360107421875 -9999 -9999 -9999 -9999 -9999 -9999 -9999 -9999 -9999 -9999 -9999 -9999 -9999 -9999 -9999 -9999 -9999 -9999 -9999 -9999 -9999 -9999 -9999 -9999 -9999 -9999 -9999 -9999 -9999 -9999 -9999 -9999 -9999 -9999 -9999 -9999 -9999 -9999 -9999 -9999 -9999 -9999 -9999 -9999 -9999 -9999 -9999 -9999 -9999 -9999 -9999 -9999 -9999 -9999 -9999 -9999 -9999 -9999 -9999 -9999 -9999 -9999 -9999 -9999 -9999 -9999 -9999 -9999 -9999
-9999 -9999 -9999 -9999 -9999 -9999 -9999 -9999 -9999 -9999 -9999 -9999 -9999 -9999 -9999 -9999 -9999 -9999 -9999 -9999 -9999 -9999 -9999 312.0270080566406 311.57598876953125 311.6820068359375 310.34100341796875 309.45599365234375 308.5150146484375 307.7510070800781 307.1210021972656 306.614013671875 306.72698974609375 308.04901123046875 310.2950134277344 313.8330078125 317.22900390625 319.9020080566406 321.94000244140625 324.0480041503906 324.1860046386719 323.7120056152344 323.2139892578125 322.88800048828125 321.6719970703125 320.0090026855469 316.864013671875 313.9599914550781 311.385986328125 311.52899169921875 313.9750061035156 318.3320007324219 321.2349853515625 321.4209899902344 321.34698486328125 321.11700439453125 321.15399169921875 321.1610107421875 320.90899658203125 320.72601318359375 320.9209899902344 321.3550109863281 321.9339904785156 322.4590148925781 322.6789855957031 322.88299560546875 323.1759948730469 323.3869934082031 323.4939880371094 323.4830017089844 323.38800048828125 323.2550048828125 323.0069885253906 322.6340026855469 322.1180114746094 321.6029968261719 321.0830078125 320.4540100097656 319.70098876953125 318.885009765625 317.9549865722656 317.2909851074219 316.5669860839844 315.95001220703125 315.37701416015625 314.9649963378906 314.88299560546875 315.24700927734375 315.7900085449219 -9999 -9999 -9999 -9999 -9999 -9999 -9999 -9999 -9999 -9999 -9999 -9999 -9999 -9999 -9999 -9999 -9999 -9999 -9999 -9999 -9999 -9999 -9999 -9999 -9999 -9999 -9999 -9999 -9999 -9999 -9999 -9999 -9999 -9999 -9999 -9999 -9999 -9999 -9999 -9999 -9999 -9999 -9999 -9999 -9999 -9999 -9999 -9999 -9999 -9999 -9999 -9999 -9999 -9999 -9999 -9999 -9999 -9999 -9999 -9999 -9999 -9999 -9999 -9999 -9999 -9999 -9999 -9999
-9999 -9999 -9999 -9999 -9999 -9999 -9999 -9999 -9999 -9999 -9999 -9999 -9999 -9999 -9999 -9999 -9999 -9999 -9999 -9999 -9999 -9999 -9999 311.9599914550781 311.58599853515625 311.4649963378906 310.64599609375 309.2829895019531 308.0260009765625 306.65899658203125 306.69500732421875 306.3919982910156 305.760009765625 306.1789855957031 307.5790100097656 310.7130126953125 313.72100830078125 316.0060119628906 318.6940002441406 321.2090148925781 323.01300048828125 323.2149963378906 322.3800048828125 320.7829895019531 319.60101318359375 317.4070129394531 314.4809875488281 311.87799072265625 310.010986328125 310.25201416015625 312.9880065917969 317.1789855957031 320.14898681640625 321.2049865722656 320.885986328125 320.17999267578125 317.3399963378906 315.8399963378906 316.0459899902344 317.6700134277344 320.5409851074219 321.0220031738281 321.7099914550781 322.1659851074219 322.4289855957031 322.7590026855469 323.0719909667969 323.177001953125 323.2040100097656 323.1659851074219 323.0509948730469 322.9320068359375 322.635009765625 322.1929931640625 321.6929931640625 321.1910095214844 320.635986328125 319.93798828125 319.1759948730469 318.2179870605469 317.4230041503906 316.52801513671875 315.7659912109375 315.12200927734375 314.375 314.2250061035156 314.0679931640625 313.0379943847656 314.2950134277344 314.82000732421875 -9999 -9999 -9999 -9999 -9999 -9999 -9999 -9999 -9999 -9999 -9999 -9999 -9999 -9999 -9999 -9999 -9999 -9999 -9999 -9999 -9999 -9999 -9999 -9999 -9999 -9999 -9999 -9999 -9999 -9999 -9999 -9999 -9999 -9999 -9999 -9999 -9999 -9999 -9999 -9999 -9999 -9999 -9999 -9999 -9999 -9999 -9999 -9999 -9999 -9999 -9999 -9999 -9999 -9999 -9999 -9999 -9999 -9999 -9999 -9999 -9999 -9999 -9999 -9999 -9999 -9999 -9999
-9999 -9999 -9999 -9999 -9999 -9999 -9999 -9999 -9999 -9999 -9999 -9999 -9999 -9999 -9999 -9999 -9999 -9999 -9999 -9999 -9999 -9999 -9999 312.1659851074219 311.74700927734375 311.5350036621094 311.39801025390625 309.9639892578125 308.7120056152344 307.8590087890625 305.8819885253906 305.97900390625 305.4159851074219 304.7669982910156 305.1730041503906 307.61700439453125 309.8710021972656 312.28900146484375 315.51800537109375 318.5060119628906 320.3500061035156 320.80999755859375 320.0169982910156 318.8890075683594 316.75799560546875 314.9809875488281 312.2760009765625 310.114013671875 308.7699890136719 309.2279968261719 312.0950012207031 315.7770080566406 318.364013671875 319.26800537109375 319.0899963378906 317.2430114746094 314.2510070800781 312.4150085449219 313.0669860839844 315.2669982910156 319.0220031738281 320.7860107421875 321.32501220703125 321.8550109863281 322.2879943847656 322.6440124511719 322.8269958496094 322.9119873046875 322.864013671875 322.7720031738281 322.6820068359375 322.4549865722656 322.0360107421875 321.5799865722656 321.1709899902344 320.6440124511719 320.010009765625 319.3550109863281 318.489013671875 317.74700927734375 316.7659912109375 315.85198974609375 315.0220031738281 314.0480041503906 313.7030029296875 313.45098876953125 312.60400390625 314.0090026855469 313.8160095214844 314.4110107421875 314.8059997558594 -9999 -9999 -9999 -9999 -9999 -9999 -9999 -9999 -9999 -9999 -9999 -9999 -9999 -9999 -9999 -9999 -9999 -9999 -9999 -9999 -9999 -9999 -9999 -9999 -9999 -9999 -9999 -9999 -9999 -9999 -9999 -9999 -9999 -9999 -9999 -9999 -9999 -9999 -9999 -9999 -9999 -9999 -9999 -9999 -9999 -9999 -9999 -9999 -9999 -9999 -9999 -9999 -9999 -9999 -9999 -9999 -9999 -9999 -9999 -9999 -9999 -9999 -9999 -9999 -9999 -9999
-9999 -9999 -9999 -9999 -9999 -9999 -9999 -9999 -9999 -9999 -9999 -9999 -9999 -9999 -9999 -9999 -9999 -9999 -9999 -9999 -9999 -9999 312.72100830078125 312.375 311.97100830078125 311.6239929199219 311.510986328125 310.7590026855469 309.8290100097656 308.67999267578125 307.42498779296875 304.8059997558594 304.7019958496094 304.385986328125 303.9360046386719 304.614990234375 306.87298583984375 309.3349914550781 312.4779968261719 315.677001953125 317.8009948730469 318.2770080566406 317.9159851074219 316.9859924316406 315.6669921875 312.39300537109375 310.39801025390625 308.45599365234375 307.8789978027344 308.36199951171875 311.18701171875 314.2619934082031 316.4519958496094 317.4309997558594 316.57501220703125 314.7659912109375 311.8030090332031 310.24200439453125 310.9599914550781 313.7179870605469 317.7359924316406 320.6099853515625 321.20001220703125 321.68798828125 322.1610107421875 322.43499755859375 322.5400085449219 322.5360107421875 322.50799560546875 322.4100036621094 322.18701171875 321.7820129394531 321.364013671875 320.9360046386719 320.3949890136719 319.83599853515625 319.260009765625 318.6289978027344 318.0799865722656 317.0199890136719 316.05499267578125 315.0379943847656 314.0050048828125 313.2980041503906 312.8320007324219 312.1340026855469 312.67999267578125 312.52899169921875 313.4389953613281 314.0710144042969 314.614013671875 315.0199890136719 -9999 -9999 -9999 -9999 -9999 -9999 -9999 -9999 -9999 -9999 -9999 -9999 -9999 -9999 -9999 -9999 -9999 -9999 -9999 -9999 -9999 -9999 -9999 -9999 -9999 -9999 -9999 -9999 -9999 -9999 -9999 -9999 -9999 -9999 -9999 -9999 -9999 -9999 -9999 -9999 -9999 -9999 -9999 -9999 -9999 -9999 -9999 -9999 -9999 -9999 -9999 -9999 -9999 -9999 -9999 -9999 -9999 -9999 -9999 -9999 -9999 -9999 -9999 -9999 -9999
-9999 -9999 -9999 -9999 -9999 -9999 -9999 -9999 -9999 -9999 -9999 -9999 -9999 -9999 -9999 -9999 -9999 -9999 -9999 -9999 -9999 -9999 312.51800537109375 312.2760009765625 311.96600341796875 311.6549987792969 311.3450012207031 311.0119934082031 310.3160095214844 309.50299072265625 308.1730041503906 306.7770080566406 304.7760009765625 303.4320068359375 303.3269958496094 302.98199462890625 304.3580017089844 306.6830139160156 309.5429992675781 312.59698486328125 314.4490051269531 315.843994140625 315.739013671875 314.2669982910156 311.7850036621094 310.0190124511719 308.5849914550781 306.9939880371094 306.9989929199219 307.6809997558594 309.9779968261719 312.9129943847656 314.0899963378906 314.90399169921875 314.09600830078125 312.38299560546875 309.447998046875 308.5159912109375 309.6719970703125 312.8320007324219 316.6960144042969 320.34600830078125 321.3080139160156 321.6570129394531 321.9429931640625 322.1050109863281 322.1400146484375 322.1090087890625 322.0530090332031 321.7909851074219 321.37701416015625 320.9830017089844 320.69500732421875 320.11199951171875 319.4289855957031 318.82000732421875 318.3059997558594 317.9750061035156 317.00299072265625 316.16900634765625 315.10400390625 313.9670104980469 312.8680114746094 312.23699951171875 311.72601318359375 310.9649963378906 311.1730041503906 312.0199890136719 312.9800109863281 313.593994140625 314.3179931640625 314.8900146484375 -9999 -9999 -9999 -9999 -9999 -9999 -9999 -9999 -9999 -9999 -9999 -9999 -9999 -9999 -9999 -9999 -9999 -9999 -9999 -9999 -9999 -9999 -9999 -9999 -9999 -9999 -9999 -9999 -9999 -9999 -9999 -9999 -9999 -9999 -9999 -9999 -9999 -9999 -9999 -9999 -9999 -9999 -9999 -9999 -9999 -9999 -9999 -9999 -9999 -9999 -9999 -9999 -9999 -9999 -9999 -9999 -9999 -9999 -9999 -9999 -9999 -9999 -9999 -9999 -9999
-9999 -9999 -9999 -9999 -9999 -9999 -9999 -9999 -9999 -9999 -9999 -9999 -9999 -9999 -9999 -9999 -9999 -9999 -9999 -9999 -9999 -9999 311.94500732421875 311.7659912109375 311.7340087890625 311.5400085449219 311.26300048828125 311.1499938964844 310.60400390625 309.8680114746094 308.99700927734375 307.3869934082031 305.7250061035156 302.1659851074219 302.5429992675781 302.177001953125 302.1789855957031 304.04901123046875 306.593994140625 308.89898681640625 310.69500732421875 311.52099609375 312.09698486328125 310.75201416015625 309.22198486328125 308.1570129394531 307.0429992675781 305.9729919433594 305.989013671875 306.8340148925781 308.8919982910156 310.6820068359375 312.6029968261719 313.2309875488281 312.2279968261719 309.7550048828125 307.37799072265625 307.17498779296875 308.5539855957031 311.8550109863281 315.72198486328125 319.4179992675781 321.23699951171875 321.4779968261719 321.6310119628906 321.6669921875 321.63299560546875 321.5469970703125 321.2659912109375 320.8399963378906 320.43701171875 320.1159973144531 319.85699462890625 319.135986328125 318.3819885253906 317.6440124511719 317.22601318359375 316.5090026855469 315.85198974609375 314.9620056152344 313.92401123046875 312.64599609375 311.8009948730469 311.20098876953125 310.22100830078125 310 310.510009765625 311.23699951171875 312.23199462890625 313.2650146484375 313.90899658203125 314.6669921875 315.14599609375 -9999 -9999 -9999 -9999 -9999 -9999 -9999 -9999 -9999 -9999 -9999 -9999 -9999 -9999 -9999 -9999 -9999 -9999 -9999 -9999 -9999 -9999 -9999 -9999 -9999 -9999 -9999 -9999 -9999 -9999 -9999 -9999 -9999 -9999 -9999 -9999 -9999 -9999 -9999 -9999 -9999 -9999 -9999 -9999 -9999 -9999 -9999 -9999 -9999 -9999 -9999 -9999 -9999 -9999 -9999 -9999 -9999 -9999 -9999 -9999 -9999 -9999 -9999 -9999
-9999 -9999 -9999 -9999 -9999 -9999 -9999 -9999 -9999 -9999 -9999 -9999 -9999 -9999 -9999 -9999 -9999 -9999 -9999 -9999 -9999 -9999 311.0119934082031 311.0950012207031 311.0799865722656 311.05999755859375 310.9779968261719 310.6820068359375 310.6109924316406 309.989013671875 309.1510009765625 308.0580139160156 306.385986328125 304.2770080566406 301.36199951171875 301.35101318359375 301.2669982910156 301.3110046386719 303.3110046386719 305.32501220703125 306.7770080566406 307.88800048828125 308.2969970703125 308.22900390625 307.6419982910156 306.8789978027344 305.7170104980469 305.06298828125 305.1860046386719 306.1600036621094 307.64300537109375 308.9460144042969 309.7170104980469 310.22900390625 309.56298828125 307.4649963378906 305.79901123046875 306.1789855957031 307.5929870605469 310.7049865722656 314.7909851074219 318.46099853515625 321.02899169921875 321.24200439453125 321.156005859375 321.1610107421875 321.0119934082031 320.6300048828125 320.18499755859375 319.72100830078125 319.3450012207031 319.12799072265625 318.52801513671875 317.90399169921875 317.0880126953125 316.6390075683594 315.7539978027344 315.02899169921875 314.3810119628906 313.6579895019531 312.593994140625 311.35699462890625 310.7019958496094 310.1080017089844 308.9800109863281 309.0190124511719 309.5870056152344 310.3869934082031 311.4630126953125 312.57501220703125 313.6419982910156 314.2590026855469 314.885009765625 315.30999755859375 -9999 -9999 -9999 -9999 -9999 -9999 -9999 -9999 -9999 -9999 -9999 -9999 -9999 -9999 -9999 -9999 -9999 -9999 -9999 -9999 -9999 -9999 -9999 -9999 -9999 -9999 -9999 -9999 -9999 -9999 -9999 -9999 -9999 -9999 -9999 -9999 -9999 -9999 -9999 -9999 -9999 -9999 -9999 -9999 -9999 -9999 -9999 -9999 -9999 -9999 -9999 -9999 -9999 -9999 -9999 -9999 -9999 -9999 -9999 -9999 -9999 -9999 -9999
-9999 -9999 -9999 -9999 -9999 -9999 -9999 -9999 -9999 -9999 -9999 -9999 -9999 -9999 -9999 -9999 -9999 -9999 -9999 -9999 -9999 -9999 309.8179931640625 310.18499755859375 310.39801025390625 310.46099853515625 310.4440002441406 310.4729919433594 310.3450012207031 309.89898681640625 309.2439880371094 308.3420104980469 307.0010070800781 305.2569885253906 303.1180114746094 300.55999755859375 300.31500244140625 300.1839904785156 300.42401123046875 302.1709899902344 303.5 305.04998779296875 306.43798828125 306.8489990234375 306.3380126953125 305.52801513671875 304.3479919433594 303.7659912109375 304.14599609375 305.34100341796875 306.6000061035156 307.47198486328125 307.8970031738281 308.0589904785156 307.3630065917969 305.66400146484375 304.7650146484375 305.0660095214844 306.9750061035156 309.88800048828125 313.47100830078125 316.9700012207031 320.2590026855469 320.739990234375 320.5419921875 320.2489929199219 319.7909851074219 319.3219909667969 318.8059997558594 318.3450012207031 317.85198974609375 317.2439880371094 316.7149963378906 316.1050109863281 315.625 314.6449890136719 313.989013671875 313.2439880371094 312.6759948730469 312.2669982910156 310.8609924316406 310.20098876953125 309.75201416015625 308.364990234375 307.8659973144531 308.0469970703125 308.71099853515625 309.6029968261719 310.75201416015625 311.968994140625 313.0329895019531 313.94000244140625 314.46600341796875 314.9809875488281 315.3789978027344 -9999 -9999 -9999 -9999 -9999 -9999 -9999 -9999 -9999 -9999 -9999 -9999 -9999 -9999 -9999 -9999 -9999 -9999 -9999 -9999 -9999 -9999 -9999 -9999 -9999 -9999 -9999 -9999 -9999 -9999 -9999 -9999 -9999 -9999 -9999 -9999 -9999 -9999 -9999 -9999 -9999 -9999 -9999 -9999 -9999 -9999 -9999 -9999 -9999 -9999 -9999 -9999 -9999 -9999 -9999 -9999 -9999 -9999 -9999 -9999 -9999 -9999
-9999 -9999 -9999 -9999 -9999 -9999 -9999 -9999 -9999 -9999 -9999 -9999 -9999 -9999 -9999 -9999 -9999 -9999 -9999 -9999 -9999 -9999 308.7560119628906 309.1679992675781 309.5190124511719 309.7569885253906 310.0329895019531 310.1080017089844 309.9630126953125 309.6289978027344 309.12799072265625 308.4010009765625 307.4540100097656 305.90399169921875 303.9079895019531 301.7049865722656 299.51800537109375 299.1789855957031 299.2130126953125 299.6210021972656 301.35101318359375 303.0090026855469 304.364990234375 305.0530090332031 304.760009765625 303.83099365234375 302.85101318359375 302.62701416015625 303.1709899902344 304.4389953613281 305.6839904785156 306.52398681640625 306.7749938964844 306.52398681640625 305.52301025390625 304.0400085449219 303.8550109863281 304.656005859375 307.031005859375 309.7699890136719 312.8210144042969 315.72198486328125 318.4859924316406 319.9519958496094 319.5350036621094 318.84100341796875 318.21600341796875 317.58599853515625 317.2170104980469 316.3590087890625 315.6910095214844 315.2359924316406 314.7340087890625 313.98199462890625 313.52099609375 312.572998046875 311.77899169921875 311.3160095214844 311.1520080566406 310.20599365234375 309.76800537109375 309.27801513671875 308.1520080566406 307.156005859375 306.8080139160156 307.1000061035156 307.7720031738281 308.89801025390625 310.16400146484375 311.4079895019531 312.4779968261719 313.364013671875 314.15899658203125 314.50201416015625 314.9590148925781 315.3039855957031 -9999 -9999 -9999 -9999 -9999 -9999 -9999 -9999 -9999 -9999 -9999 -9999 -9999 -9999 -9999 -9999 -9999 -9999 -9999 -9999 -9999 -9999 -9999 -9999 -9999 -9999 -9999 -9999 -9999 -9999 -9999 -9999 -9999 -9999 -9999 -9999 -9999 -9999 -9999 -9999 -9999 -9999 -9999 -9999 -9999 -9999 -9999 -9999 -9999 -9999 -9999 -9999 -9999 -9999 -9999 -9999 -9999 -9999 -9999 -9999 -9999
-9999 -9999 -9999 -9999 -9999 -9999 -9999 -9999 -9999 -9999 -9999 -9999 -9999 -9999 -9999 -9999 -9999 -9999 -9999 -9999 -9999 307.0979919433594 307.5459899902344 308.0820007324219 308.85198974609375 309.45599365234375 309.77099609375 309.8810119628906 309.75201416015625 309.30999755859375 308.89898681640625 308.2070007324219 307.37200927734375 306.2959899902344 304.7070007324219 302.45599365234375 300.05499267578125 298.5 297.77899169921875 298.4419860839844 298.87701416015625 300.92498779296875 301.77801513671875 302.9259948730469 302.76800537109375 301.78900146484375 301.0559997558594 301.4989929199219 302.65301513671875 303.9779968261719 305.23699951171875 306.0150146484375 305.8269958496094 304.9150085449219 303.60699462890625 302.4289855957031 302.57000732421875 304.5740051269531 307.4440002441406 310.1130065917969 312.8450012207031 314.9469909667969 316.864990234375 317.9909973144531 318.1839904785156 317.5929870605469 316.6470031738281 315.9939880371094 314.4580078125 313.65399169921875 313.06500244140625 312.8389892578125 312.2860107421875 311.6709899902344 310.9100036621094 310.25 309.3529968261719 309.27899169921875 308.60101318359375 308.5469970703125 308.6759948730469 307.75201416015625 306.4729919433594 305.6830139160156 305.74798583984375 306.1189880371094 307.0610046386719 308.24700927734375 309.572998046875 310.8800048828125 311.8949890136719 312.7099914550781 313.3840026855469 314.0710144042969 314.4389953613281 314.8800048828125 -9999 -9999 -9999 -9999 -9999 -9999 -9999 -9999 -9999 -9999 -9999 -9999 -9999 -9999 -9999 -9999 -9999 -9999 -9999 -9999 -9999 -9999 -9999 -9999 -9999 -9999 -9999 -9999 -9999 -9999 -9999 -9999 -9999 -9999 -9999 -9999 -9999 -9999 -9999 -9999 -9999 -9999 -9999 -9999 -9999 -9999 -9999 -9999 -9999 -9999 -9999 -9999 -9999 -9999 -9999 -9999 -9999 -9999 -9999 -9999 -9999
-9999 -9999 -9999 -9999 -9999 -9999 -9999 -9999 -9999 -9999 -9999 -9999 -9999 -9999 -9999 -9999 -9999 -9999 -9999 -9999 -9999 305.9259948730469 306.739013671875 307.5360107421875 308.3219909667969 308.9440002441406 309.3089904785156 309.76800537109375 309.4729919433594 309.16900634765625 308.635986328125 308.0580139160156 307.25 306.3139953613281 305.0509948730469 303.2929992675781 300.8139953613281 298.22198486328125 297.010009765625 296.02899169921875 296.5710144042969 297.5889892578125 298.9930114746094 300.31298828125 299.8710021972656 299.50299072265625 299.7900085449219 301.0060119628906 302.2690124511719 303.7380065917969 304.9230041503906 305.1789855957031 304.5740051269531 303.2770080566406 301.781005859375 301.2650146484375 302.0799865722656 304.48199462890625 307.7569885253906 311.0780029296875 313.4830017089844 314.5450134277344 315.2539978027344 315.9649963378906 315.85198974609375 314.97601318359375 314.5400085449219 312.9809875488281 311.77801513671875 310.83099365234375 310.06500244140625 310.20098876953125 309.2340087890625 308.0329895019531 307.989990234375 307.4849853515625 307.3699951171875 306.3160095214844 306.35400390625 306.5559997558594 306.8030090332031 305.1300048828125 304.7179870605469 304.375 304.54998779296875 305.3370056152344 306.3900146484375 307.73699951171875 309.031005859375 310.2560119628906 311.2149963378906 311.9419860839844 312.63299560546875 313.3030090332031 313.99798583984375 314.43499755859375 314.875 -9999 -9999 -9999 -9999 -9999 -9999 -9999 -9999 -9999 -9999 -9999 -9999 -9999 -9999 -9999 -9999 -9999 -9999 -9999 -9999 -9999 -9999 -9999 -9999 -9999 -9999 -9999 -9999 -9999 -9999 -9999 -9999 -9999 -9999 -9999 -9999 -9999 -9999 -9999 -9999 -9999 -9999 -9999 -9999 -9999 -9999 -9999 -9999 -9999 -9999 -9999 -9999 -9999 -9999 -9999 -9999 -9999 -9999 -9999 -9999
-9999 -9999 -9999 -9999 -9999 -9999 -9999 -9999 -9999 -9999 -9999 -9999 -9999 -9999 -9999 -9999 -9999 -9999 -9999 -9999 -9999 305.427001953125 306.19000244140625 306.9179992675781 307.87200927734375 308.77099609375 309.26300048828125 309.7139892578125 309.4639892578125 308.9939880371094 308.60699462890625 307.9460144042969 307.1260070800781 306.3080139160156 305.54998779296875 303.81500244140625 301.5360107421875 298.7380065917969 297.0159912109375 295.4599914550781 294.8760070800781 295.02301025390625 295.7309875488281 297.1579895019531 297.1319885253906 297.67498779296875 299.1730041503906 300.5840148925781 301.97698974609375 303.3529968261719 304.26800537109375 304.2040100097656 303.0190124511719 301.343994140625 300.04998779296875 300.2919921875 302.02899169921875 304.82501220703125 308.14300537109375 311.4779968261719 312.8680114746094 313.29998779296875 313.3160095214844 313.28399658203125 312.75799560546875 312.0820007324219 311.3190002441406 309.9419860839844 309.4339904785156 308.197998046875 307.5710144042969 307.1419982910156 306.02801513671875 305.2550048828125 304.5660095214844 304.61700439453125 303.5270080566406 303.8500061035156 304.0769958496094 304.656005859375 303.2439880371094 303.9339904785156 303.3210144042969 303.2070007324219 303.4909973144531 304.4079895019531 305.79901123046875 307.2229919433594 308.4830017089844 309.47698974609375 310.406005859375 311.1239929199219 311.8269958496094 312.5950012207031 313.3179931640625 314.0790100097656 314.5039978027344 314.906005859375 -9999 -9999 -9999 -9999 -9999 -9999 -9999 -9999 -9999 -9999 -9999 -9999 -9999 -9999 -9999 -9999 -9999 -9999 -9999 -9999 -9999 -9999 -9999 -9999 -9999 -9999 -9999 -9999 -9999 -9999 -9999 -9999 -9999 -9999 -9999 -9999 -9999 -9999 -9999 -9999 -9999 -9999 -9999 -9999 -9999 -9999 -9999 -9999 -9999 -9999 -9999 -9999 -9999 -9999 -9999 -9999 -9999 -9999 -9999
-9999 -9999 -9999 -9999 -9999 -9999 -9999 -9999 -9999 -9999 -9999 -9999 -9999 -9999 -9999 -9999 -9999 -9999 -9999 -9999 -9999 304.9230041503906 305.8389892578125 306.9200134277344 307.7430114746094 308.6260070800781 309.29400634765625 309.7900085449219 309.2969970703125 308.9809875488281 308.5270080566406 307.93701171875 307.1830139160156 306.4330139160156 305.54400634765625 304.52899169921875 302.7799987792969 300.36700439453125 297.6499938964844 295.69000244140625 294.2330017089844 294.0090026855469 293.3999938964844 294.22601318359375 294.9490051269531 297.3179931640625 298.8160095214844 300.06500244140625 301.41400146484375 302.60198974609375 303.135986328125 302.6830139160156 300.9549865722656 299.3819885253906 298.3299865722656 299.6780090332031 301.9280090332031 304.54901123046875 307.11199951171875 309.8370056152344 310.8580017089844 310.3590087890625 310.1549987792969 309.9429931640625 309.1669921875 308.34600830078125 307.6919860839844 306.4079895019531 305.81201171875 305.6239929199219 305.2820129394531 304.7749938964844 303.1199951171875 302.0159912109375 301.2770080566406 300.8599853515625 301.12298583984375 301.46099853515625 302.14898681640625 301.59698486328125 302.3039855957031 302.41900634765625 302.239990234375 302.09600830078125 302.4939880371094 303.6419982910156 305.239990234375 306.52801513671875 307.7489929199219 308.71600341796875 309.50799560546875 310.35101318359375 311.17401123046875 311.9530029296875 312.81500244140625 313.5830078125 314.3819885253906 314.5270080566406 315.1929931640625 -9999 -9999 -9999 -9999 -9999 -9999 -9999 -9999 -9999 -9999 -9999 -9999 -9999 -9999 -9999 -9999 -9999 -9999 -9999 -9999 -9999 -9999 -9999 -9999 -9999 -9999 -9999 -9999 -9999 -9999 -9999 -9999 -9999 -9999 -9999 -9999 -9999 -9999 -9999 -9999 -9999 -9999 -9999 -9999 -9999 -9999 -9999 -9999 -9999 -9999 -9999 -9999 -9999 -9999 -9999 -9999 -9999 -9999
-9999 -9999 -9999 -9999 -9999 -9999 -9999 -9999 -9999 -9999 -9999 -9999 -9999 -9999 -9999 -9999 -9999 -9999 -9999 -9999 -9999 304.8699951171875 305.7229919433594 306.947998046875 307.91900634765625 308.81201171875 309.385009765625 309.77301025390625 309.37298583984375 309.0299987792969 308.6199951171875 308.0360107421875 307.51300048828125 306.7380065917969 305.8370056152344 305.239013671875 304.072998046875 302.24200439453125 299.2200012207031 295.97198486328125 293.7669982910156 293.1990051269531 292.72100830078125 292.6820068359375 295.4209899902344 297.5350036621094 298.3190002441406 299.114013671875 300.1730041503906 301.2040100097656 301.32000732421875 300.2550048828125 298.60400390625 297.1910095214844 297.26300048828125 299.0270080566406 301.4079895019531 303.093994140625 305.0140075683594 306.9779968261719 307.4620056152344 306.8340148925781 306.2130126953125 306.25299072265625 305.6210021972656 304.74200439453125 304.468994140625 303.697998046875 303.1860046386719 302.47698974609375 302.343994140625 301.32598876953125 299.635009765625 298.5690002441406 298.4840087890625 298.87200927734375 298.97900390625 299.61199951171875 299.8500061035156 299.89300537109375 300.7749938964844 301.2130126953125 301.1809997558594 301.1730041503906 301.6919860839844 302.97100830078125 304.3810119628906 305.8739929199219 306.9049987792969 307.85198974609375 308.7619934082031 309.6780090332031 310.6650085449219 311.6570129394531 312.614013671875 313.4840087890625 314.3110046386719 314.8840026855469 315.23699951171875 -9999 -9999 -9999 -9999 -9999 -9999 -9999 -9999 -9999 -9999 -9999 -9999 -9999 -9999 -9999 -9999 -9999 -9999 -9999 -9999 -9999 -9999 -9999 -9999 -9999 -9999 -9999 -9999 -9999 -9999 -9999 -9999 -9999 -9999 -9999 -9999 -9999 -9999 -9999 -9999 -9999 -9999 -9999 -9999 -9999 -9999 -9999 -9999 -9999 -9999 -9999 -9999 -9999 -9999 -9999 -9999 -9999 -9999
-9999 -9999 -9999 -9999 -9999 -9999 -9999 -9999 -9999 -9999 -9999 -9999 -9999 -9999 -9999 -9999 -9999 -9999 -9999 -9999 -9999 304.9859924316406 306.0880126953125 307.1619873046875 308.2699890136719 309.04901123046875 309.62200927734375 309.5660095214844 309.4410095214844 309.1570129394531 308.87799072265625 308.35400390625 307.7120056152344 307.010986328125 306.37298583984375 305.6289978027344 304.9419860839844 303.510986328125 300.885009765625 297.1669921875 294.12298583984375 292.7770080566406 292.4179992675781 292.1679992675781 293.6440124511719 296.0679931640625 297.1730041503906 297.781005859375 298.38800048828125 298.8689880371094 298.56298828125 297.02899169921875 295.9750061035156 295.77099609375 296.6629943847656 298.3550109863281 299.9909973144531 301.59698486328125 303.1650085449219 304.52398681640625 304.3900146484375 303.5710144042969 303.0150146484375 302.85400390625 302.1730041503906 301.4320068359375 301.375 300.91400146484375 299.74798583984375 299.3890075683594 299.54901123046875 298.70599365234375 297.2279968261719 296.1839904785156 295.7550048828125 297.593994140625 297.5669860839844 298.1510009765625 297.39801025390625 298.6730041503906 299.52301025390625 299.87701416015625 300.239013671875 300.7030029296875 301.08599853515625 302.19500732421875 303.6499938964844 305.02099609375 306.2099914550781 307.15899658203125 308.2030029296875 309.30999755859375 310.4129943847656 311.5409851074219 312.7929992675781 313.8219909667969 314.54998779296875 315.0270080566406 315.4570007324219 315.760009765625 -9999 -9999 -9999 -9999 -9999 -9999 -9999 -9999 -9999 -9999 -9999 -9999 -9999 -9999 -9999 -9999 -9999 -9999 -9999 -9999 -9999 -9999 -9999 -9999 -9999 -9999 -9999 -9999 -9999 -9999 -9999 -9999 -9999 -9999 -9999 -9999 -9999 -9999 -9999 -9999 -9999 -9999 -9999 -9999 -9999 -9999 -9999 -9999 -9999 -9999 -9999 -9999 -9999 -9999 -9999 -9999 -9999
-9999 -9999 -9999 -9999 -9999 -9999 -9999 -9999 -9999 -9999 -9999 -9999 -9999 -9999 -9999 -9999 -9999 -9999 -9999 -9999 304.13299560546875 305.1709899902344 306.32000732421875 307.3689880371094 308.4200134277344 309.2019958496094 309.77899169921875 309.8380126953125 309.64599609375 309.37200927734375 308.9100036621094 308.4429931640625 307.8909912109375 307.2149963378906 306.5690002441406 305.8320007324219 304.8970031738281 302.8370056152344 301.593994140625 298.3800048828125 294.8970031738281 292.6809997558594 292.0849914550781 291.8970031738281 291.69500732421875 292.63299560546875 294.3630065917969 295.489990234375 296.072998046875 296.0929870605469 294.83599853515625 293.4410095214844 293.0580139160156 294.7139892578125 296.3030090332031 297.6419982910156 298.6820068359375 299.5539855957031 300.96099853515625 302.16900634765625 301.718994140625 300.7130126953125 300.0830078125 299.8389892578125 299.5140075683594 299.1600036621094 298.9570007324219 298.4739990234375 297.9490051269531 297.1419982910156 297.2669982910156 296.4630126953125 295.3789978027344 294.6340026855469 293.8789978027344 296.49700927734375 296.1579895019531 295.2030029296875 296.6650085449219 298.1940002441406 298.4209899902344 298.968994140625 299.4150085449219 300.03399658203125 300.91900634765625 301.9280090332031 303.20001220703125 304.5880126953125 305.90301513671875 307.0559997558594 308.2090148925781 309.2760009765625 310.9700012207031 312.2130126953125 313.3349914550781 314.2040100097656 314.8819885253906 315.39300537109375 315.7900085449219 316.03399658203125 316.1629943847656 -9999 -9999 -9999 -9999 -9999 -9999 -9999 -9999 -9999 -9999 -9999 -9999 -9999 -9999 -9999 -9999 -9999 -9999 -9999 -9999 -9999 -9999 -9999 -9999 -9999 -9999 -9999 -9999 -9999 -9999 -9999 -9999 -9999 -9999 -9999 -9999 -9999 -9999 -9999 -9999 -9999 -9999 -9999 -9999 -9999 -9999 -9999 -9999 -9999 -9999 -9999 -9999 -9999 -9999 -9999 -9999
-9999 -9999 -9999 -9999 -9999 -9999 -9999 -9999 -9999 -9999 -9999 -9999 -9999 -9999 -9999 -9999 -9999 -9999 -9999 -9999 304.14898681640625 305.2760009765625 306.4339904785156 307.4419860839844 308.4460144042969 309.1239929199219 309.5880126953125 309.8659973144531 309.6809997558594 309.3890075683594 308.9939880371094 308.3280029296875 307.6090087890625 306.7900085449219 305.9840087890625 303.8370056152344 301.947998046875 300.9419860839844 300.1919860839844 298.114013671875 295.0140075683594 292.4739990234375 291.7640075683594 291.5350036621094 291.06201171875 290.9209899902344 290.677001953125 292.10699462890625 292.96600341796875 292.52398681640625 291.3789978027344 290.875 292.3550109863281 294.385009765625 295.8590087890625 296.45599365234375 297.2090148925781 298.2430114746094 299.2929992675781 299.85400390625 299.45098876953125 298.739990234375 298.4809875488281 298.1719970703125 297.3450012207031 297.0299987792969 296.77899169921875 296.38800048828125 295.7030029296875 294.6099853515625 294.8680114746094 293.89300537109375 292.9949951171875 292.63800048828125 291.74200439453125 291.5889892578125 292.7659912109375 294.87298583984375 295.7690124511719 296.4209899902344 297.32598876953125 298.14898681640625 298.97601318359375 299.5140075683594 300.59100341796875 301.8320007324219 303.2619934082031 304.70098876953125 305.93798828125 307.2149963378906 309.2980041503906 310.4909973144531 311.70001220703125 312.83099365234375 313.9070129394531 314.7799987792969 315.46600341796875 315.864990234375 316.1289978027344 316.2699890136719 316.4230041503906 316.3999938964844 -9999 -9999 -9999 -9999 -9999 -9999 -9999 -9999 -9999 -9999 -9999 -9999 -9999 -9999 -9999 -9999 -9999 -9999 -9999 -9999 -9999 -9999 -9999 -9999 -9999 -9999 -9999 -9999 -9999 -9999 -9999 -9999 -9999 -9999 -9999 -9999 -9999 -9999 -9999 -9999 -9999 -9999 -9999 -9999 -9999 -9999 -9999 -9999 -9999 -9999 -9999 -9999 -9999 -9999 -9999
-9999 -9999 -9999 -9999 -9999 -9999 -9999 -9999 -9999 -9999 -9999 -9999 -9999 -9999 -9999 -9999 -9999 -9999 -9999 -9999 303.8970031738281 305.1050109863281 306.3290100097656 307.24700927734375 308.2179870605469 308.8630065917969 309.4599914550781 309.6239929199219 309.5299987792969 309.1050109863281 308.3800048828125 307.3269958496094 306.57501220703125 305.78399658203125 304.51300048828125 303.4989929199219 301.7879943847656 299.6700134277344 297.9519958496094 295.3819885253906 293.27801513671875 291.84698486328125 291.43701171875 290.91900634765625 290.3280029296875 290.4079895019531 290.3299865722656 289.66900634765625 289.43701171875 289.4460144042969 289.40301513671875 289.39300537109375 290.6969909667969 292.80999755859375 293.79901123046875 294.3269958496094 294.89300537109375 295.7850036621094 296.8320007324219 297.28399658203125 297.16900634765625 296.7690124511719 296.4360046386719 295.7340087890625 295.22198486328125 295.0039978027344 294.88800048828125 294.3139953613281 293.572998046875 292.20098876953125 292.0379943847656 291.2359924316406 290.4679870605469 289.2699890136719 289.3330078125 290.96600341796875 293.20599365234375 293.4410095214844 294.5899963378906 295.63800048828125 296.6759948730469 297.39898681640625 299.0710144042969 300.3330078125 301.5830078125 303.09698486328125 303.8819885253906 305.1000061035156 307.77801513671875 308.8429870605469 310.0870056152344 311.322998046875 312.5220031738281 313.6400146484375 314.70098876953125 315.43499755859375 315.92999267578125 316.24798583984375 316.4549865722656 316.52099609375 316.468994140625 316.343994140625 316.10400390625 -9999 -9999 -9999 -9999 -9999 -9999 -9999 -9999 -9999 -9999 -9999 -9999 -9999 -9999 -9999 -9999 -9999 -9999 -9999 -9999 -9999 -9999 -9999 -9999 -9999 -9999 -9999 -9999 -9999 -9999 -9999 -9999 -9999 -9999 -9999 -9999 -9999 -9999 -9999 -9999 -9999 -9999 -9999 -9999 -9999 -9999 -9999 -9999 -9999 -9999 -9999 -9999 -9999 -9999
-9999 -9999 -9999 -9999 -9999 -9999 -9999 -9999 -9999 -9999 -9999 -9999 -9999 -9999 -9999 -9999 -9999 -9999 -9999 -9999 303.6090087890625 304.8399963378906 305.9840087890625 307.07598876953125 308.0559997558594 308.76800537109375 308.9729919433594 308.90399169921875 308.5469970703125 307.7170104980469 306.5849914550781 305.6210021972656 304.68798828125 303.7130126953125 301.82598876953125 301.1510009765625 299.7359924316406 297.95599365234375 295.385009765625 293.2619934082031 292.385009765625 291.6449890136719 290.7929992675781 290.0719909667969 289.78399658203125 289.6629943847656 289.47698974609375 288.8219909667969 288.2860107421875 288.239990234375 288.1180114746094 288.38800048828125 288.5899963378906 289.64898681640625 290.572998046875 291.2590026855469 291.8179931640625 292.427001953125 293.4620056152344 294.35400390625 294.79901123046875 294.7669982910156 294.4440002441406 293.8710021972656 293.5039978027344 293.36199951171875 293.114990234375 292.5950012207031 291.5169982910156 290.09600830078125 289.57000732421875 288.8810119628906 287.8340148925781 287.635009765625 288.72198486328125 289.05999755859375 290.3819885253906 293.40399169921875 294.7650146484375 296.239013671875 296.9830017089844 298.6969909667969 299.0539855957031 301.1390075683594 302.6549987792969 304.2919921875 305.6300048828125 306.8420104980469 308.7760009765625 309.8800048828125 311.10400390625 312.31500244140625 313.4800109863281 314.5450134277344 315.38299560546875 315.9570007324219 316.34600830078125 316.56298828125 316.6159973144531 316.4049987792969 316.1499938964844 315.7869873046875 315.4679870605469 -9999 -9999 -9999 -9999 -9999 -9999 -9999 -9999 -9999 -9999 -9999 -9999 -9999 -9999 -9999 -9999 -9999 -9999 -9999 -9999 -9999 -9999 -9999 -9999 -9999 -9999 -9999 -9999 -9999 -9999 -9999 -9999 -9999 -9999 -9999 -9999 -9999 -9999 -9999 -9999 -9999 -9999 -9999 -9999 -9999 -9999 -9999 -9999 -9999 -9999 -9999 -9999 -9999 -9999
-9999 -9999 -9999 -9999 -9999 -9999 -9999 -9999 -9999 -9999 -9999 -9999 -9999 -9999 -9999 -9999 -9999 -9999 -9999 -9999 303.73699951171875 304.6260070800781 305.78399658203125 306.9309997558594 308.0400085449219 308.8680114746094 308.5989990234375 307.93798828125 306.89801025390625 306.2380065917969 305.2879943847656 304.2860107421875 303.40301513671875 302.17498779296875 300.67401123046875 298.87701416015625 297.4989929199219 295.67401123046875 294.31500244140625 293.63299560546875 292.4230041503906 292.70599365234375 291.4339904785156 290.41400146484375 289.76300048828125 289.239990234375 288.8559875488281 288.2239990234375 287.82501220703125 287.6549987792969 287.69500732421875 287.3179931640625 286.760986328125 287.3330078125 287.7820129394531 288.4939880371094 288.6029968261719 288.8399963378906 289.364013671875 290.2749938964844 291.58099365234375 291.968994140625 292.17498779296875 291.79901123046875 291.510009765625 291.635986328125 291.3320007324219 290.65301513671875 289.489013671875 287.87200927734375 287.0220031738281 286.885009765625 286.35400390625 287.76800537109375 288.78399658203125 291.3089904785156 292.6449890136719 294.0469970703125 295.6889953613281 296.7669982910156 298.27301025390625 299.5329895019531 300.625 302.0369873046875 303.89599609375 305.4010009765625 306.9259948730469 308.281005859375 310.0690002441406 311.1000061035156 312.23199462890625 313.3489990234375 314.385009765625 315.2340087890625 315.906005859375 316.3840026855469 316.6159973144531 316.65399169921875 316.51300048828125 316.052001953125 315.3659973144531 315.16900634765625 314.968994140625 314.81500244140625 -9999 -9999 -9999 -9999 -9999 -9999 -9999 -9999 -9999 -9999 -9999 -9999 -9999 -9999 -9999 -9999 -9999 -9999 -9999 -9999 -9999 -9999 -9999 -9999 -9999 -9999 -9999 -9999 -9999 -9999 -9999 -9999 -9999 -9999 -9999 -9999 -9999 -9999 -9999 -9999 -9999 -9999 -9999 -9999 -9999 -9999 -9999 -9999 -9999 -9999 -9999 -9999 -9999
-9999 -9999 -9999 -9999 -9999 -9999 -9999 -9999 -9999 -9999 -9999 -9999 -9999 -9999 -9999 -9999 -9999 -9999 -9999 -9999 303.60198974609375 304.0450134277344 305.5669860839844 307.125 308.1369934082031 308.8590087890625 307.89300537109375 306.7720031738281 305.76800537109375 304.885986328125 303.8630065917969 303.13800048828125 301.95001220703125 300.62298583984375 299.14801025390625 297.6759948730469 296.4880065917969 295.6759948730469 294.87298583984375 293.63299560546875 294.64801025390625 295.1390075683594 293.8760070800781 291.6090087890625 290.135009765625 289.6400146484375 288.71600341796875 288.35699462890625 287.7879943847656 287.3949890136719 286.97100830078125 286.2650146484375 286.17999267578125 286.114990234375 285.4280090332031 286.2349853515625 285.2430114746094 285.9989929199219 286.3890075683594 287.0929870605469 287.8290100097656 288.4630126953125 288.760986328125 288.5660095214844 288.04400634765625 289.49200439453125 289.6080017089844 288.7049865722656 287.52899169921875 285.87799072265625 285.02801513671875 285.05999755859375 286.5710144042969 287.1180114746094 290.2699890136719 291.97601318359375 293.8630065917969 295.5979919433594 296.98199462890625 298.3160095214844 299.6080017089844 301.3219909667969 302.7650146484375 303.9989929199219 305.37799072265625 306.8030090332031 308.13800048828125 309.5320129394531 310.5830078125 312.38299560546875 313.4110107421875 314.2669982910156 315.09600830078125 315.7980041503906 316.2279968261719 316.510009765625 316.5069885253906 316.3609924316406 315.9049987792969 315.40301513671875 314.9150085449219 314.45098876953125 314.20599365234375 314.0360107421875 314.0199890136719 -9999 -9999 -9999 -9999 -9999 -9999 -9999 -9999 -9999 -9999 -9999 -9999 -9999 -9999 -9999 -9999 -9999 -9999 -9999 -9999 -9999 -9999 -9999 -9999 -9999 -9999 -9999 -9999 -9999 -9999 -9999 -9999 -9999 -9999 -9999 -9999 -9999 -9999 -9999 -9999 -9999 -9999 -9999 -9999 -9999 -9999 -9999 -9999 -9999 -9999 -9999 -9999
-9999 -9999 -9999 -9999 -9999 -9999 -9999 -9999 -9999 -9999 -9999 -9999 -9999 -9999 -9999 -9999 -9999 -9999 -9999 304.37298583984375 305.4729919433594 306.5010070800781 307.802001953125 307.88800048828125 308.22601318359375 308.92999267578125 307.2539978027344 305.93701171875 304.75 303.72900390625 302.8609924316406 301.77398681640625 300.9119873046875 299.6440124511719 298.47900390625 297.44500732421875 296.39599609375 295.2959899902344 294.6759948730469 295.489013671875 296.25299072265625 296.57000732421875 295.9150085449219 293.9110107421875 291.9410095214844 290.5409851074219 289.70599365234375 289.05999755859375 287.510009765625 286.95599365234375 286.5369873046875 286.2040100097656 285.6600036621094 285.3110046386719 284.7980041503906 284.64801025390625 283.98699951171875 283.8299865722656 283.9110107421875 283.89300537109375 284.2170104980469 285.3240051269531 285.8039855957031 285.7799987792969 285.8399963378906 286.6570129394531 286.7950134277344 285.9010009765625 284.90301513671875 283.9219970703125 284.00799560546875 284.6969909667969 285.92401123046875 288.3710021972656 290.9209899902344 293.0740051269531 294.9840087890625 296.86199951171875 298.3840026855469 299.8869934082031 301.3089904785156 302.7460021972656 304.2359924316406 305.5889892578125 306.9630126953125 308.1180114746094 309.37298583984375 310.76300048828125 312.15399169921875 313.1759948730469 314.2820129394531 315.0840148925781 315.9159851074219 316.2560119628906 316.385009765625 316.3810119628906 316.1369934082031 315.70098876953125 315.1780090332031 314.5320129394531 313.875 313.3810119628906 313.1709899902344 313.22100830078125 313.3800048828125 313.46099853515625 -9999 -9999 -9999 -9999 -9999 -9999 -9999 -9999 -9999 -9999 -9999 -9999 -9999 -9999 -9999 -9999 -9999 -9999 -9999 -9999 -9999 -9999 -9999 -9999 -9999 -9999 -9999 -9999 -9999 -9999 -9999 -9999 -9999 -9999 -9999 -9999 -9999 -9999 -9999 -9999 -9999 -9999 -9999 -9999 -9999 -9999 -9999 -9999 -9999 -9999 -9999
-9999 -9999 -9999 -9999 -9999 -9999 -9999 -9999 -9999 -9999 -9999 -9999 -9999 -9999 -9999 -9999 -9999 -9999 -9999 305.375 306.94000244140625 308.739990234375 309.89898681640625 309.9960021972656 309.2829895019531 308.55999755859375 306.80499267578125 305.3070068359375 304.0350036621094 302.8840026855469 301.98699951171875 300.9989929199219 300.2300109863281 299.2820129394531 298.1629943847656 297.41400146484375 296.593994140625 296.2980041503906 296.5050048828125 297.1600036621094 297.62298583984375 297.7130126953125 297.27398681640625 296.0979919433594 294.51300048828125 293.09100341796875 291.46099853515625 290.0220031738281 288.4440002441406 287.5830078125 286.3710021972656 285.7929992675781 285.4169921875 284.9849853515625 284.43701171875 283.8689880371094 283.3590087890625 283.3190002441406 283.3039855957031 283.2539978027344 283.2349853515625 283.3810119628906 283.21600341796875 283.39898681640625 283.2539978027344 283.4590148925781 283.7380065917969 283.3269958496094 282.864013671875 283.2300109863281 283.6730041503906 284.3210144042969 286.5820007324219 289.6919860839844 291.8500061035156 293.8689880371094 295.8710021972656 297.7539978027344 299.5840148925781 301.0820007324219 302.7640075683594 304.2460021972656 305.6210021972656 307.1109924316406 308.35101318359375 309.4750061035156 310.7929992675781 311.94500732421875 313.1130065917969 314.1099853515625 315.06201171875 315.27301025390625 315.5379943847656 315.82501220703125 315.99200439453125 315.93798828125 315.72601318359375 315.2070007324219 314.5140075683594 313.4830017089844 312.7229919433594 312.2120056152344 312.0710144042969 312.35400390625 312.7019958496094 312.93499755859375 313.0849914550781 -9999 -9999 -9999 -9999 -9999 -9999 -9999 -9999 -9999 -9999 -9999 -9999 -9999 -9999 -9999 -9999 -9999 -9999 -9999 -9999 -9999 -9999 -9999 -9999 -9999 -9999 -9999 -9999 -9999 -9999 -9999 -9999 -9999 -9999 -9999 -9999 -9999 -9999 -9999 -9999 -9999 -9999 -9999 -9999 -9999 -9999 -9999 -9999 -9999 -9999
-9999 -9999 -9999 -9999 -9999 -9999 -9999 -9999 -9999 -9999 -9999 -9999 -9999 -9999 -9999 -9999 -9999 -9999 -9999 306.7049865722656 309.3039855957031 311.3429870605469 312.0610046386719 311.02301025390625 309.6080017089844 308.447998046875 306.6730041503906 305.14898681640625 303.8630065917969 302.5979919433594 301.7330017089844 300.9800109863281 299.90399169921875 299.27899169921875 298.6090087890625 298.02099609375 297.968994140625 297.8739929199219 298.08099365234375 298.64898681640625 299.0530090332031 298.9150085449219 298.5299987792969 297.7449951171875 296.9570007324219 295.8070068359375 293.8919982910156 291.8219909667969 290.3169860839844 288.80999755859375 287.48699951171875 286.6080017089844 286.0929870605469 284.85699462890625 284.6319885253906 284.0039978027344 283.5849914550781 283.2959899902344 282.9549865722656 282.8059997558594 282.70599365234375 282.70001220703125 282.7409973144531 282.635986328125 282.4549865722656 282.2950134277344 282.52099609375 282.2799987792969 282.4360046386719 282.9700012207031 282.8529968261719 284.6719970703125 287.9289855957031 290.14300537109375 292.29998779296875 294.3290100097656 296.2229919433594 298.3609924316406 300.29901123046875 302.1050109863281 303.9830017089844 305.57000732421875 307.1180114746094 308.5830078125 309.6390075683594 310.7590026855469 311.9429931640625 312.9549865722656 313.8800048828125 314.427001953125 314.781005859375 314.9590148925781 315.2510070800781 315.30499267578125 315.3940124511719 314.82000732421875 314.0899963378906 313.0669860839844 312.10699462890625 311.3659973144531 311.4020080566406 311.17999267578125 311.1969909667969 311.5660095214844 311.9989929199219 312.4280090332031 312.6610107421875 -9999 -9999 -9999 -9999 -9999 -9999 -9999 -9999 -9999 -9999 -9999 -9999 -9999 -9999 -9999 -9999 -9999 -9999 -9999 -9999 -9999 -9999 -9999 -9999 -9999 -9999 -9999 -9999 -9999 -9999 -9999 -9999 -9999 -9999 -9999 -9999 -9999 -9999 -9999 -9999 -9999 -9999 -9999 -9999 -9999 -9999 -9999 -9999 -9999 -9999
-9999 -9999 -9999 -9999 -9999 -9999 -9999 -9999 -9999 -9999 -9999 -9999 -9999 -9999 -9999 -9999 -9999 -9999 -9999 308.46600341796875 311.4389953613281 313.12799072265625 312.97100830078125 311.13299560546875 310.1059875488281 308.510009765625 306.8269958496094 305.2049865722656 303.93499755859375 302.8420104980469 302.10699462890625 301.1470031738281 300.42401123046875 299.75799560546875 299.1730041503906 298.7149963378906 298.5769958496094 298.9700012207031 299.57598876953125 300.4729919433594 300.94500732421875 300.9200134277344 300.47900390625 299.864013671875 299.16900634765625 298.4830017089844 296.9360046386719 294.2439880371094 292.3389892578125 291.5249938964844 289.74200439453125 288.510986328125 287.4259948730469 286.3760070800781 285.2950134277344 284.25 283.7139892578125 283.4360046386719 283.1919860839844 282.7550048828125 282.5669860839844 282.0150146484375 282.1549987792969 281.87200927734375 281.7179870605469 281.52398681640625 282.2760009765625 282.10101318359375 282.21600341796875 282.2900085449219 282.46600341796875 285.0880126953125 288.5559997558594 290.45098876953125 292.572998046875 294.6059875488281 296.2179870605469 298.32598876953125 300.8080139160156 302.9469909667969 304.8139953613281 306.6390075683594 308.1629943847656 309.4219970703125 310.6180114746094 311.7359924316406 312.739990234375 313.64801025390625 314.1520080566406 314.2619934082031 314.40301513671875 314.4859924316406 314.9549865722656 314.8059997558594 314.3190002441406 313.59100341796875 312.3949890136719 310.53399658203125 309.7569885253906 308.71600341796875 308.7850036621094 309.3710021972656 310.3489990234375 310.8819885253906 311.35198974609375 311.8599853515625 312.2120056152344 312.4339904785156 -9999 -9999 -9999 -9999 -9999 -9999 -9999 -9999 -9999 -9999 -9999 -9999 -9999 -9999 -9999 -9999 -9999 -9999 -9999 -9999 -9999 -9999 -9999 -9999 -9999 -9999 -9999 -9999 -9999 -9999 -9999 -9999 -9999 -9999 -9999 -9999 -9999 -9999 -9999 -9999 -9999 -9999 -9999 -9999 -9999 -9999 -9999 -9999 -9999
-9999 -9999 -9999 -9999 -9999 -9999 -9999 -9999 -9999 -9999 -9999 -9999 -9999 -9999 -9999 -9999 -9999 -9999 -9999 309.9530029296875 312.3909912109375 313.56298828125 313.02398681640625 311.125 310.43798828125 308.3599853515625 306.67498779296875 305.5929870605469 304.5140075683594 303.6730041503906 303.0679931640625 302.4320068359375 301.66400146484375 300.7860107421875 300.2449951171875 299.5 299.4219970703125 299.9320068359375 300.6929931640625 301.5740051269531 302.3819885253906 302.72698974609375 302.739990234375 301.84698486328125 301.1700134277344 300.4830017089844 299.3330078125 297.52099609375 295.92498779296875 294.8039855957031 292.9570007324219 291.4389953613281 290.260009765625 288.7799987792969 287.36700439453125 286.1549987792969 284.83099365234375 284.2090148925781 283.35198974609375 283.0790100097656 282.718994140625 282.3800048828125 282.1499938964844 281.43798828125 281.1719970703125 281.3890075683594 282.32000732421875 282.093994140625 280.99200439453125 279.95098876953125 281.89599609375 284.7019958496094 288.25799560546875 290.83099365234375 292.94500732421875 294.9800109863281 297.0090026855469 299.22698974609375 301.4429931640625 303.656005859375 305.6830139160156 307.4729919433594 308.8320007324219 310.114990234375 311.2430114746094 312.28900146484375 313.1889953613281 313.77099609375 313.77301025390625 313.6300048828125 313.5039978027344 313.4410095214844 313.63800048828125 313.7820129394531 312.71099853515625 311.47100830078125 308.7820129394531 308.3210144042969 306.9949951171875 306.79400634765625 306.6940002441406 307.6130065917969 308.9729919433594 310.12701416015625 310.7439880371094 311.1839904785156 311.5369873046875 311.8030090332031 312.0220031738281 -9999 -9999 -9999 -9999 -9999 -9999 -9999 -9999 -9999 -9999 -9999 -9999 -9999 -9999 -9999 -9999 -9999 -9999 -9999 -9999 -9999 -9999 -9999 -9999 -9999 -9999 -9999 -9999 -9999 -9999 -9999 -9999 -9999 -9999 -9999 -9999 -9999 -9999 -9999 -9999 -9999 -9999 -9999 -9999 -9999 -9999 -9999 -9999
-9999 -9999 -9999 -9999 -9999 -9999 -9999 -9999 -9999 -9999 -9999 -9999 -9999 -9999 -9999 -9999 -9999 -9999 -9999 311.2860107421875 313.21099853515625 313.5589904785156 312.8450012207031 311.822998046875 310.7690124511719 309.4110107421875 307.9280090332031 306.8219909667969 306.1600036621094 306.0119934082031 305.85400390625 305.4490051269531 304.7049865722656 303.5050048828125 301.7619934082031 300.89801025390625 300.1520080566406 300.4020080566406 301.1730041503906 302.24200439453125 303.2409973144531 303.8330078125 303.52398681640625 302.97601318359375 302.3919982910156 301.9630126953125 301.0429992675781 300.2640075683594 299.5660095214844 298.66900634765625 296.7030029296875 295.3970031738281 293.85699462890625 292.13800048828125 290.16900634765625 288.3559875488281 286.6199951171875 285.31201171875 284.3489990234375 283.8169860839844 283.06298828125 282.50201416015625 282 281.5150146484375 280.9309997558594 280.42498779296875 279.9670104980469 278.6610107421875 278.9219970703125 278.86700439453125 280.447998046875 282.531005859375 287.45098876953125 290.73199462890625 293.177001953125 295.5740051269531 297.760986328125 299.91400146484375 302.1610107421875 304.3580017089844 306.4339904785156 308.0060119628906 309.385009765625 310.5530090332031 311.6130065917969 312.4360046386719 312.9729919433594 313.1700134277344 312.864013671875 312.2380065917969 311.74700927734375 311.6600036621094 311.52398681640625 311.2590026855469 310.4739990234375 308.9119873046875 307.43701171875 306.135009765625 304.0369873046875 304.46099853515625 305.2980041503906 305.8890075683594 307.27099609375 308.7179870605469 309.9129943847656 310.4570007324219 310.73699951171875 310.9649963378906 311.6919860839844 312.21600341796875 -9999 -9999 -9999 -9999 -9999 -9999 -9999 -9999 -9999 -9999 -9999 -9999 -9999 -9999 -9999 -9999 -9999 -9999 -9999 -9999 -9999 -9999 -9999 -9999 -9999 -9999 -9999 -9999 -9999 -9999 -9999 -9999 -9999 -9999 -9999 -9999 -9999 -9999 -9999 -9999 -9999 -9999 -9999 -9999 -9999 -9999 -9999
-9999 -9999 -9999 -9999 -9999 -9999 -9999 -9999 -9999 -9999 -9999 -9999 -9999 -9999 -9999 -9999 -9999 -9999 310.87200927734375 312.9259948730469 314 313.8349914550781 313.0190124511719 312.4110107421875 312.0150146484375 309.5 309.489990234375 309.0159912109375 309.1210021972656 309.25 309.39300537109375 308.9230041503906 308.1600036621094 306.9429931640625 304.7149963378906 302.2829895019531 301.2699890136719 301.0639953613281 301.63800048828125 302.5719909667969 303.5400085449219 304.1090087890625 304.02899169921875 303.6730041503906 303.239013671875 302.9360046386719 302.3299865722656 301.8840026855469 301.54901123046875 300.8479919433594 299.7460021972656 298.35699462890625 297.010986328125 295.5660095214844 293.822998046875 291.3609924316406 289.17498779296875 287.1929931640625 286.2550048828125 285.24200439453125 284.1940002441406 283.47100830078125 282.14599609375 281.5400085449219 280.76300048828125 279.9639892578125 279.4630126953125 278.9880065917969 277.760009765625 278.3450012207031 278.53900146484375 281.9639892578125 286.0429992675781 289.3330078125 293.6659851074219 295.989990234375 298.09100341796875 300.47100830078125 302.62298583984375 304.72900390625 306.6889953613281 308.468994140625 309.718994140625 310.8190002441406 311.5870056152344 311.89898681640625 312.2030029296875 311.8450012207031 311.072998046875 309.5669860839844 309.0559997558594 309.05999755859375 309.1400146484375 308.7349853515625 308.531005859375 307.11700439453125 305.5669860839844 303.93701171875 302.7850036621094 301.7900085449219 303.0060119628906 304.6130065917969 305.58599853515625 306.9259948730469 308.2969970703125 309.5840148925781 310.1029968261719 310.7539978027344 311.5610046386719 312.02398681640625 -9999 -9999 -9999 -9999 -9999 -9999 -9999 -9999 -9999 -9999 -9999 -9999 -9999 -9999 -9999 -9999 -9999 -9999 -9999 -9999 -9999 -9999 -9999 -9999 -9999 -9999 -9999 -9999 -9999 -9999 -9999 -9999 -9999 -9999 -9999 -9999 -9999 -9999 -9999 -9999 -9999 -9999 -9999 -9999 -9999 -9999 -9999
-9999 -9999 -9999 -9999 -9999 -9999 -9999 -9999 -9999 -9999 -9999 -9999 -9999 -9999 -9999 -9999 -9999 -9999 313.2149963378906 314.6409912109375 314.80999755859375 314.44000244140625 313.8840026855469 313.3070068359375 312.83099365234375 310.89599609375 311.4429931640625 311.3389892578125 311.64599609375 312.14599609375 312.3070068359375 311.85198974609375 310.8479919433594 309.2659912109375 307.04400634765625 304.10198974609375 302.5830078125 302.0069885253906 302.1940002441406 302.9630126953125 303.81298828125 304.3940124511719 304.49200439453125 304.3529968261719 303.864013671875 303.38800048828125 302.8529968261719 302.3500061035156 301.875 300.98199462890625 300.22100830078125 299.43701171875 298.5299987792969 297.57598876953125 296.27301025390625 294.32501220703125 292.0820007324219 290.281005859375 289.114013671875 287.6130065917969 286.27301025390625 285.0589904785156 283.76300048828125 282.17401123046875 280.6099853515625 280.1629943847656 279.3160095214844 278.7879943847656 278.2650146484375 277.9110107421875 278.08099365234375 280.7019958496094 284.3370056152344 288.92401123046875 293.22601318359375 296.5570068359375 298.7879943847656 300.7409973144531 302.8420104980469 305.2250061035156 307.2340087890625 308.90899658203125 309.94000244140625 310.6159973144531 310.94500732421875 311.00299072265625 310.6570129394531 309.5559997558594 308.1759948730469 306.593994140625 306.0039978027344 306.5610046386719 305.9530029296875 305.97601318359375 306 304.6730041503906 303.3399963378906 302.3380126953125 301.39300537109375 299.2749938964844 300.9200134277344 302.47198486328125 304.385009765625 305.2550048828125 306.6000061035156 308.2130126953125 309.8210144042969 310.52099609375 311.2080078125 311.6059875488281 311.843994140625 -9999 -9999 -9999 -9999 -9999 -9999 -9999 -9999 -9999 -9999 -9999 -9999 -9999 -9999 -9999 -9999 -9999 -9999 -9999 -9999 -9999 -9999 -9999 -9999 -9999 -9999 -9999 -9999 -9999 -9999 -9999 -9999 -9999 -9999 -9999 -9999 -9999 -9999 -9999 -9999 -9999 -9999 -9999 -9999 -9999 -9999
-9999 -9999 -9999 -9999 -9999 -9999 -9999 -9999 -9999 -9999 -9999 -9999 -9999 -9999 -9999 -9999 -9999 -9999 314.7659912109375 315.6199951171875 315.4630126953125 315.0480041503906 314.6780090332031 313.9460144042969 313.7659912109375 312.7850036621094 312.8900146484375 313.1929931640625 313.5570068359375 313.7829895019531 313.4110107421875 312.989013671875 311.78900146484375 310.3609924316406 308.2049865722656 305.7760009765625 303.9779968261719 303.0780029296875 303.07000732421875 303.50299072265625 304.1310119628906 304.6650085449219 304.77899169921875 304.5610046386719 304.1000061035156 303.44000244140625 302.9200134277344 302.32000732421875 301.62298583984375 300.85400390625 300.0589904785156 299.3349914550781 298.6080017089844 297.8680114746094 297.031005859375 296.0830078125 294.6809997558594 293.5790100097656 292.4320068359375 290.69500732421875 288.2659912109375 286.6310119628906 284.4880065917969 283.10101318359375 280.1239929199219 280.0329895019531 279.2340087890625 278.28399658203125 277.8659973144531 276.41400146484375 277.4200134277344 279.4230041503906 283.4549865722656 287.7919921875 292.16400146484375 296.1610107421875 299.45599365234375 301.37799072265625 303.6700134277344 305.90301513671875 307.86700439453125 309.18499755859375 309.7330017089844 309.9679870605469 309.8290100097656 309.47900390625 307.843994140625 306.489013671875 305.1940002441406 303.3599853515625 303.4230041503906 303.6700134277344 302.5920104980469 303.2770080566406 302.9419860839844 302.1570129394531 301.0369873046875 300.3689880371094 299.989990234375 299.3599853515625 298.34600830078125 300.85400390625 302.1629943847656 304.5060119628906 305.63299560546875 307.41900634765625 309.1709899902344 310.4779968261719 311.0360107421875 311.48199462890625 311.6839904785156 311.8080139160156 -9999 -9999 -9999 -9999 -9999 -9999 -9999 -9999 -9999 -9999 -9999 -9999 -9999 -9999 -9999 -9999 -9999 -9999 -9999 -9999 -9999 -9999 -9999 -9999 -9999 -9999 -9999 -9999 -9999 -9999 -9999 -9999 -9999 -9999 -9999 -9999 -9999 -9999 -9999 -9999 -9999 -9999 -9999 -9999 -9999
-9999 -9999 -9999 -9999 -9999 -9999 -9999 -9999 -9999 -9999 -9999 -9999 -9999 -9999 -9999 -9999 -9999 -9999 315.385986328125 316.5559997558594 316.2569885253906 316.0840148925781 315.6449890136719 315.0329895019531 314.7919921875 314.11199951171875 314.01800537109375 314.25299072265625 314.0820007324219 313.6289978027344 313.4739990234375 312.9429931640625 311.6440124511719 310.14898681640625 308.1520080566406 306.1189880371094 304.77801513671875 304.1619873046875 303.8349914550781 303.89898681640625 304.2799987792969 304.4490051269531 304.52801513671875 304.3389892578125 303.802001953125 303.2090148925781 302.5989990234375 301.9639892578125 301.34698486328125 300.81298828125 300.1390075683594 299.4930114746094 298.67401123046875 297.9159851074219 297.2640075683594 296.5360107421875 295.8970031738281 295.27899169921875 293.9739990234375 292.0929870605469 290.1390075683594 287.218994140625 283.9020080566406 282.16900634765625 279.7049865722656 279.1659851074219 278.5150146484375 277.7820129394531 277.1789855957031 276.1629943847656 276.8110046386719 278.843994140625 283.1929931640625 287.46600341796875 291.4320068359375 295.7770080566406 299.83099365234375 301.95098876953125 304.2359924316406 306.3399963378906 307.6499938964844 309.1440124511719 309.1929931640625 309.0169982910156 307.9339904785156 306.125 304.2770080566406 303.42999267578125 302.1600036621094 301.0060119628906 300.885009765625 300.7139892578125 300.7720031738281 300.73199462890625 300.2879943847656 299.78900146484375 299.30499267578125 299.2139892578125 298.42498779296875 298.4700012207031 296.5220031738281 299.30499267578125 301.0069885253906 303.0190124511719 305.6180114746094 307.30499267578125 308.9649963378906 310.3160095214844 311.10400390625 311.2090148925781 311.2170104980469 311.18798828125 311.23699951171875 -9999 -9999 -9999 -9999 -9999 -9999 -9999 -9999 -9999 -9999 -9999 -9999 -9999 -9999 -9999 -9999 -9999 -9999 -9999 -9999 -9999 -9999 -9999 -9999 -9999 -9999 -9999 -9999 -9999 -9999 -9999 -9999 -9999 -9999 -9999 -9999 -9999 -9999 -9999 -9999 -9999 -9999 -9999 -9999
-9999 -9999 -9999 -9999 -9999 -9999 -9999 -9999 -9999 -9999 -9999 -9999 -9999 -9999 -9999 -9999 -9999 -9999 315.7090148925781 317.3999938964844 317.28399658203125 316.77301025390625 316.72100830078125 316.4519958496094 315.7349853515625 315.0140075683594 314.61700439453125 314.6499938964844 314.3699951171875 314.1579895019531 313.3590087890625 312.70599365234375 311.1289978027344 309.7430114746094 307.5320129394531 306.12701416015625 305.1650085449219 304.4100036621094 304.2430114746094 303.489990234375 303.5090026855469 303.531005859375 303.52099609375 303.2309875488281 302.7550048828125 302.2749938964844 301.75201416015625 301.3429870605469 301.0570068359375 300.75799560546875 300.25 299.55999755859375 298.9670104980469 298.2959899902344 297.5989990234375 296.8869934082031 296.18701171875 295.5419921875 294.5929870605469 290.4939880371094 285.8370056152344 285.52099609375 282.9800109863281 281.1319885253906 279.3919982910156 278.54901123046875 277.8389892578125 277.13800048828125 276.5539855957031 275.8940124511719 276.20098876953125 278.6470031738281 283.0270080566406 288.07000732421875 291.8169860839844 295.9580078125 299.8030090332031 301.98699951171875 303.875 305.30499267578125 304.7969970703125 306.6839904785156 307.0710144042969 306.7489929199219 305.02899169921875 302.6929931640625 300.85198974609375 299.9530029296875 299.4729919433594 298.69500732421875 298.5270080566406 298.6940002441406 298.47601318359375 298.4159851074219 298.18701171875 297.8210144042969 297.5710144042969 297.34100341796875 297.2909851074219 297.08099365234375 295.7850036621094 298.27099609375 300.1549987792969 302.5429992675781 305.4460144042969 307.3890075683594 308.7330017089844 309.7359924316406 310.3110046386719 310.6180114746094 310.2969970703125 310.239013671875 310.447998046875 310.74798583984375 -9999 -9999 -9999 -9999 -9999 -9999 -9999 -9999 -9999 -9999 -9999 -9999 -9999 -9999 -9999 -9999 -9999 -9999 -9999 -9999 -9999 -9999 -9999 -9999 -9999 -9999 -9999 -9999 -9999 -9999 -9999 -9999 -9999 -9999 -9999 -9999 -9999 -9999 -9999 -9999 -9999 -9999 -9999
-9999 -9999 -9999 -9999 -9999 -9999 -9999 -9999 -9999 -9999 -9999 -9999 -9999 -9999 -9999 -9999 -9999 -9999 315.5 317.68499755859375 318.1210021972656 317.5950012207031 317.7850036621094 317.218994140625 316.2980041503906 315.572998046875 315.22601318359375 314.8190002441406 314.3479919433594 313.9549865722656 313.43499755859375 312.4110107421875 310.3500061035156 308.9880065917969 307.3689880371094 305.9590148925781 304.83099365234375 303.927001953125 302.885986328125 302.2909851074219 302.0660095214844 302.1570129394531 302.14300537109375 301.906005859375 301.54901123046875 301.16900634765625 300.77398681640625 300.4639892578125 300.28399658203125 300.2380065917969 300.1080017089844 299.7619934082031 299.12799072265625 298.510986328125 297.8320007324219 296.9750061035156 296.2550048828125 295.4330139160156 294.4809875488281 291.864990234375 287.9309997558594 284.6159973144531 281.65899658203125 280.2590026855469 279.14300537109375 277.90301513671875 277.2090148925781 276.52099609375 275.88800048828125 275.58099365234375 275.84100341796875 279.3810119628906 283.8559875488281 288.1549987792969 292.0400085449219 296.0889892578125 298.9070129394531 301.26300048828125 302.43701171875 302.43798828125 300.9110107421875 302.0870056152344 303.1759948730469 303.6319885253906 301.14801025390625 299.08599853515625 298.0369873046875 297.3290100097656 297.10198974609375 296.77801513671875 296.61199951171875 296.82598876953125 296.4800109863281 296.7489929199219 296.5329895019531 296.1260070800781 295.96099853515625 296.0660095214844 296.50201416015625 295.79998779296875 295.64300537109375 297.9960021972656 299.70001220703125 302.2569885253906 305.2640075683594 307.0190124511719 307.9469909667969 308.50201416015625 308.7539978027344 308.864013671875 309.3349914550781 309.1659851074219 309.2590026855469 309.7179870605469 -9999 -9999 -9999 -9999 -9999 -9999 -9999 -9999 -9999 -9999 -9999 -9999 -9999 -9999 -9999 -9999 -9999 -9999 -9999 -9999 -9999 -9999 -9999 -9999 -9999 -9999 -9999 -9999 -9999 -9999 -9999 -9999 -9999 -9999 -9999 -9999 -9999 -9999 -9999 -9999 -9999 -9999 -9999
-9999 -9999 -9999 -9999 -9999 -9999 -9999 -9999 -9999 -9999 -9999 -9999 -9999 -9999 -9999 -9999 -9999 312.60400390625 316.0320129394531 317.90399169921875 318.5150146484375 318.5409851074219 318.4880065917969 317.8680114746094 316.8349914550781 315.9849853515625 315.70098876953125 314.8030090332031 314.2550048828125 313.7439880371094 313.2869873046875 312.3320007324219 310.03399658203125 308.41900634765625 306.7909851074219 305.2829895019531 303.84698486328125 302.83599853515625 301.5849914550781 301.0639953613281 300.72100830078125 300.62298583984375 300.5360107421875 300.3689880371094 300.0660095214844 299.8269958496094 299.6440124511719 299.42401123046875 299.3689880371094 299.55499267578125 299.70001220703125 299.52099609375 299.0790100097656 298.53900146484375 297.8320007324219 297.052001953125 296.2590026855469 295.2799987792969 294.2550048828125 290.8429870605469 286.9930114746094 283.50299072265625 281.14300537109375 280.177001953125 278.635986328125 277.42999267578125 276.66900634765625 276 275.3380126953125 274.9519958496094 275.4389953613281 278.92498779296875 283.25201416015625 287.7340087890625 292.1990051269531 295.7820129394531 298.1369934082031 299.57000732421875 299.85198974609375 299.3179931640625 298.5830078125 299.0790100097656 299.322998046875 299.8219909667969 299.1730041503906 297.0270080566406 295.9110107421875 295.239013671875 294.7569885253906 294.94500732421875 295.072998046875 295.3330078125 294.89898681640625 295.22100830078125 295.0570068359375 294.7250061035156 294.53900146484375 294.6759948730469 295.1990051269531 294.260009765625 295.5679931640625 296.6820068359375 299.1619873046875 301.7179870605469 304.3800048828125 306.2439880371094 306.68798828125 306.9150085449219 307.0169982910156 307.07000732421875 307.1719970703125 308.18798828125 308.2340087890625 308.8680114746094 309.71099853515625 310.4739990234375 -9999 -9999 -9999 -9999 -9999 -9999 -9999 -9999 -9999 -9999 -9999 -9999 -9999 -9999 -9999 -9999 -9999 -9999 -9999 -9999 -9999 -9999 -9999 -9999 -9999 -9999 -9999 -9999 -9999 -9999 -9999 -9999 -9999 -9999 -9999 -9999 -9999 -9999 -9999 -9999 -9999
-9999 -9999 -9999 -9999 -9999 -9999 -9999 -9999 -9999 -9999 -9999 -9999 -9999 -9999 -9999 -9999 -9999 314.9049987792969 317.2550048828125 318.45001220703125 318.864990234375 318.8739929199219 318.4849853515625 317.5610046386719 317.1570129394531 314.3330078125 315.0989990234375 314.5509948730469 313.95001220703125 313.7080078125 312.9639892578125 311.6889953613281 309.3450012207031 307.27801513671875 305.5769958496094 303.9179992675781 302.5849914550781 301.3789978027344 300.2770080566406 299.77899169921875 299.4590148925781 299.2650146484375 299.14300537109375 299.06201171875 298.8630065917969 298.7170104980469 298.510986328125 298.4309997558594 298.4679870605469 298.84698486328125 299.135986328125 299.1650085449219 298.9070129394531 298.3450012207031 297.7099914550781 296.927001953125 296.135009765625 295.24200439453125 294.17401123046875 290.9219970703125 286.92999267578125 283.2359924316406 280.5260009765625 279.5320129394531 278.1109924316406 276.9549865722656 276.302001953125 275.5190124511719 274.968994140625 274.72601318359375 274.9649963378906 277.8819885253906 282.5769958496094 287.14801025390625 291.4519958496094 294.5419921875 296.2239990234375 297.3479919433594 297.46600341796875 296.77301025390625 296.3949890136719 296.6629943847656 296.1889953613281 296.114990234375 296.15301513671875 295.08099365234375 294.05499267578125 293.2300109863281 293.3089904785156 293.2760009765625 293.39599609375 293.49798583984375 293.44500732421875 293.76800537109375 293.7149963378906 293.5530090332031 293.4880065917969 293.3940124511719 293.33099365234375 292.01300048828125 294.635986328125 295.7170104980469 297.9360046386719 300.68499755859375 302.73199462890625 304.50201416015625 305.40301513671875 305.0299987792969 305.11700439453125 305.218994140625 305.4259948730469 306.135986328125 307.7900085449219 308.375 309.302001953125 310.6310119628906 310.9739990234375 -9999 -9999 -9999 -9999 -9999 -9999 -9999 -9999 -9999 -9999 -9999 -9999 -9999 -9999 -9999 -9999 -9999 -9999 -9999 -9999 -9999 -9999 -9999 -9999 -9999 -9999 -9999 -9999 -9999 -9999 -9999 -9999 -9999 -9999 -9999 -9999 -9999 -9999 -9999 -9999
-9999 -9999 -9999 -9999 -9999 -9999 -9999 -9999 -9999 -9999 -9999 -9999 -9999 -9999 -9999 -9999 -9999 316.510986328125 317.97698974609375 318.6809997558594 318.47698974609375 318.4389953613281 317.8760070800781 317.2690124511719 316.2879943847656 315.4079895019531 314.6679992675781 314.1969909667969 313.44500732421875 313.0710144042969 311.97601318359375 310.1960144042969 307.62799072265625 305.6210021972656 303.84698486328125 302.3389892578125 301.25 300.1650085449219 299.3819885253906 298.49798583984375 298.5360107421875 298.0450134277344 297.9880065917969 297.9519958496094 297.8399963378906 297.71600341796875 297.5419921875 297.48699951171875 297.6099853515625 297.9360046386719 298.322998046875 298.552001953125 298.5570068359375 298.1109924316406 297.45098876953125 296.7229919433594 295.9330139160156 295.03900146484375 294.22198486328125 291.7250061035156 287.6029968261719 283.6990051269531 280.739013671875 279.3609924316406 277.7569885253906 276.6839904785156 275.98199462890625 275.0369873046875 274.4960021972656 273.5580139160156 274.33099365234375 277.43499755859375 280.7820129394531 285.96099853515625 289.24798583984375 291.76800537109375 293.59600830078125 294.87799072265625 295.09698486328125 294.6449890136719 294.489990234375 294.9129943847656 293.8590087890625 294.06298828125 293.6940002441406 293.1099853515625 291.7380065917969 292.1470031738281 291.875 291.9209899902344 291.9460144042969 292.135986328125 292.260009765625 292.2760009765625 292.3739929199219 292.3529968261719 292.42498779296875 292.3280029296875 292.33099365234375 291.5169982910156 293.5769958496094 294.8030090332031 296.3280029296875 298.72900390625 300.7279968261719 302.1619873046875 303.1180114746094 303.2929992675781 303.34100341796875 303.7550048828125 304.11199951171875 305.04901123046875 306.364013671875 309.10198974609375 309.8489990234375 310.2969970703125 310.7200012207031 310.9649963378906 -9999 -9999 -9999 -9999 -9999 -9999 -9999 -9999 -9999 -9999 -9999 -9999 -9999 -9999 -9999 -9999 -9999 -9999 -9999 -9999 -9999 -9999 -9999 -9999 -9999 -9999 -9999 -9999 -9999 -9999 -9999 -9999 -9999 -9999 -9999 -9999 -9999 -9999 -9999
-9999 -9999 -9999 -9999 -9999 -9999 -9999 -9999 -9999 -9999 -9999 -9999 -9999 -9999 -9999 -9999 -9999 316.802001953125 317.7489929199219 317.9309997558594 317.59698486328125 317.5459899902344 316.760986328125 315.9729919433594 315.20001220703125 314.6369934082031 314.0539855957031 313.5249938964844 312.8869934082031 311.65301513671875 309.74200439453125 307.72100830078125 305.7869873046875 304.1050109863281 302.6780090332031 301.2330017089844 300.2409973144531 299.4289855957031 298.6520080566406 297.7950134277344 297.5419921875 297.1919860839844 296.97100830078125 296.9209899902344 296.8280029296875 296.7359924316406 296.5979919433594 296.6050109863281 296.69000244140625 296.9599914550781 297.41400146484375 297.7080078125 297.7959899902344 297.5140075683594 296.9849853515625 296.2619934082031 295.52301025390625 294.7640075683594 294.01800537109375 292.2950134277344 288.4779968261719 284.80999755859375 281.48699951171875 279.2229919433594 277.4800109863281 276.0679931640625 275.1789855957031 274.4010009765625 274.0530090332031 273.572998046875 273.7460021972656 276.35101318359375 280.5199890136719 283.32501220703125 285.8479919433594 288.4580078125 291.0929870605469 292.94000244140625 293.1650085449219 292.8810119628906 292.7090148925781 293.2330017089844 292.47900390625 291.4909973144531 291.4230041503906 290.9849853515625 290.65399169921875 290.73199462890625 290.60198974609375 290.7090148925781 290.7409973144531 291.0140075683594 291.0199890136719 291.3139953613281 291.26800537109375 291.3330078125 291.3710021972656 291.3320007324219 291.4429931640625 291.41900634765625 292.7720031738281 293.9700012207031 295.43499755859375 296.3949890136719 298.79998779296875 300.0849914550781 300.8599853515625 301.2359924316406 301.6969909667969 302.8810119628906 303.4949951171875 304.7829895019531 306.9339904785156 309.1390075683594 309.87298583984375 310.35400390625 310.5150146484375 310.6700134277344 310.75 310.72601318359375 -9999 -9999 -9999 -9999 -9999 -9999 -9999 -9999 -9999 -9999 -9999 -9999 -9999 -9999 -9999 -9999 -9999 -9999 -9999 -9999 -9999 -9999 -9999 -9999 -9999 -9999 -9999 -9999 -9999 -9999 -9999 -9999 -9999 -9999 -9999 -9999 -9999
-9999 -9999 -9999 -9999 -9999 -9999 -9999 -9999 -9999 -9999 -9999 -9999 -9999 -9999 -9999 -9999 -9999 316.8970031738281 317.1629943847656 316.86700439453125 316.69000244140625 316.39300537109375 315.58599853515625 315.31500244140625 314.26300048828125 312.8970031738281 312.65899658203125 311.5090026855469 310.5710144042969 309.1109924316406 307.29400634765625 305.1199951171875 303.75799560546875 302.7460021972656 301.4700012207031 300.0350036621094 299.2099914550781 298.4100036621094 297.5780029296875 296.88800048828125 296.5409851074219 296.4939880371094 296.0710144042969 296.0150146484375 296.01300048828125 295.906005859375 295.8810119628906 295.8890075683594 295.85699462890625 296.010009765625 296.36700439453125 296.5799865722656 296.61199951171875 296.343994140625 295.8529968261719 295.19500732421875 294.49700927734375 293.802001953125 292.864990234375 291.7030029296875 289.64801025390625 285.968994140625 282.5530090332031 279.7030029296875 277.23699951171875 275.31201171875 274.4410095214844 273.93798828125 273.5419921875 273.1419982910156 273.1940002441406 274.50201416015625 276.9150085449219 280.3699951171875 281.95001220703125 285.41400146484375 288.7690124511719 290.73699951171875 291.40899658203125 291.3630065917969 290.6969909667969 291.0530090332031 290.7850036621094 290.1960144042969 289.4750061035156 288.9079895019531 289.3219909667969 289.5320129394531 289.4849853515625 289.6759948730469 289.7590026855469 289.9800109863281 290.2099914550781 290.3190002441406 290.2569885253906 290.3080139160156 290.32000732421875 290.38800048828125 290.33099365234375 290.8080139160156 292.0719909667969 292.9580078125 293.8909912109375 295.3169860839844 296.6510009765625 298.010986328125 298.9360046386719 299.6990051269531 300.2969970703125 301.114990234375 303.2439880371094 305 307.0710144042969 309.0069885253906 310.3810119628906 310.2860107421875 310.2279968261719 310.14801025390625 310.17498779296875 310.1820068359375 310.22198486328125 -9999 -9999 -9999 -9999 -9999 -9999 -9999 -9999 -9999 -9999 -9999 -9999 -9999 -9999 -9999 -9999 -9999 -9999 -9999 -9999 -9999 -9999 -9999 -9999 -9999 -9999 -9999 -9999 -9999 -9999 -9999 -9999 -9999 -9999 -9999 -9999
-9999 -9999 -9999 -9999 -9999 -9999 -9999 -9999 -9999 -9999 -9999 -9999 -9999 -9999 -9999 -9999 -9999 316.6050109863281 316.6619873046875 315.8810119628906 315.84100341796875 315.3970031738281 314.75 313.3970031738281 313.1910095214844 311.8559875488281 310.2850036621094 309.135986328125 307.83099365234375 306.1889953613281 304.4419860839844 302.9739990234375 301.6940002441406 300.8970031738281 300.5379943847656 299.16900634765625 298.1180114746094 297.2070007324219 296.38800048828125 296.03900146484375 295.7510070800781 296.1340026855469 295.3689880371094 295.2669982910156 295.1919860839844 295.1440124511719 295.0060119628906 294.93701171875 294.843994140625 294.9169921875 295.1260070800781 295.2829895019531 295.2829895019531 294.8739929199219 294.3349914550781 293.6910095214844 292.8940124511719 292.0539855957031 291.1820068359375 290.14801025390625 289.27801513671875 286.70098876953125 283.37799072265625 280.1310119628906 277.2330017089844 274.7179870605469 273.8009948730469 273.4259948730469 273.2200012207031 272.85699462890625 272.5190124511719 272.8169860839844 274.4419860839844 276.5719909667969 279.9079895019531 282.5989990234375 286.0270080566406 288.54901123046875 289.5469970703125 289.67401123046875 289.5539855957031 289.1600036621094 288.7229919433594 288.35699462890625 287.9339904785156 286.9599914550781 287.9179992675781 288.3030090332031 288.5539855957031 288.572998046875 288.89300537109375 289.17999267578125 289.38800048828125 289.3810119628906 289.5610046386719 289.2560119628906 289.5 289.6000061035156 289.1860046386719 290.4779968261719 291.50201416015625 292.2309875488281 293.13800048828125 294.22100830078125 295.3330078125 296.4849853515625 297.12200927734375 298.1960144042969 300.1860046386719 301.7820129394531 303.614990234375 305.20098876953125 307.4679870605469 309.2040100097656 309.8800048828125 310.42401123046875 309.92401123046875 309.7019958496094 309.53900146484375 309.4939880371094 309.4469909667969 309.4649963378906 -9999 -9999 -9999 -9999 -9999 -9999 -9999 -9999 -9999 -9999 -9999 -9999 -9999 -9999 -9999 -9999 -9999 -9999 -9999 -9999 -9999 -9999 -9999 -9999 -9999 -9999 -9999 -9999 -9999 -9999 -9999 -9999 -9999 -9999 -9999
-9999 -9999 -9999 -9999 -9999 -9999 -9999 -9999 -9999 -9999 -9999 -9999 -9999 -9999 -9999 -9999 -9999 316.2300109863281 315.97900390625 315.1919860839844 315.052001953125 314.52398681640625 314.1449890136719 312.843994140625 311.3609924316406 309.4630126953125 307.8089904785156 306.5060119628906 305.2200012207031 303.64599609375 302.14599609375 300.77801513671875 299.7799987792969 299.125 298.8160095214844 297.9750061035156 297.3550109863281 296.3380126953125 295.7869873046875 295.00799560546875 295.3450012207031 295.3059997558594 294.36199951171875 294.1910095214844 294.1679992675781 294.02899169921875 293.802001953125 293.50299072265625 293.3269958496094 293.2439880371094 293.2170104980469 293.06500244140625 293.052001953125 292.739990234375 292.177001953125 291.57598876953125 291.0220031738281 289.0870056152344 288.4259948730469 287.0050048828125 285.2430114746094 283.58599853515625 282.22900390625 279.02099609375 277.0719909667969 274.5220031738281 273.12298583984375 272.89599609375 272.6650085449219 272.24700927734375 272.1319885253906 271.8909912109375 272.43798828125 274.29998779296875 278.5069885253906 279.552001953125 283.0989990234375 286.19000244140625 287.4460144042969 287.46099853515625 287.10198974609375 286.65301513671875 286.2850036621094 285.84100341796875 286.2279968261719 285.51800537109375 286.7330017089844 287.3139953613281 287.6470031738281 287.8290100097656 287.8320007324219 288.39300537109375 288.4859924316406 288.58099365234375 288.70001220703125 288.6050109863281 288.31201171875 289.00201416015625 289.10400390625 290.0740051269531 290.74700927734375 291.5400085449219 292.4750061035156 293.14801025390625 293.7120056152344 295.8280029296875 297.4429931640625 299.0400085449219 300.48199462890625 302.31298828125 304.49200439453125 306.125 308.06500244140625 309.1239929199219 309.41400146484375 309.427001953125 309.6919860839844 309.17401123046875 308.7250061035156 308.68701171875 308.71600341796875 308.7590026855469 308.70599365234375 -9999 -9999 -9999 -9999 -9999 -9999 -9999 -9999 -9999 -9999 -9999 -9999 -9999 -9999 -9999 -9999 -9999 -9999 -9999 -9999 -9999 -9999 -9999 -9999 -9999 -9999 -9999 -9999 -9999 -9999 -9999 -9999 -9999 -9999
-9999 -9999 -9999 -9999 -9999 -9999 -9999 -9999 -9999 -9999 -9999 -9999 -9999 -9999 -9999 -9999 -9999 315.83099365234375 315.447998046875 314.6180114746094 314.364990234375 314.12298583984375 312.4419860839844 310.2969970703125 309.38800048828125 307.5199890136719 305.60101318359375 303.8609924316406 302.68499755859375 300.8699951171875 299.89300537109375 298.781005859375 298.468994140625 297.7659912109375 297.3739929199219 296.5169982910156 294.843994140625 293.8340148925781 294.864013671875 293.99798583984375 293.9670104980469 293.05499267578125 293.0159912109375 292.6409912109375 292.6319885253906 292.4830017089844 291.9849853515625 291.47601318359375 291.2619934082031 291.0190124511719 291.0740051269531 290.74700927734375 290.47601318359375 290.8940124511719 289.9800109863281 286.3420104980469 282.4930114746094 282.4729919433594 282.2449951171875 282.7799987792969 282.364013671875 281.5830078125 280.1709899902344 277.9859924316406 276.34100341796875 274.09698486328125 272.2229919433594 272.1449890136719 272 271.843994140625 271.4840087890625 271.2569885253906 271.3450012207031 272.1719970703125 275.0509948730469 277.1830139160156 279.1029968261719 282.82598876953125 284.85198974609375 284.93701171875 284.1780090332031 284.21099853515625 284.1289978027344 284.14898681640625 284.8290100097656 284.6960144042969 285.6789855957031 286.17999267578125 286.6180114746094 286.77301025390625 286.91900634765625 287.19500732421875 287.5350036621094 287.5069885253906 287.5769958496094 287.6730041503906 287.5710144042969 288.052001953125 289.0090026855469 289.2070007324219 290.0270080566406 290.593994140625 291.5740051269531 293.5429992675781 295.0150146484375 296.5889892578125 297.89599609375 299.8599853515625 301.6090087890625 303.3789978027344 305.31500244140625 307.19000244140625 308.18701171875 308.82501220703125 308.6510009765625 308.53900146484375 308.31500244140625 308.52398681640625 308.0589904785156 307.89300537109375 307.8940124511719 307.8680114746094 307.8219909667969 307.7090148925781 307.56500244140625 -9999 -9999 -9999 -9999 -9999 -9999 -9999 -9999 -9999 -9999 -9999 -9999 -9999 -9999 -9999 -9999 -9999 -9999 -9999 -9999 -9999 -9999 -9999 -9999 -9999 -9999 -9999 -9999 -9999 -9999 -9999 -9999
-9999 -9999 -9999 -9999 -9999 -9999 -9999 -9999 -9999 -9999 -9999 -9999 -9999 -9999 -9999 -9999 -9999 315.38299560546875 315.0119934082031 314.1199951171875 313.7330017089844 313.3139953613281 312.23199462890625 309.9649963378906 305.10198974609375 304.4410095214844 303.9909973144531 302.1210021972656 300.6759948730469 299.3789978027344 298.50201416015625 297.6109924316406 297.1860046386719 297.10400390625 295.9179992675781 295.2279968261719 294.1570129394531 293.5539855957031 293.38800048828125 292.6210021972656 291.8290100097656 291.5820007324219 291.4419860839844 290.885009765625 290.6400146484375 290.3399963378906 289.8389892578125 289.2229919433594 288.7200012207031 288.4309997558594 288.29901123046875 288.3399963378906 287.98699951171875 285.6300048828125 284.3970031738281 283.510009765625 282.4989929199219 282.10101318359375 281.6319885253906 280.6099853515625 278.99200439453125 278.06201171875 277.093994140625 275.5119934082031 274.3190002441406 273.1159973144531 272.4200134277344 272.09600830078125 271.6969909667969 271.5119934082031 271.2149963378906 270.9230041503906 270.92999267578125 271.05999755859375 271.9809875488281 274.0589904785156 277.37200927734375 278.9429931640625 281.5010070800781 281.9530029296875 281.8160095214844 282.05999755859375 282.35400390625 282.9679870605469 283.4779968261719 283.8999938964844 283.48699951171875 283.8169860839844 285.57501220703125 286.0050048828125 286.04901123046875 286.10699462890625 286.4360046386719 286.60699462890625 286.53399658203125 286.6809997558594 287.0190124511719 287.68798828125 288.2749938964844 289.0899963378906 290.2080078125 291.4049987792969 292.8059997558594 294.031005859375 295.5870056152344 297.7200012207031 299.44500732421875 301.2229919433594 302.96099853515625 304.4490051269531 306.0050048828125 307.0299987792969 307.90399169921875 308.1610107421875 307.5069885253906 307.49200439453125 307.2099914550781 307.0669860839844 307.302001953125 307.0979919433594 306.9169921875 306.85198974609375 306.7449951171875 306.52301025390625 306.3399963378906 306.14801025390625 -9999 -9999 -9999 -9999 -9999 -9999 -9999 -9999 -9999 -9999 -9999 -9999 -9999 -9999 -9999 -9999 -9999 -9999 -9999 -9999 -9999 -9999 -9999 -9999 -9999 -9999 -9999 -9999 -9999 -9999 -9999
-9999 -9999 -9999 -9999 -9999 -9999 -9999 -9999 -9999 -9999 -9999 -9999 -9999 -9999 -9999 -9999 -9999 314.9410095214844 314.5050048828125 313.6499938964844 312.1549987792969 312.8169860839844 311.75201416015625 309.3699951171875 306.7929992675781 304.4159851074219 301.24798583984375 300.5249938964844 299.3940124511719 298.25299072265625 297.2820129394531 296.4840087890625 295.97601318359375 295.1510009765625 294.6600036621094 294.4129943847656 293.0669860839844 292.7980041503906 291.8489990234375 291.2909851074219 290.7690124511719 290.5740051269531 289.93499755859375 289.19500732421875 288.6159973144531 288.4179992675781 287.8420104980469 287.12298583984375 286.4960021972656 285.95599365234375 285.5769958496094 285.375 284.77801513671875 283.9429931640625 283.64599609375 282.9800109863281 282.2080078125 280.9320068359375 279.0360107421875 277.4179992675781 277.2869873046875 276.843994140625 276.4419860839844 275.06500244140625 274.1629943847656 273.260009765625 272.62298583984375 272.1449890136719 271.71600341796875 271.2449951171875 270.7349853515625 270.1109924316406 270.447998046875 270.7560119628906 271.0690002441406 271.9200134277344 274.37799072265625 277.2300109863281 277.8340148925781 278.8450012207031 279.8819885253906 280.3599853515625 281.10101318359375 281.9209899902344 282.8689880371094 283.5369873046875 283.4280090332031 283.4960021972656 283.52099609375 283.4549865722656 284.5450134277344 285.1910095214844 285.3789978027344 285.6839904785156 286.0929870605469 286.4549865722656 286.9580078125 287.57000732421875 288.2330017089844 289.09698486328125 290.2080078125 291.67401123046875 293.3290100097656 295.39801025390625 297.1050109863281 299.14801025390625 301.1780090332031 302.864990234375 304.1929931640625 305.2829895019531 306.1809997558594 306.91900634765625 307.31298828125 306.8139953613281 305.9729919433594 306.0870056152344 305.72900390625 305.3810119628906 305.4590148925781 306.18499755859375 305.9070129394531 305.5669860839844 305.2929992675781 305.19000244140625 305.1369934082031 304.94500732421875 304.8909912109375 -9999 -9999 -9999 -9999 -9999 -9999 -9999 -9999 -9999 -9999 -9999 -9999 -9999 -9999 -9999 -9999 -9999 -9999 -9999 -9999 -9999 -9999 -9999 -9999 -9999 -9999 -9999 -9999 -9999 -9999
-9999 -9999 -9999 -9999 -9999 -9999 -9999 -9999 -9999 -9999 -9999 -9999 -9999 -9999 -9999 -9999 -9999 314.4580078125 313.7850036621094 312.8059997558594 311.9549865722656 311.8179931640625 310.8869934082031 308.4530029296875 305.8550109863281 303.5270080566406 301.43798828125 299.77899169921875 298.6830139160156 297.5509948730469 296.43499755859375 295.51300048828125 294.739990234375 294.10400390625 293.2869873046875 292.65899658203125 291.718994140625 291.81201171875 290.8999938964844 290.281005859375 289.8789978027344 289.0610046386719 288.3420104980469 287.6969909667969 287.1709899902344 286.72100830078125 286.1440124511719 285.39801025390625 284.7860107421875 284.2139892578125 283.7250061035156 283.47100830078125 283.07501220703125 282.1759948730469 281.37298583984375 280.60400390625 279.4840087890625 278.7590026855469 277.89801025390625 277.1839904785156 276.8450012207031 276.60400390625 276.3450012207031 275.5119934082031 274.5690002441406 273.84698486328125 273.114990234375 272.4280090332031 271.7330017089844 271.02801513671875 270.49200439453125 269.9599914550781 269.7619934082031 270.3399963378906 270.82598876953125 271.375 272.37701416015625 274.0409851074219 277.3800048828125 277.0899963378906 277.0679931640625 278.86700439453125 280.40899658203125 281.4490051269531 283.6159973144531 283.4129943847656 283.4590148925781 283.47100830078125 283.3489990234375 283.3380126953125 283.6109924316406 283.7770080566406 284.77398681640625 285.14801025390625 285.760009765625 286.40301513671875 286.5329895019531 287.27398681640625 288.1860046386719 289.2080078125 290.3869934082031 292.1059875488281 294.6340026855469 296.9469909667969 298.9549865722656 300.614013671875 302.8349914550781 303.9410095214844 304.6910095214844 305.5140075683594 306.14801025390625 306.4490051269531 306.40301513671875 305.2919921875 304.54901123046875 304.3219909667969 304.24700927734375 304.1130065917969 304.3139953613281 304.1600036621094 304.7430114746094 304.4320068359375 303.9930114746094 303.7770080566406 303.6809997558594 303.61700439453125 303.60699462890625 303.54901123046875 303.62701416015625 -9999 -9999 -9999 -9999 -9999 -9999 -9999 -9999 -9999 -9999 -9999 -9999 -9999 -9999 -9999 -9999 -9999 -9999 -9999 -9999 -9999 -9999 -9999 -9999 -9999 -9999 -9999 -9999
-9999 -9999 -9999 -9999 -9999 -9999 -9999 -9999 -9999 -9999 -9999 -9999 -9999 -9999 -9999 -9999 -9999 313.9410095214844 313.08099365234375 312.0220031738281 311.2619934082031 310.22100830078125 309.37701416015625 307.1730041503906 304.760986328125 302.3940124511719 300.6629943847656 298.98699951171875 297.71600341796875 296.89898681640625 295.9729919433594 295.2279968261719 294.2959899902344 293.5419921875 292.7439880371094 292.1579895019531 291.5790100097656 291.25201416015625 290.64599609375 290.1700134277344 289.5299987792969 288.3999938964844 287.4490051269531 287.0329895019531 286.8609924316406 285.8039855957031 285.09100341796875 284.4909973144531 283.8890075683594 283.3299865722656 282.65899658203125 282.1449890136719 281.8290100097656 281.0769958496094 280.4630126953125 279.84100341796875 279.1730041503906 278.4580078125 277.8240051269531 277.54400634765625 277.3030090332031 276.9960021972656 276.57000732421875 276.0159912109375 274.6369934082031 274.4490051269531 273.3059997558594 272.4429931640625 271.8760070800781 270.79998779296875 270.1669921875 269.5559997558594 269.37701416015625 269.70098876953125 270.2650146484375 270.8299865722656 271.7959899902344 272.94000244140625 274.07000732421875 276.35101318359375 276.59698486328125 277.37200927734375 279.99700927734375 281.2030029296875 283.71099853515625 283.4179992675781 283.48699951171875 282.75201416015625 283.22601318359375 283.5140075683594 283.4930114746094 283.864990234375 284.39801025390625 284.8190002441406 285.14300537109375 285.58099365234375 286.2919921875 287.0459899902344 288.072998046875 289.36700439453125 291.2820129394531 293.00799560546875 295.70001220703125 298.3900146484375 300.6499938964844 302.84100341796875 303.8630065917969 304.3940124511719 304.9010009765625 305.39599609375 305.760009765625 305.760986328125 305.1610107421875 304.0069885253906 303.2120056152344 303.1109924316406 302.7860107421875 302.70599365234375 302.77899169921875 302.9209899902344 302.68499755859375 302.8089904785156 302.6109924316406 302.385986328125 302.2659912109375 302.1709899902344 302.1650085449219 302.1719970703125 302.26300048828125 302.5830078125 -9999 -9999 -9999 -9999 -9999 -9999 -9999 -9999 -9999 -9999 -9999 -9999 -9999 -9999 -9999 -9999 -9999 -9999 -9999 -9999 -9999 -9999 -9999 -9999 -9999 -9999 -9999
-9999 -9999 -9999 -9999 -9999 -9999 -9999 -9999 -9999 -9999 -9999 -9999 -9999 -9999 -9999 -9999 -9999 313.4830017089844 312.46600341796875 311.1340026855469 310.23199462890625 309.1960144042969 307.66400146484375 305.5989990234375 303.8739929199219 301.7820129394531 299.8450012207031 298.28399658203125 297.25799560546875 296.1210021972656 295.33599853515625 294.7460021972656 294.135009765625 293.2699890136719 292.7969970703125 292.3370056152344 291.5929870605469 291.27398681640625 290.4809875488281 289.74700927734375 289.05499267578125 288.31201171875 287.677001953125 287.1570129394531 286.5069885253906 285.4939880371094 284.7200012207031 284.0429992675781 283.4429931640625 282.885009765625 282.3760070800781 281.84698486328125 281.25 280.89599609375 280.18798828125 279.7760009765625 279.3330078125 278.9150085449219 278.4570007324219 278.0870056152344 277.88800048828125 277.6700134277344 277.61199951171875 277.7250061035156 277.4530029296875 276.4590148925781 273.9280090332031 272.5069885253906 271.885009765625 270.9989929199219 269.9230041503906 269.3070068359375 268.9570007324219 269.010009765625 269.73699951171875 270.5929870605469 271.52301025390625 272.4530029296875 273.2090148925781 275.1099853515625 276.3810119628906 278.8800048828125 280.2179870605469 281.6109924316406 282.51800537109375 283.1579895019531 282.1610107421875 282.0169982910156 282.5899963378906 282.4330139160156 282.7900085449219 283.2040100097656 283.7770080566406 284.28900146484375 284.74200439453125 285.52899169921875 286.23199462890625 287.1090087890625 288.2510070800781 290.0450134277344 292.114990234375 294.2909851074219 297.2279968261719 299.6130065917969 302.42401123046875 304.36700439453125 304.218994140625 304.4020080566406 304.6809997558594 304.9410095214844 305.114013671875 304.8680114746094 304.4330139160156 302.8819885253906 302.125 301.7409973144531 301.3420104980469 301.24200439453125 301.385986328125 301.1669921875 300.9469909667969 300.55499267578125 301.1940002441406 301.0010070800781 300.8219909667969 300.76300048828125 300.7640075683594 301.01300048828125 301.2929992675781 301.7929992675781 302.3389892578125 -9999 -9999 -9999 -9999 -9999 -9999 -9999 -9999 -9999 -9999 -9999 -9999 -9999 -9999 -9999 -9999 -9999 -9999 -9999 -9999 -9999 -9999 -9999 -9999 -9999 -9999
-9999 -9999 -9999 -9999 -9999 -9999 -9999 -9999 -9999 -9999 -9999 -9999 -9999 -9999 -9999 -9999 -9999 312.7919921875 311.8559875488281 310.2749938964844 309.0050048828125 308.0459899902344 306.1789855957031 304.35101318359375 302.75201416015625 300.9049987792969 299.39599609375 297.8269958496094 296.87701416015625 296.04901123046875 295.20098876953125 294.5320129394531 293.8869934082031 293.5260009765625 293.01300048828125 292.4590148925781 291.7120056152344 291.364013671875 291.1059875488281 290.7650146484375 290.239990234375 289.43701171875 288.6050109863281 287.697998046875 286.8689880371094 285.5050048828125 284.76800537109375 284.32501220703125 283.85198974609375 283.3559875488281 282.864990234375 282.2720031738281 281.7179870605469 281.2179870605469 281.0320129394531 280.7380065917969 280.5419921875 280.2860107421875 279.9620056152344 279.760009765625 280.0379943847656 280.1310119628906 280.3970031738281 281.1210021972656 280.84100341796875 278.906005859375 276.2959899902344 273.2860107421875 271.9649963378906 271.0010070800781 269.93798828125 269.1000061035156 268.6260070800781 268.6499938964844 268.8840026855469 270.00201416015625 271.10400390625 271.8599853515625 272.760009765625 274.8609924316406 276.5060119628906 279.239990234375 280.8280029296875 282.0769958496094 282.3699951171875 281.7699890136719 280.76300048828125 280.6780090332031 280.9590148925781 281.5669860839844 282.1789855957031 282.8810119628906 283.44500732421875 284.08599853515625 284.875 285.51800537109375 286.4119873046875 287.3590087890625 288.6300048828125 290.72100830078125 292.8609924316406 295.31298828125 297.7749938964844 300.385009765625 302.9010009765625 304.1419982910156 303.98699951171875 304.0509948730469 304.197998046875 304.4909973144531 304.3699951171875 304.3089904785156 303.42999267578125 302.1080017089844 301.12200927734375 300.4599914550781 299.9840087890625 299.7619934082031 299.59698486328125 299.60699462890625 299.4049987792969 299.125 299.1499938964844 299.8420104980469 299.7099914550781 299.6080017089844 299.739990234375 299.95098876953125 300.2869873046875 300.86199951171875 301.635009765625 302.53900146484375 -9999 -9999 -9999 -9999 -9999 -9999 -9999 -9999 -9999 -9999 -9999 -9999 -9999 -9999 -9999 -9999 -9999 -9999 -9999 -9999 -9999 -9999 -9999 -9999 -9999
-9999 -9999 -9999 -9999 -9999 -9999 -9999 -9999 -9999 -9999 -9999 -9999 -9999 -9999 -9999 -9999 -9999 312.2669982910156 311.3349914550781 309.5360107421875 308.4779968261719 306.5849914550781 305.27099609375 303.49798583984375 301.85198974609375 300.3080139160156 299.12799072265625 298.2070007324219 297.1860046386719 296.4440002441406 295.552001953125 294.739990234375 293.9909973144531 293.3340148925781 292.9179992675781 292.5889892578125 292.47198486328125 292.4440002441406 292.2869873046875 291.9570007324219 291.5480041503906 290.7749938964844 289.7139892578125 288.57000732421875 287.5870056152344 286.79400634765625 286.0820007324219 285.427001953125 285.09600830078125 284.7439880371094 284.2929992675781 283.8739929199219 283.0989990234375 282.9010009765625 282.97198486328125 283.1000061035156 283.052001953125 282.8680114746094 283.0140075683594 283.0989990234375 283.5199890136719 284.3290100097656 284.4460144042969 284.48199462890625 283.21600341796875 280.6929931640625 277.7850036621094 273.9330139160156 272.0400085449219 271.02398681640625 269.9649963378906 268.78399658203125 268.5740051269531 268.50201416015625 268.4429931640625 269.26800537109375 270.25201416015625 271.23199462890625 272.0419921875 273.62799072265625 277.38299560546875 279.35198974609375 281.1099853515625 280.9590148925781 280.5220031738281 279.68499755859375 278.9679870605469 279.2699890136719 280.12200927734375 281.0509948730469 282.1300048828125 282.91400146484375 283.3840026855469 284.1289978027344 284.8559875488281 285.6549987792969 286.5409851074219 287.6419982910156 289.1709899902344 291.3210144042969 293.6759948730469 295.9259948730469 298.17401123046875 300.6239929199219 302.4419860839844 303.1619873046875 303.2200012207031 303.3340148925781 303.51800537109375 303.72900390625 303.6789855957031 303.4289855957031 302.7179870605469 301.3609924316406 300.2380065917969 299.3500061035156 298.6679992675781 298.1929931640625 298.1029968261719 297.9840087890625 297.9049987792969 297.7650146484375 297.7720031738281 297.91400146484375 298.94500732421875 298.6679992675781 298.677001953125 298.8349914550781 299.3070068359375 300.1369934082031 301.13800048828125 302.1440124511719 303.0320129394531 303.8370056152344 -9999 -9999 -9999 -9999 -9999 -9999 -9999 -9999 -9999 -9999 -9999 -9999 -9999 -9999 -9999 -9999 -9999 -9999 -9999 -9999 -9999 -9999 -9999
-9999 -9999 -9999 -9999 -9999 -9999 -9999 -9999 -9999 -9999 -9999 -9999 -9999 -9999 -9999 -9999 -9999 311.7900085449219 310.8450012207031 308.6669921875 308.1940002441406 306.32598876953125 304.760986328125 303.09600830078125 301.7309875488281 300.3290100097656 299.06201171875 298.114013671875 297.2799987792969 296.34100341796875 295.50299072265625 294.7340087890625 294.1000061035156 293.64599609375 293.4739990234375 293.6310119628906 294.02899169921875 294.29901123046875 294.3529968261719 294.1180114746094 293.6730041503906 292.86199951171875 291.6600036621094 290.41900634765625 289.2359924316406 288.27899169921875 287.8970031738281 287.3290100097656 286.8009948730469 286.3840026855469 286.20599365234375 285.87298583984375 285.6000061035156 285.739990234375 286.0989990234375 286.4110107421875 286.7489929199219 286.7229919433594 286.76800537109375 287.8789978027344 288.3210144042969 288.1440124511719 287.5589904785156 286.5480041503906 284.98699951171875 281.6619873046875 278.5799865722656 275.59100341796875 272.2099914550781 271.09600830078125 270.0889892578125 268.9739990234375 268.2349853515625 268.1319885253906 268.0840148925781 268.5090026855469 269.2409973144531 270.1419982910156 271.2959899902344 272.62701416015625 275.8320007324219 276.39801025390625 278.57598876953125 278.2829895019531 277.9010009765625 277.6759948730469 277.68499755859375 278.6650085449219 279.7439880371094 281.05499267578125 282.4020080566406 282.9259948730469 283.5610046386719 284.17999267578125 284.9179992675781 285.8500061035156 286.8529968261719 287.9960021972656 289.49200439453125 291.6409912109375 293.5459899902344 296.2919921875 298.31298828125 300.16400146484375 301.51300048828125 301.03399658203125 301.2099914550781 301.7929992675781 302.1969909667969 302.2569885253906 302.7569885253906 302.6830139160156 301.7300109863281 300.45001220703125 299.2430114746094 297.99700927734375 297.2120056152344 296.74200439453125 296.53399658203125 296.50201416015625 296.4219970703125 296.4800109863281 296.72900390625 296.9110107421875 297.0589904785156 297.8070068359375 297.6910095214844 297.885009765625 298.593994140625 299.59100341796875 300.63800048828125 301.5690002441406 302.3389892578125 303.197998046875 303.9880065917969 -9999 -9999 -9999 -9999 -9999 -9999 -9999 -9999 -9999 -9999 -9999 -9999 -9999 -9999 -9999 -9999 -9999 -9999 -9999 -9999 -9999 -9999
-9999 -9999 -9999 -9999 -9999 -9999 -9999 -9999 -9999 -9999 -9999 -9999 -9999 -9999 -9999 -9999 -9999 311.3139953613281 310.64300537109375 309.2770080566406 307.15399169921875 305.718994140625 304.4219970703125 303.1199951171875 301.95599365234375 300.9079895019531 299.875 298.8630065917969 297.77801513671875 296.71099853515625 295.7489929199219 294.99700927734375 294.4859924316406 294.2909851074219 294.6080017089844 295.3380126953125 296.0979919433594 296.78900146484375 297.24200439453125 297.38299560546875 297.21099853515625 296.3089904785156 295.0849914550781 293.5790100097656 292.21600341796875 291.9909973144531 291.3689880371094 290.8559875488281 290.0299987792969 290.0369873046875 289.739990234375 289.9079895019531 289.4360046386719 289.56201171875 290.4830017089844 291.218994140625 291.03399658203125 290.7860107421875 290.36199951171875 289.8450012207031 289.3590087890625 288.7799987792969 287.93798828125 286.8999938964844 285.42401123046875 282.77398681640625 279.6159973144531 276.7179870605469 273.48699951171875 271.4549865722656 269.8940124511719 268.90399169921875 268.21600341796875 267.8320007324219 267.7120056152344 269.0169982910156 268.239990234375 268.1990051269531 271.4179992675781 271.60198974609375 273.7279968261719 276.7239990234375 275.7799987792969 275.96600341796875 276.218994140625 276.3909912109375 277.29400634765625 277.9469909667969 279.42999267578125 280.80499267578125 282.7239990234375 283.22198486328125 283.8529968261719 284.49200439453125 285.22601318359375 286.1860046386719 287.2929992675781 288.57598876953125 289.9429931640625 291.5889892578125 293.62701416015625 296.14300537109375 298.2720031738281 299.3940124511719 299.6130065917969 298.6199951171875 299.510986328125 299.6650085449219 300.239013671875 301.0610046386719 301.6499938964844 301.6830139160156 300.8179931640625 299.3919982910156 297.8059997558594 297.0069885253906 295.93499755859375 295.23199462890625 294.9700012207031 294.95098876953125 295.0830078125 295.29998779296875 295.6369934082031 295.9150085449219 295.8219909667969 296.0740051269531 296.9230041503906 297.3089904785156 297.9389953613281 298.7879943847656 299.781005859375 300.9259948730469 301.82598876953125 302.6600036621094 303.3819885253906 304.0469970703125 -9999 -9999 -9999 -9999 -9999 -9999 -9999 -9999 -9999 -9999 -9999 -9999 -9999 -9999 -9999 -9999 -9999 -9999 -9999 -9999 -9999
-9999 -9999 -9999 -9999 -9999 -9999 -9999 -9999 -9999 -9999 -9999 -9999 -9999 -9999 -9999 -9999 -9999 310.9590148925781 310.3169860839844 309.24200439453125 307.4179992675781 306.39801025390625 305.12799072265625 303.8450012207031 302.6820068359375 301.6340026855469 300.7040100097656 299.72900390625 298.58599853515625 297.4469909667969 296.3949890136719 295.7120056152344 295.31500244140625 295.3420104980469 295.875 297.1239929199219 298.8590087890625 299.7860107421875 300.08099365234375 299.9599914550781 299.9200134277344 299.54400634765625 298.4909973144531 296.6839904785156 296.26800537109375 296.4289855957031 296.1099853515625 295.7330017089844 294.65899658203125 294.0639953613281 293.85699462890625 294.218994140625 293.4649963378906 292.7950134277344 292.4150085449219 292.1400146484375 291.78399658203125 291.3110046386719 290.9599914550781 290.2619934082031 289.6059875488281 288.906005859375 287.9540100097656 286.92498779296875 285.593994140625 283.55499267578125 280.8609924316406 277.9049987792969 274.8699951171875 271.3059997558594 269.7699890136719 268.73699951171875 268.0849914550781 267.5920104980469 267.47601318359375 268.21099853515625 268.8789978027344 268.40899658203125 269.38800048828125 271.4389953613281 271.9280090332031 272.8290100097656 274.3970031738281 275.2179870605469 274.9320068359375 275.4639892578125 276.81201171875 277.6969909667969 279.6860046386719 281.98699951171875 282.4620056152344 283.5039978027344 284.2330017089844 284.9320068359375 285.76300048828125 286.7040100097656 287.9599914550781 289.2919921875 290.3810119628906 291.7909851074219 293.510009765625 295.6520080566406 297.4309997558594 298.09600830078125 297.89898681640625 296.9320068359375 297.5880126953125 298.0849914550781 298.6080017089844 299.42498779296875 299.8789978027344 300.3500061035156 299.2409973144531 297.3420104980469 296.7130126953125 295.8299865722656 294.77398681640625 293.864013671875 293.5260009765625 293.6260070800781 293.80999755859375 294.18798828125 294.5400085449219 294.6600036621094 294.5780029296875 294.4429931640625 295.0669860839844 296.8949890136719 297.5690002441406 298.2909851074219 299.2969970703125 300.29400634765625 301.2690124511719 302.0799865722656 302.739990234375 303.36700439453125 303.9259948730469 304.25299072265625 -9999 -9999 -9999 -9999 -9999 -9999 -9999 -9999 -9999 -9999 -9999 -9999 -9999 -9999 -9999 -9999 -9999 -9999 -9999
-9999 -9999 -9999 -9999 -9999 -9999 -9999 -9999 -9999 -9999 -9999 -9999 -9999 -9999 -9999 -9999 310.47198486328125 310.2640075683594 309.9289855957031 308.87200927734375 307.5679931640625 306.614013671875 305.62200927734375 304.59100341796875 303.6730041503906 302.8800048828125 302.14898681640625 301.2380065917969 300.0639953613281 298.7539978027344 297.5379943847656 296.69500732421875 296.3370056152344 296.5249938964844 297.5639953613281 298.90301513671875 300.06500244140625 300.9909973144531 301.375 301.3789978027344 301.10400390625 300.58099365234375 300.02899169921875 299.04400634765625 298.2130126953125 297.781005859375 297.4410095214844 296.95599365234375 296.4410095214844 295.93499755859375 295.3420104980469 294.8160095214844 294.1700134277344 293.5199890136719 293.09100341796875 292.45098876953125 292.03399658203125 291.47900390625 290.9339904785156 290.0060119628906 289.3900146484375 288.5480041503906 287.5379943847656 286.5329895019531 285.2650146484375 283.6419982910156 281.4909973144531 278.9460144042969 275.93701171875 272.1629943847656 270.322998046875 268.63299560546875 268.0220031738281 267.3280029296875 267.1839904785156 267.40301513671875 267.37200927734375 267.47900390625 267.73699951171875 268.67401123046875 269.84100341796875 270.97698974609375 271.9440002441406 272.87298583984375 274.906005859375 275.75201416015625 276.739990234375 278.0979919433594 280.0480041503906 281.8219909667969 282.4830017089844 283.4419860839844 284.635986328125 285.5509948730469 286.427001953125 287.49798583984375 288.54901123046875 289.7040100097656 291.00299072265625 292.43798828125 293.91900634765625 295.63299560546875 296.8489990234375 296.906005859375 295.99200439453125 295.8370056152344 296.16900634765625 296.2510070800781 296.92498779296875 297.3479919433594 298.1059875488281 297.6510009765625 296.7980041503906 295.9729919433594 295.4460144042969 294.6130065917969 293.5570068359375 292.7200012207031 292.3429870605469 292.2799987792969 292.5450134277344 292.9599914550781 293.2560119628906 293.3940124511719 293.2460021972656 293.031005859375 293.52398681640625 295.2449951171875 297.156005859375 298.0559997558594 298.9909973144531 299.9750061035156 300.8240051269531 301.4830017089844 302.1650085449219 302.62701416015625 302.989990234375 303.22698974609375 303.31500244140625 -9999 -9999 -9999 -9999 -9999 -9999 -9999 -9999 -9999 -9999 -9999 -9999 -9999 -9999 -9999 -9999 -9999 -9999
-9999 -9999 -9999 -9999 -9999 -9999 -9999 -9999 -9999 -9999 -9999 -9999 -9999 -9999 -9999 -9999 309.510009765625 309.54998779296875 308.9549865722656 308.04400634765625 307.28900146484375 306.80999755859375 306.1549987792969 305.5769958496094 305.125 304.7699890136719 304.1629943847656 303.2659912109375 301.9179992675781 300.41900634765625 298.9800109863281 298.0840148925781 297.6579895019531 297.78399658203125 298.7590026855469 300.07000732421875 301.2909851074219 302.3210144042969 302.75799560546875 302.5929870605469 302.1549987792969 301.5580139160156 300.89599609375 299.89300537109375 299.18701171875 298.67401123046875 298.2640075683594 297.5840148925781 296.77801513671875 296.0589904785156 295.5899963378906 295 294.4070129394531 293.7860107421875 293.1700134277344 292.30499267578125 291.75 291.1419982910156 290.47198486328125 289.49200439453125 288.71099853515625 287.8599853515625 286.8190002441406 285.79998779296875 284.5639953613281 283.1189880371094 281.489990234375 279.43798828125 276.5920104980469 273.8240051269531 270.489013671875 268.52899169921875 267.91900634765625 267.3999938964844 267.1189880371094 266.885986328125 266.9079895019531 267.0979919433594 267.54998779296875 268.1910095214844 269.39599609375 270.4209899902344 271.2659912109375 272.197998046875 274.7980041503906 275.9590148925781 277.4580078125 278.9219970703125 280.9419860839844 281.92498779296875 282.8450012207031 283.81500244140625 284.8890075683594 286.031005859375 287.2139892578125 288.239013671875 289.39599609375 290.6709899902344 292.19000244140625 293.4800109863281 294.96600341796875 296.2919921875 296.3269958496094 295.72601318359375 295.10198974609375 294.5840148925781 294.4070129394531 294.65301513671875 295.09100341796875 295.4649963378906 295.8630065917969 295.7929992675781 295.02801513671875 294.4490051269531 294.1050109863281 293.3940124511719 292.54901123046875 291.6549987792969 290.989990234375 290.8290100097656 291.10400390625 291.5320129394531 291.9289855957031 291.885009765625 291.79901123046875 292.14898681640625 292.92498779296875 294.1059875488281 296.4590148925781 298.1709899902344 298.8810119628906 299.8599853515625 300.5660095214844 301.0639953613281 301.43798828125 301.7359924316406 301.968994140625 302.18798828125 302.2799987792969 302.28900146484375 -9999 -9999 -9999 -9999 -9999 -9999 -9999 -9999 -9999 -9999 -9999 -9999 -9999 -9999 -9999 -9999 -9999
-9999 -9999 -9999 -9999 -9999 -9999 -9999 -9999 -9999 -9999 -9999 -9999 -9999 -9999 -9999 -9999 308.03399658203125 308.11700439453125 307.7330017089844 307.2120056152344 307.1029968261719 306.8320007324219 306.5459899902344 306.4119873046875 306.4460144042969 306.4440002441406 306.1830139160156 305.4859924316406 304.22900390625 302.5249938964844 300.79998779296875 299.5559997558594 299.0459899902344 299.3160095214844 300.32501220703125 301.5610046386719 302.6780090332031 303.6180114746094 303.8599853515625 303.5060119628906 302.875 302.2139892578125 301.47900390625 300.4989929199219 299.8349914550781 299.2170104980469 298.62701416015625 297.73699951171875 296.7950134277344 296.0010070800781 295.43701171875 294.86199951171875 294.2340087890625 293.64599609375 292.9469909667969 291.9169921875 291.18499755859375 290.54998779296875 289.8179931640625 288.77801513671875 287.97900390625 287.0459899902344 285.97698974609375 284.8890075683594 283.62200927734375 282.1839904785156 280.7120056152344 279.1830139160156 276.5060119628906 273.9410095214844 270.1549987792969 268.57501220703125 267.7669982910156 267.197998046875 266.7950134277344 266.7200012207031 266.7640075683594 266.9460144042969 267.4330139160156 268.135009765625 269.1510009765625 269.6860046386719 270.427001953125 273.3479919433594 275.114990234375 277.0459899902344 278.8529968261719 280.6600036621094 281.4179992675781 282.4779968261719 283.3489990234375 284.4750061035156 285.4150085449219 286.4830017089844 287.614990234375 288.7590026855469 290.1419982910156 291.68798828125 293.4960021972656 295.2099914550781 296.3819885253906 296.6780090332031 295.9800109863281 294.906005859375 293.9169921875 293.2070007324219 292.7019958496094 292.7019958496094 293.17401123046875 293.7309875488281 294.0799865722656 293.9200134277344 293.39898681640625 293.11700439453125 292.9779968261719 292.4540100097656 291.65301513671875 290.6159973144531 289.62799072265625 289.24700927734375 289.5140075683594 289.9880065917969 290.2749938964844 290.5880126953125 290.8680114746094 291.572998046875 292.8219909667969 293.8630065917969 295.4809875488281 298.1709899902344 299.1570129394531 299.72698974609375 300.0559997558594 300.25799560546875 300.56500244140625 300.8070068359375 301.0589904785156 301.12200927734375 301.1319885253906 301.0920104980469 301.0880126953125 -9999 -9999 -9999 -9999 -9999 -9999 -9999 -9999 -9999 -9999 -9999 -9999 -9999 -9999 -9999 -9999
-9999 -9999 -9999 -9999 -9999 -9999 -9999 -9999 -9999 -9999 -9999 -9999 -9999 -9999 -9999 -9999 306.0580139160156 306.15399169921875 306.302001953125 306.0369873046875 306.83599853515625 307.0050048828125 307.01800537109375 307.2980041503906 307.68701171875 308.0050048828125 307.989990234375 307.6310119628906 306.635009765625 304.75 302.92999267578125 301.54998779296875 301.1109924316406 301.6289978027344 302.5690002441406 303.6180114746094 304.3699951171875 304.71600341796875 304.4530029296875 303.99798583984375 303.2510070800781 302.4599914550781 301.6549987792969 300.61199951171875 299.8429870605469 299.1180114746094 298.4320068359375 297.4830017089844 296.5880126953125 295.8330078125 295.19000244140625 294.4639892578125 293.8089904785156 293.2430114746094 292.4630126953125 291.4700012207031 290.65399169921875 290 289.21099853515625 288.1419982910156 287.2860107421875 286.3139953613281 285.1000061035156 283.89898681640625 282.54901123046875 281.1180114746094 279.7300109863281 278.27301025390625 275.80499267578125 273.47900390625 269.8030090332031 268.41400146484375 267.64300537109375 266.9630126953125 266.50201416015625 266.4429931640625 266.4129943847656 266.67999267578125 267.5530090332031 268.35400390625 268.8290100097656 269.3280029296875 271.86700439453125 276.08099365234375 277.4150085449219 279.04998779296875 280.572998046875 281.6159973144531 282.2309875488281 282.864990234375 283.87298583984375 285.0329895019531 285.9939880371094 287.072998046875 288.1839904785156 289.3760070800781 290.7659912109375 292.7650146484375 294.6919860839844 296.90899658203125 297.5539855957031 297.17999267578125 295.9440002441406 294.4070129394531 293.2560119628906 291.9519958496094 291.33599853515625 291.4700012207031 291.7300109863281 292.12701416015625 292.34698486328125 292.322998046875 292.1090087890625 292.1919860839844 292.1650085449219 291.7250061035156 290.8089904785156 289.5260009765625 288.2950134277344 287.85699462890625 287.9750061035156 288.5150146484375 288.9960021972656 289.4939880371094 289.75299072265625 290.2409973144531 292.5559997558594 293.7820129394531 295.6199951171875 297.4100036621094 299.24700927734375 299.1759948730469 299.0220031738281 299.0989990234375 299.3030090332031 299.6400146484375 300.0570068359375 300.12200927734375 300.0320129394531 299.9419860839844 299.92999267578125 299.6610107421875 299.41400146484375 -9999 -9999 -9999 -9999 -9999 -9999 -9999 -9999 -9999 -9999 -9999 -9999 -9999 -9999
-9999 -9999 -9999 -9999 -9999 -9999 -9999 -9999 -9999 -9999 -9999 -9999 -9999 -9999 -9999 -9999 303.7090148925781 304.1340026855469 304.6929931640625 305.15301513671875 306.51800537109375 306.8179931640625 307.07598876953125 307.60699462890625 308.25299072265625 308.7860107421875 308.92498779296875 308.7980041503906 308.3800048828125 306.6000061035156 304.73699951171875 303.5320129394531 303.26800537109375 303.68798828125 304.364013671875 305.2229919433594 305.5899963378906 305.4339904785156 304.9230041503906 304.35699462890625 303.25201416015625 302.3489990234375 301.4639892578125 300.3949890136719 299.5050048828125 298.6960144042969 298.0159912109375 297.0690002441406 296.260009765625 295.5320129394531 294.85198974609375 294.114013671875 293.3909912109375 292.8269958496094 291.9779968261719 291.11700439453125 290.3280029296875 289.5989990234375 288.72601318359375 287.65301513671875 286.7229919433594 285.6780090332031 284.34698486328125 282.98199462890625 281.4320068359375 279.8970031738281 278.4639892578125 276.927001953125 274.7130126953125 272.57501220703125 269.4599914550781 268.31298828125 267.2120056152344 266.84600830078125 266.50799560546875 266.2590026855469 266.2430114746094 266.6910095214844 267.27398681640625 267.87298583984375 268.41400146484375 269.7449951171875 273.5299987792969 276.13299560546875 279.5799865722656 280.9620056152344 281.635009765625 282.135009765625 282.5780029296875 283.1789855957031 284.1409912109375 285.25 286.39300537109375 287.6029968261719 288.875 289.8869934082031 291.5169982910156 293.322998046875 295.9840087890625 297.906005859375 298.43701171875 297.7820129394531 295.9809875488281 293.97698974609375 292.20599365234375 291.0799865722656 290.3819885253906 290.1300048828125 290.3789978027344 290.79400634765625 291.0050048828125 291.03900146484375 291.1449890136719 291.406005859375 291.4289855957031 290.92401123046875 289.8330078125 288.4150085449219 287.2929992675781 286.9460144042969 286.968994140625 287.29400634765625 287.302001953125 287.4960021972656 288.1830139160156 289.9989929199219 292.31201171875 293.510986328125 295.2019958496094 296.6499938964844 297.4129943847656 297.90899658203125 297.7590026855469 297.7489929199219 298.0220031738281 298.5450134277344 298.8900146484375 298.9519958496094 298.5669860839844 297.9729919433594 298.2309875488281 298.2409973144531 298.2359924316406 298.5329895019531 -9999 -9999 -9999 -9999 -9999 -9999 -9999 -9999 -9999 -9999 -9999 -9999 -9999
-9999 -9999 -9999 -9999 -9999 -9999 -9999 -9999 -9999 -9999 -9999 -9999 -9999 -9999 -9999 -9999 301.60400390625 302.2349853515625 303.3039855957031 304.4599914550781 306.09698486328125 306.6830139160156 307.01300048828125 307.6679992675781 308.4110107421875 309.03399658203125 309.35198974609375 309.24200439453125 308.7550048828125 307.8389892578125 306.97100830078125 306.2799987792969 306.0419921875 306.0780029296875 306.30499267578125 306.6239929199219 306.2080078125 305.7409973144531 304.9100036621094 303.9079895019531 302.94500732421875 301.9230041503906 300.91400146484375 299.8599853515625 298.95001220703125 298.20599365234375 297.45098876953125 296.6619873046875 295.9179992675781 295.2019958496094 294.57000732421875 293.7909851074219 293.1050109863281 292.5159912109375 291.7170104980469 290.92401123046875 290.20098876953125 289.447998046875 288.50201416015625 287.4100036621094 286.364013671875 285.2229919433594 283.80999755859375 282.1830139160156 280.3689880371094 278.6419982910156 277.0069885253906 275.3340148925781 273.01300048828125 271.7049865722656 269.0400085449219 268.1780090332031 267.28900146484375 266.71600341796875 266.3139953613281 266.03900146484375 266.1889953613281 266.6000061035156 266.95599365234375 267.4620056152344 268.0409851074219 269.52398681640625 274.2439880371094 276.5719909667969 280.5660095214844 281.8179931640625 281.8599853515625 282.4200134277344 282.6099853515625 283.54998779296875 284.2170104980469 285.2040100097656 286.50299072265625 287.93798828125 289.0369873046875 290.2300109863281 291.8739929199219 294.4259948730469 297.0260009765625 298.8800048828125 299.1929931640625 298.0400085449219 296.10101318359375 293.2900085449219 291.3370056152344 290.3389892578125 289.3299865722656 288.94000244140625 289.1709899902344 289.6390075683594 289.8949890136719 289.87799072265625 290.14599609375 290.4630126953125 290.35101318359375 289.8280029296875 288.7720031738281 287.4570007324219 286.4800109863281 286.3210144042969 285.5480041503906 284.9519958496094 285.14599609375 285.6310119628906 287.4909973144531 290.114990234375 291.78399658203125 292.5950012207031 293.8059997558594 294.947998046875 295.4490051269531 295.5740051269531 296.6629943847656 296.82000732421875 297.0580139160156 297.3800048828125 297.4670104980469 296.87200927734375 297.0249938964844 296.9989929199219 296.9590148925781 297.15899658203125 297.625 298.2929992675781 298.9739990234375 -9999 -9999 -9999 -9999 -9999 -9999 -9999 -9999 -9999 -9999 -9999 -9999
-9999 -9999 -9999 -9999 -9999 -9999 -9999 -9999 -9999 -9999 -9999 -9999 -9999 -9999 -9999 -9999 299.6700134277344 300.5880126953125 302.61199951171875 304.2749938964844 305.9460144042969 306.73199462890625 307.2860107421875 307.99700927734375 308.71600341796875 309.27398681640625 309.6090087890625 309.67999267578125 309.4599914550781 308.9739990234375 308.37701416015625 307.8550109863281 307.62799072265625 307.5589904785156 307.4679870605469 307.0889892578125 306.3160095214844 305.5069885253906 304.4389953613281 303.22698974609375 302.2690124511719 301.23699951171875 300.1419982910156 299.2049865722656 298.3240051269531 297.69000244140625 296.8999938964844 296.1860046386719 295.49700927734375 294.92498779296875 294.2489929199219 293.57501220703125 292.9219970703125 292.36700439453125 291.6440124511719 291.010009765625 290.2860107421875 289.5369873046875 288.59698486328125 287.47198486328125 286.427001953125 285.1839904785156 283.677001953125 281.93499755859375 279.93798828125 277.88800048828125 275.89599609375 274.0320129394531 272.489990234375 270.9330139160156 268.78399658203125 267.9119873046875 266.9580078125 266.4230041503906 266.0169982910156 265.80999755859375 266.0660095214844 266.4639892578125 266.5249938964844 267.08599853515625 267.9259948730469 269.2850036621094 272.8479919433594 275.4949951171875 278.9590148925781 281.36199951171875 281.6239929199219 281.80999755859375 282.3869934082031 283.21600341796875 284.2439880371094 285.1619873046875 286.53900146484375 287.7850036621094 288.88299560546875 290.45599365234375 292.77801513671875 295.3240051269531 297.6619873046875 299.3280029296875 299.59100341796875 298.8919982910156 297.2040100097656 293.6180114746094 290.99700927734375 289.6409912109375 288.43798828125 287.9020080566406 288.09100341796875 288.4440002441406 288.5350036621094 288.6570129394531 289.0220031738281 289.2640075683594 289.0690002441406 288.6029968261719 287.7539978027344 286.4849853515625 285.29901123046875 284.5719909667969 283.76300048828125 283.14599609375 283.4620056152344 284.4930114746094 286.5870056152344 288.4289855957031 290.24700927734375 291.260986328125 292.072998046875 293.0220031738281 293.677001953125 294.0950012207031 294.6050109863281 296.125 296.20599365234375 295.63800048828125 295.8070068359375 295.8380126953125 295.8030090332031 295.95001220703125 296.2449951171875 296.7619934082031 297.3810119628906 298.03399658203125 298.7409973144531 299.4339904785156 300.15899658203125 -9999 -9999 -9999 -9999 -9999 -9999 -9999 -9999 -9999 -9999
-9999 -9999 -9999 -9999 -9999 -9999 -9999 -9999 -9999 -9999 -9999 -9999 -9999 -9999 -9999 -9999 298.25 300.1080017089844 302.31201171875 304.2720031738281 305.85198974609375 306.7049865722656 307.3370056152344 308.0329895019531 308.6960144042969 309.2590026855469 309.625 309.8240051269531 309.8760070800781 309.71099853515625 309.39898681640625 309.0509948730469 308.635986328125 308.1579895019531 307.7309875488281 306.74700927734375 305.6860046386719 304.53900146484375 303.3190002441406 302.25201416015625 301.2869873046875 300.3810119628906 299.2650146484375 298.49700927734375 297.7510070800781 297.1650085449219 296.4280090332031 295.7449951171875 295.1510009765625 294.614013671875 294.0450134277344 293.49200439453125 292.9100036621094 292.39599609375 291.7749938964844 291.18499755859375 290.47698974609375 289.8349914550781 288.8219909667969 287.7760009765625 286.6260070800781 285.4219970703125 283.86199951171875 281.989013671875 279.7699890136719 277.9389953613281 275.9670104980469 273.9389953613281 272.2030029296875 270.8739929199219 268.89898681640625 267.7550048828125 266.6260070800781 266.1090087890625 265.77398681640625 265.6510009765625 265.7510070800781 265.9549865722656 266.2349853515625 266.8009948730469 267.8349914550781 269.0350036621094 271.4779968261719 274.0870056152344 276.2460021972656 279.13299560546875 280.4620056152344 280.9739990234375 281.7550048828125 282.5690002441406 283.94500732421875 285.010009765625 286.4360046386719 287.7640075683594 289.1730041503906 290.97198486328125 293.2539978027344 295.72900390625 297.9530029296875 299.7749938964844 299.7300109863281 299.25299072265625 297.4590148925781 292.88800048828125 291.4230041503906 288.927001953125 287.7080078125 286.8999938964844 286.77301025390625 287.0840148925781 287.15301513671875 287.4289855957031 287.85699462890625 288.02301025390625 287.8269958496094 287.4259948730469 286.6679992675781 285.36700439453125 283.9570007324219 283.12799072265625 282.739990234375 282.3160095214844 282.33599853515625 283.510009765625 285.12200927734375 286.5669860839844 287.99798583984375 289.6679992675781 290.67999267578125 291.4729919433594 292.0610046386719 292.3819885253906 292.93798828125 293.7799987792969 294.9070129394531 294.989013671875 295.04400634765625 295.0220031738281 295.1340026855469 295.3789978027344 295.8179931640625 296.3370056152344 296.9440002441406 297.6860046386719 298.6130065917969 299.5710144042969 300.50799560546875 301.4129943847656 -9999 -9999 -9999 -9999 -9999 -9999 -9999 -9999 -9999
-9999 -9999 -9999 -9999 -9999 -9999 -9999 -9999 -9999 -9999 -9999 -9999 -9999 -9999 -9999 -9999 297.32598876953125 299.6629943847656 302.2959899902344 304.2229919433594 305.8609924316406 306.73199462890625 307.37298583984375 308.05499267578125 308.6629943847656 309.2200012207031 309.60400390625 309.8900146484375 310.0429992675781 310.0400085449219 309.8210144042969 309.40301513671875 308.6659851074219 307.9859924316406 307.0190124511719 305.47900390625 304.2650146484375 303.0849914550781 301.90899658203125 301.1839904785156 300.2860107421875 299.4620056152344 298.4429931640625 297.8399963378906 297.093994140625 296.6319885253906 295.8999938964844 295.3500061035156 294.8210144042969 294.35101318359375 293.8420104980469 293.3659973144531 292.9599914550781 292.5589904785156 291.9540100097656 291.5090026855469 290.81201171875 290.2550048828125 289.2179870605469 288.0790100097656 286.8710021972656 285.6839904785156 284.114990234375 282.3450012207031 280.19500732421875 278.3179931640625 276.3840026855469 274.4410095214844 272.55999755859375 270.9490051269531 269.52398681640625 267.62701416015625 266.3970031738281 265.7409973144531 265.4590148925781 265.1310119628906 265.5060119628906 265.6619873046875 265.9939880371094 266.6809997558594 267.7439880371094 269.05499267578125 270.760009765625 272.8349914550781 274.6629943847656 276.8609924316406 279.1390075683594 280 281.1199951171875 282.8380126953125 284.42498779296875 285.57598876953125 287 288.3559875488281 289.5150146484375 291.5570068359375 293.8919982910156 296.2330017089844 298.2749938964844 299.89801025390625 299.9540100097656 299.2919921875 297.8380126953125 294.697998046875 291.9700012207031 288.9909973144531 286.7860107421875 285.8420104980469 285.5299987792969 285.5899963378906 285.885986328125 286.3370056152344 286.8089904785156 286.8940124511719 286.6260070800781 286.16900634765625 285.43798828125 284.27301025390625 282.9119873046875 282.1520080566406 281.83099365234375 281.5589904785156 281.37701416015625 282.385986328125 283.885986328125 285.2590026855469 286.6080017089844 288.0979919433594 289.2430114746094 289.93701171875 290.4590148925781 291.04400634765625 291.64801025390625 292.3580017089844 293.3420104980469 294.3059997558594 294.6159973144531 294.7799987792969 294.8550109863281 295.0299987792969 295.3550109863281 295.8710021972656 296.78399658203125 297.8900146484375 299.1090087890625 300.1789855957031 301.0530090332031 301.9859924316406 302.8299865722656 -9999 -9999 -9999 -9999 -9999 -9999 -9999 -9999
-9999 -9999 -9999 -9999 -9999 -9999 -9999 -9999 -9999 -9999 -9999 -9999 -9999 -9999 -9999 -9999 296.8489990234375 299.45098876953125 301.90301513671875 304.06201171875 305.9159851074219 306.5299987792969 307.4100036621094 308.0929870605469 308.71099853515625 309.239990234375 309.5660095214844 309.8070068359375 309.92999267578125 309.8760070800781 309.5 308.8450012207031 308.11700439453125 307.1029968261719 304.9110107421875 303.5429992675781 302.2550048828125 300.9779968261719 300.4410095214844 299.8529968261719 299.17999267578125 298.4530029296875 297.73699951171875 297.0780029296875 296.510009765625 296.0950012207031 295.44500732421875 294.97698974609375 294.5589904785156 294.2380065917969 293.77398681640625 293.4129943847656 293.0690002441406 292.7130126953125 292.2049865722656 291.7699890136719 291.1470031738281 290.5260009765625 289.42498779296875 288.31298828125 287.0710144042969 285.8110046386719 284.32000732421875 282.6440124511719 280.6669921875 278.7749938964844 276.9419860839844 274.9070129394531 272.89898681640625 271.0509948730469 269.6099853515625 267.6730041503906 266.3479919433594 265.3789978027344 264.8630065917969 264.71099853515625 265.19000244140625 265.5840148925781 266.12701416015625 266.8009948730469 267.77398681640625 269.00299072265625 270.41900634765625 272.0589904785156 274.4360046386719 275.56201171875 278.0580139160156 280.1449890136719 281.8810119628906 283.9949951171875 286.00201416015625 287.40899658203125 288.13299560546875 288.86700439453125 290.3489990234375 292.18701171875 294.5710144042969 296.8800048828125 298.5450134277344 299.6759948730469 299.5929870605469 299.07501220703125 297.6610107421875 295.27801513671875 292.0870056152344 289.0480041503906 286.5740051269531 284.8940124511719 284.4540100097656 284.4429931640625 284.8420104980469 285.5469970703125 285.6960144042969 285.6570129394531 285.4389953613281 285.0409851074219 284.239990234375 283.0639953613281 281.9100036621094 281.19000244140625 280.8479919433594 280.62298583984375 280.7720031738281 281.7590026855469 283.0299987792969 284.2669982910156 285.47100830078125 286.8240051269531 288.0010070800781 288.7690124511719 289.24700927734375 289.9049987792969 290.4360046386719 291.1260070800781 291.9330139160156 292.9100036621094 294.0950012207031 294.5669860839844 294.8739929199219 294.989990234375 295.364990234375 296.18701171875 297.31201171875 298.5639953613281 299.7340087890625 300.7799987792969 301.67999267578125 302.59698486328125 303.406005859375 304.1679992675781 -9999 -9999 -9999 -9999 -9999 -9999 -9999
-9999 -9999 -9999 -9999 -9999 -9999 -9999 -9999 -9999 -9999 -9999 -9999 -9999 -9999 -9999 -9999 296.7229919433594 299.3139953613281 302.0509948730469 303.9419860839844 305.6600036621094 306.25799560546875 307.239990234375 307.9469909667969 308.6369934082031 309.1709899902344 309.4599914550781 309.6520080566406 309.71600341796875 309.4530029296875 308.8389892578125 307.9960021972656 306.89300537109375 304.1780090332031 302.65399169921875 301.1319885253906 299.9909973144531 299.197998046875 298.71600341796875 298.37298583984375 297.989013671875 297.37799072265625 296.93701171875 296.3800048828125 295.9330139160156 295.55999755859375 295.0140075683594 294.65399169921875 294.3240051269531 294.0929870605469 293.75201416015625 293.447998046875 293.19500732421875 292.8890075683594 292.35198974609375 291.9779968261719 291.3580017089844 290.64300537109375 289.50201416015625 288.3139953613281 287.0840148925781 285.8290100097656 284.3680114746094 282.7149963378906 280.9519958496094 279.0889892578125 277.14898681640625 274.9989929199219 272.91400146484375 270.9519958496094 269.37200927734375 267.5010070800781 266.26800537109375 265.11700439453125 264.3900146484375 264.1369934082031 264.9880065917969 265.43701171875 265.9739990234375 266.6929931640625 267.71600341796875 269.0840148925781 271.197998046875 273.49700927734375 275.114013671875 277.1719970703125 335.0209655761719 337.53497314453125 339.76495361328125 341.9349670410156 343.50897216796875 344.96197509765625 345.3229675292969 345.63397216796875 346.449951171875 348.2739562988281 350.4959716796875 352.46197509765625 353.93896484375 354.5159606933594 354.449951171875 353.4959716796875 352.0589599609375 349.4609680175781 346.6329650878906 343.3569641113281 340.7889709472656 338.89697265625 338.63397216796875 338.8399658203125 339.16094970703125 339.6689758300781 339.8439636230469 339.7049560546875 284.4289855957031 283.9280090332031 283.1000061035156 281.9549865722656 280.885009765625 280.21600341796875 279.8819885253906 279.8630065917969 280.3179931640625 281.3059997558594 282.1419982910156 283.2770080566406 284.5559997558594 285.8190002441406 286.7640075683594 287.47900390625 288.3110046386719 288.82000732421875 289.3900146484375 290.09100341796875 290.8420104980469 291.7959899902344 292.8999938964844 294.3370056152344 295.0069885253906 295.27398681640625 295.77801513671875 296.7980041503906 298.0010070800781 299.2309875488281 300.385009765625 301.4330139160156 302.3089904785156 303.2090148925781 303.927001953125 304.7019958496094 305.3800048828125 305.9289855957031 -9999 -9999 -9999 -9999 -9999
-9999 -9999 -9999 -9999 -9999 -9999 -9999 -9999 -9999 -9999 -9999 -9999 -9999 -9999 -9999 -9999 296.52301025390625 299.1210021972656 302.1130065917969 304.20098876953125 304.593994140625 305.885009765625 306.87701416015625 307.5509948730469 308.3290100097656 308.8280029296875 309.1390075683594 309.2850036621094 309.2340087890625 308.7799987792969 307.9700012207031 307.1889953613281 304.1300048828125 302.3110046386719 300.3909912109375 299.1709899902344 297.87799072265625 297.24798583984375 296.83599853515625 296.656005859375 296.6449890136719 296.3240051269531 296.1260070800781 295.6830139160156 295.36700439453125 294.99700927734375 294.6449890136719 294.4389953613281 294.20098876953125 294.03900146484375 293.7929992675781 293.5069885253906 293.36700439453125 293.02099609375 292.5050048828125 292.0690002441406 291.385986328125 290.57000732421875 289.3699951171875 288.2349853515625 287.04400634765625 285.74200439453125 284.3039855957031 282.656005859375 280.9110107421875 278.9590148925781 276.7969970703125 274.74798583984375 272.65899658203125 270.6839904785156 269.0050048828125 267.27099609375 266.09698486328125 264.968994140625 264.0989990234375 263.7820129394531 264.6910095214844 265.1570129394531 265.6830139160156 266.2869873046875 267.3059997558594 269.7449951171875 273.4020080566406 274.9150085449219 277.9259948730469 280.7860107421875 338.3919677734375 340.6959533691406 342.6769714355469 344.2029724121094 345.8929748535156 347.4169616699219 347.9069519042969 347.7299499511719 348.3019714355469 349.5919494628906 351.8079528808594 353.32196044921875 354.1779479980469 354.4189758300781 353.7839660644531 352.4609680175781 350.6439514160156 347.8509521484375 344.7579650878906 341.501953125 338.6099548339844 336.6359558105469 337.2479553222656 338.2469482421875 338.6649475097656 339.04595947265625 339.0759582519531 338.844970703125 283.4490051269531 283 282.0679931640625 280.8489990234375 279.9200134277344 279.4830017089844 279.2659912109375 279.1199951171875 279.3489990234375 279.9429931640625 281.16900634765625 282.0150146484375 283.0299987792969 284.343994140625 285.4049987792969 286.22900390625 287.0740051269531 287.8080139160156 288.6919860839844 289.5429992675781 290.4200134277344 291.2300109863281 292.32598876953125 293.55999755859375 295.2200012207031 295.85101318359375 296.53900146484375 297.5690002441406 298.864990234375 299.9729919433594 301.0889892578125 302.0610046386719 302.8800048828125 303.80999755859375 304.5580139160156 305.2080078125 305.7820129394531 306.26800537109375 306.6000061035156 -9999 -9999 -9999 -9999
-9999 -9999 -9999 -9999 -9999 -9999 -9999 -9999 -9999 -9999 -9999 -9999 -9999 -9999 -9999 -9999 296.58099365234375 299.385986328125 301.99700927734375 303.4540100097656 305.46099853515625 305.6969909667969 306.5459899902344 307.26300048828125 307.95599365234375 308.4939880371094 308.8210144042969 308.88299560546875 308.73699951171875 308.18701171875 307.30999755859375 305.6780090332031 303.135986328125 300.70098876953125 298.7860107421875 296.56298828125 296.010009765625 295.2560119628906 294.9110107421875 294.9630126953125 295.1499938964844 295.1629943847656 295.15301513671875 294.9200134277344 294.760986328125 294.54400634765625 294.3059997558594 294.15399169921875 294.0039978027344 293.96099853515625 293.7969970703125 293.5880126953125 293.531005859375 293.1409912109375 292.6319885253906 292.052001953125 291.3169860839844 290.4179992675781 289.22100830078125 288.0899963378906 286.8609924316406 285.56500244140625 284.15301513671875 282.4670104980469 280.6499938964844 278.5249938964844 276.3089904785156 274.2539978027344 272.24200439453125 270.2650146484375 268.6159973144531 267.0260009765625 265.8269958496094 264.6679992675781 263.79901123046875 263.3940124511719 263.927001953125 264.3370056152344 264.7799987792969 265.4700012207031 267.5719909667969 271.6830139160156 275.2850036621094 277.20001220703125 281.1520080566406 283.2760009765625 340.6839599609375 342.1949462890625 343.7989501953125 345.6539611816406 347.5569763183594 349.08795166015625 350.0899658203125 350.2889709472656 350.4319763183594 351.5269470214844 353.0289611816406 354.29296875 354.4509582519531 353.7509765625 352.4949645996094 350.844970703125 348.5489501953125 345.39495849609375 342.0079650878906 339.00897216796875 336.73297119140625 335.1509704589844 336.08697509765625 337.1179504394531 337.574951171875 338.4979553222656 338.5629577636719 338.38494873046875 282.79998779296875 282.093994140625 281.0769958496094 280.02398681640625 279.1910095214844 279.03900146484375 279.0119934082031 278.77899169921875 279.0090026855469 279.2980041503906 279.88800048828125 280.78399658203125 281.8070068359375 282.9119873046875 283.8840026855469 285.2510070800781 286.447998046875 287.4309997558594 288.3399963378906 289.2359924316406 289.968994140625 291.1289978027344 292.2950134277344 293.6510009765625 295.2250061035156 296.38800048828125 297.4809875488281 298.56298828125 299.7349853515625 300.7460021972656 301.78399658203125 302.73699951171875 303.61199951171875 304.3940124511719 305.1099853515625 305.5989990234375 305.99700927734375 306.5010070800781 306.8940124511719 -9999 -9999 -9999 -9999
-9999 -9999 -9999 -9999 -9999 -9999 -9999 -9999 -9999 -9999 -9999 -9999 -9999 -9999 -9999 -9999 296.7909851074219 299.6679992675781 302.08099365234375 303.75299072265625 304.8420104980469 305.5220031738281 306.13299560546875 306.947998046875 307.5509948730469 308.0880126953125 308.44500732421875 308.4909973144531 308.3290100097656 307.697998046875 306.9309997558594 305.27099609375 302.8739929199219 300.1619873046875 297.5400085449219 294.9339904785156 294.4179992675781 293.635009765625 293.2380065917969 293.3739929199219 293.51800537109375 293.8800048828125 293.98199462890625 294.00799560546875 294.0509948730469 293.91900634765625 293.8169860839844 293.7690124511719 293.72100830078125 293.7340087890625 293.70098876953125 293.5690002441406 293.5069885253906 293.1159973144531 292.6300048828125 291.90399169921875 291.1300048828125 290.20098876953125 289.01300048828125 287.885009765625 286.6570129394531 285.3030090332031 283.875 282.14300537109375 280.24798583984375 278.0159912109375 275.7650146484375 273.78399658203125 271.8380126953125 269.84600830078125 268.1990051269531 266.8169860839844 265.56500244140625 264.3919982910156 263.5429992675781 262.89898681640625 263.22698974609375 263.6730041503906 264.156005859375 264.6520080566406 267.197998046875 271.5740051269531 275.4519958496094 279.3399963378906 282.0509948730469 283.7820129394531 285.8900146484375 342.35894775390625 344.0469665527344 345.8989562988281 348.0579528808594 350.1739501953125 351.6259765625 352.48095703125 352.91796875 353.48297119140625 354.198974609375 354.4279479980469 353.7669677734375 352.5419616699219 350.9869689941406 349.00897216796875 346.0729675292969 342.48797607421875 339.1039733886719 336.45697021484375 335.02197265625 334.38397216796875 335.5339660644531 336.0489501953125 336.84796142578125 337.5549621582031 337.86297607421875 337.4379577636719 282.0799865722656 281.6619873046875 280.20001220703125 278.8800048828125 278.0769958496094 277.79400634765625 277.50799560546875 277.32501220703125 277.5140075683594 278.1319885253906 279.052001953125 279.989013671875 280.9620056152344 282.010986328125 283.3599853515625 284.8970031738281 286.0840148925781 287.1390075683594 288.18499755859375 289.3819885253906 290.5719909667969 291.98199462890625 293.3580017089844 294.6910095214844 295.9330139160156 297.7760009765625 298.37799072265625 299.4460144042969 300.90301513671875 301.82000732421875 302.70001220703125 303.5899963378906 304.3479919433594 304.83599853515625 305.5119934082031 305.9779968261719 306.4110107421875 306.760009765625 307.0419921875 -9999 -9999 -9999 -9999
-9999 -9999 -9999 -9999 -9999 -9999 -9999 -9999 -9999 -9999 -9999 -9999 -9999 -9999 -9999 -9999 296.760009765625 299.4230041503906 301.4729919433594 303.4119873046875 304.0580139160156 305.2539978027344 305.82501220703125 306.6629943847656 307.20001220703125 307.8139953613281 308.1629943847656 308.1839904785156 307.90399169921875 307.3070068359375 306.5840148925781 305.13299560546875 302.7969970703125 299.8169860839844 296.8949890136719 294.5840148925781 292.90899658203125 292.1289978027344 292.0849914550781 291.9930114746094 292.16900634765625 292.65301513671875 292.7590026855469 292.9830017089844 293.2030029296875 293.1910095214844 293.2659912109375 293.2040100097656 293.3210144042969 293.3550109863281 293.37799072265625 293.3370056152344 293.3009948730469 292.90899658203125 292.4330139160156 291.69000244140625 290.84600830078125 290.0010070800781 288.802001953125 287.6709899902344 286.4389953613281 285.0360107421875 283.5870056152344 281.7510070800781 279.77899169921875 277.52899169921875 275.22900390625 273.156005859375 271.28399658203125 269.375 267.906005859375 266.53900146484375 265.3320007324219 264.2049865722656 263.52899169921875 262.6300048828125 262.6549987792969 262.989990234375 263.3420104980469 263.9960021972656 266.0660095214844 270.1440124511719 274.6400146484375 277.7170104980469 279.9460144042969 282.302001953125 285.0799865722656 341.9149475097656 343.85296630859375 345.96795654296875 348.4019470214844 350.8229675292969 352.865966796875 354.27996826171875 355.31195068359375 354.8959655761719 354.41595458984375 353.9329528808594 352.6559753417969 351.06695556640625 349.29296875 346.8199462890625 343.5399475097656 340.09295654296875 336.6509704589844 334.5679626464844 333.39996337890625 333.40496826171875 334.553955078125 335.14794921875 336.0159606933594 336.93096923828125 337.1309509277344 337.0109558105469 336.6699523925781 280.9630126953125 279.60699462890625 277.9639892578125 277.36700439453125 276.89898681640625 276.5950012207031 276.2359924316406 276.43798828125 277.3689880371094 278.5459899902344 279.4330139160156 280.3299865722656 281.5790100097656 283.1610107421875 284.8890075683594 286.0450134277344 287.4989929199219 288.9460144042969 290.32501220703125 291.6470031738281 293.02899169921875 294.4700012207031 295.9079895019531 297.1629943847656 297.76800537109375 300.4020080566406 301.06298828125 302.07000732421875 302.8900146484375 303.5400085449219 304.21099853515625 304.92999267578125 305.5270080566406 306.01800537109375 306.3900146484375 306.6669921875 306.8689880371094 307.2120056152344 -9999 -9999 -9999 -9999
-9999 -9999 -9999 -9999 -9999 -9999 -9999 -9999 -9999 -9999 -9999 -9999 -9999 -9999 -9999 -9999 295.8219909667969 298.1650085449219 300.25799560546875 302.3089904785156 303.6210021972656 305.0989990234375 305.4779968261719 306.43798828125 307.00299072265625 307.5950012207031 307.968994140625 307.9100036621094 307.5559997558594 306.89300537109375 306.16900634765625 304.6709899902344 302.1050109863281 298.79998779296875 296.10101318359375 293.91900634765625 292.31201171875 290.6679992675781 290.16400146484375 290.4150085449219 291.23699951171875 291.5199890136719 291.8320007324219 292.1210021972656 292.37701416015625 292.4880065917969 292.6619873046875 292.6600036621094 292.8210144042969 292.8590087890625 292.885009765625 292.9309997558594 292.9830017089844 292.5459899902344 292.114013671875 291.3280029296875 290.5419921875 289.6629943847656 288.51300048828125 287.3630065917969 286.16900634765625 284.7439880371094 283.26300048828125 281.3269958496094 279.3039855957031 277.05999755859375 274.71600341796875 272.5570068359375 270.72601318359375 268.9540100097656 267.57501220703125 266.3160095214844 264.9410095214844 264.0880126953125 263.3970031738281 262.6510009765625 262.3389892578125 262.4540100097656 262.7359924316406 263.4230041503906 264.3089904785156 268.8210144042969 272.73699951171875 275.2330017089844 277.80499267578125 281.1289978027344 284.5199890136719 341.7569580078125 343.7469482421875 346.49896240234375 349.01995849609375 351.4749755859375 353.47296142578125 355.36395263671875 356.1489562988281 355.2659606933594 353.6939697265625 352.6299743652344 351.35296630859375 349.5589599609375 347.64697265625 344.8439636230469 341.5169677734375 337.84796142578125 334.761962890625 332.5689697265625 331.9219665527344 332.60595703125 333.51495361328125 334.3019714355469 335.1819763183594 336.032958984375 336.4799499511719 336.4029541015625 336.220947265625 280.4739990234375 278.9840087890625 277.5950012207031 276.7489929199219 276.13800048828125 275.42498779296875 275.1830139160156 275.51300048828125 276.8900146484375 278.3399963378906 279.35400390625 280.47698974609375 281.9779968261719 283.59600830078125 285.4100036621094 287.08099365234375 288.51300048828125 289.89300537109375 291.2170104980469 292.59698486328125 294.0660095214844 295.5509948730469 297.1029968261719 298.7229919433594 300.5610046386719 301.364013671875 302.4599914550781 303.1719970703125 303.6400146484375 304.3659973144531 305.0140075683594 305.5920104980469 306.0050048828125 306.3550109863281 306.6610107421875 306.7950134277344 306.9700012207031 307.08599853515625 -9999 -9999 -9999 -9999
-9999 -9999 -9999 -9999 -9999 -9999 -9999 -9999 -9999 -9999 -9999 -9999 -9999 -9999 -9999 -9999 295.5419921875 297.78399658203125 299.6969909667969 302.1610107421875 303.4599914550781 305.14801025390625 305.4729919433594 306.3659973144531 306.8399963378906 307.3999938964844 307.67999267578125 307.5920104980469 307.18499755859375 306.5429992675781 305.59600830078125 303.72900390625 300.0220031738281 297.1319885253906 294.4859924316406 292.9219970703125 291.4679870605469 289.7179870605469 288.6180114746094 287.9859924316406 288.5840148925781 289.9909973144531 291.0360107421875 291.4119873046875 291.7309875488281 291.93701171875 292.0150146484375 292.0450134277344 292.24798583984375 292.2969970703125 292.33599853515625 292.4129943847656 292.4129943847656 292.07000732421875 291.6719970703125 290.9179992675781 290.1830139160156 289.2309875488281 288.12200927734375 286.968994140625 285.8139953613281 284.32501220703125 282.7300109863281 280.8139953613281 278.6820068359375 276.5329895019531 274.3330078125 272.24200439453125 270.3450012207031 268.6809997558594 267.3330078125 266.0979919433594 264.8290100097656 263.8559875488281 263.1080017089844 262.36700439453125 261.9670104980469 262.0150146484375 262.2879943847656 262.8450012207031 263.6730041503906 267.3630065917969 270.43798828125 274.0639953613281 277.656005859375 280.84698486328125 284.0350036621094 341.5579528808594 344.0179748535156 346.9969482421875 349.5789489746094 351.8179626464844 353.6569519042969 354.9449462890625 355.2609558105469 353.7449645996094 352.4239501953125 350.84295654296875 349.5759582519531 348.0479736328125 345.8779602050781 343.0029602050781 339.9119567871094 336.27996826171875 333.2769470214844 331.3359680175781 330.86297607421875 331.7679748535156 332.48895263671875 333.4349670410156 334.4349670410156 335.2639465332031 335.8469543457031 335.98394775390625 336.0189514160156 280.0119934082031 278.7239990234375 277.2619934082031 276.04901123046875 275.67498779296875 275.072998046875 275.010009765625 275.4429931640625 276.5350036621094 278.60400390625 280.7959899902344 281.6520080566406 283.0090026855469 284.6319885253906 286.22698974609375 287.8399963378906 289.35699462890625 290.7749938964844 292.2690124511719 293.6440124511719 295.1390075683594 296.989990234375 299.07598876953125 300.0530090332031 300.9880065917969 301.9230041503906 302.97698974609375 304.0669860839844 304.5299987792969 305.0459899902344 305.5660095214844 306.0039978027344 306.3559875488281 306.5979919433594 306.7049865722656 306.8179931640625 306.864990234375 306.9460144042969 307.0159912109375 -9999 -9999 -9999
-9999 -9999 -9999 -9999 -9999 -9999 -9999 -9999 -9999 -9999 -9999 -9999 -9999 -9999 -9999 -9999 296.7130126953125 298.6860046386719 301.02099609375 302.9200134277344 304.1759948730469 305.0660095214844 305.6570129394531 306.39300537109375 306.7969970703125 307.2340087890625 307.36700439453125 307.2690124511719 306.8900146484375 306.17401123046875 304.968994140625 302.82501220703125 299.1789855957031 295.95098876953125 293.52398681640625 292.09600830078125 290.8999938964844 289.2030029296875 288.3710021972656 287.2239990234375 286.4840087890625 287.70001220703125 288.4469909667969 290.1470031738281 291.0870056152344 291.3789978027344 291.5150146484375 291.5299987792969 291.62799072265625 291.6619873046875 291.6960144042969 291.7900085449219 291.7799987792969 291.4620056152344 291.1210021972656 290.3689880371094 289.739013671875 288.72100830078125 287.6199951171875 286.56201171875 285.3190002441406 283.8710021972656 282 280.125 278.1199951171875 276.00799560546875 273.89300537109375 271.97698974609375 270.09100341796875 268.4530029296875 267.17498779296875 265.9410095214844 264.43499755859375 263.63800048828125 262.90301513671875 262.0849914550781 261.4909973144531 261.58599853515625 261.9119873046875 262.36700439453125 263.0669860839844 266.1860046386719 270.0010070800781 273.760986328125 276.6830139160156 279.2040100097656 282.74798583984375 341.1729736328125 343.9339599609375 347.0439758300781 349.6459655761719 351.7109680175781 353.3959655761719 354.136962890625 353.6419677734375 352.3569641113281 350.4169616699219 349.18896484375 347.8939514160156 346.7099609375 344.9329528808594 341.9229736328125 338.4869689941406 335.1629638671875 331.89697265625 330.38494873046875 330.3709716796875 331.0839538574219 331.303955078125 332.2679748535156 333.45196533203125 334.61895751953125 335.27496337890625 335.63397216796875 335.5809631347656 279.656005859375 278.2699890136719 276.9079895019531 275.5950012207031 274.3580017089844 273.4209899902344 273.4230041503906 275.12701416015625 276.4289855957031 279.4339904785156 281.94500732421875 282.7489929199219 284.1830139160156 285.7330017089844 287.2699890136719 288.81298828125 290.2879943847656 291.79400634765625 293.27899169921875 295.14801025390625 297.2929992675781 298.4070129394531 299.5169982910156 300.5790100097656 301.67401123046875 302.635986328125 303.47900390625 304.4530029296875 305.2120056152344 305.5249938964844 305.8070068359375 306.15399169921875 306.35101318359375 306.51300048828125 306.6080017089844 306.6510009765625 306.65399169921875 306.6099853515625 306.58599853515625 -9999 -9999 -9999
-9999 -9999 -9999 -9999 -9999 -9999 -9999 -9999 -9999 -9999 -9999 -9999 -9999 -9999 -9999 -9999 298.8290100097656 300.50201416015625 302.6780090332031 303.7489929199219 303.2900085449219 305.23199462890625 306.03399658203125 306.54998779296875 306.8559875488281 307.1780090332031 307.2409973144531 307.1310119628906 306.7239990234375 305.9639892578125 304.4750061035156 301.4750061035156 298.21099853515625 295.2090148925781 293.0790100097656 291.5889892578125 290.72198486328125 289.0270080566406 288.18798828125 287.20001220703125 286.27899169921875 285.18798828125 286.1549987792969 288.3550109863281 289.2590026855469 290.1960144042969 290.9590148925781 291.14801025390625 291.0799865722656 291.0669860839844 290.9960021972656 291.10699462890625 291.00299072265625 290.7170104980469 290.4150085449219 289.81298828125 289.156005859375 288.14801025390625 287.06201171875 285.97198486328125 284.70001220703125 283.1099853515625 281.052001953125 279.1579895019531 277.29998779296875 275.40301513671875 273.4729919433594 271.60101318359375 269.7179870605469 268.156005859375 266.9440002441406 265.4739990234375 264.0610046386719 263.27301025390625 262.718994140625 261.8210144042969 260.6910095214844 261.17999267578125 261.5450134277344 261.9020080566406 262.5090026855469 264.67999267578125 268.4670104980469 272.6730041503906 274.59100341796875 277.59698486328125 281.9739990234375 285.8399963378906 343.7869567871094 346.9449462890625 349.178955078125 350.8909606933594 352.64697265625 353.1689758300781 352.2819519042969 350.3799743652344 349.095947265625 347.54095458984375 346.27996826171875 345.3799743652344 344.1559753417969 341.4649658203125 337.8679504394531 330.9339599609375 330.8859558105469 327.9599609375 329.31695556640625 329.9349670410156 330.53497314453125 331.4279479980469 332.82696533203125 333.51995849609375 334.7149658203125 335.219970703125 335.1039733886719 279.2149963378906 277.81201171875 276.6319885253906 275.4590148925781 273.48699951171875 273.47198486328125 273.4620056152344 274.79998779296875 277.4100036621094 280.0849914550781 282.9649963378906 283.9150085449219 285.28399658203125 286.7460021972656 288.2179870605469 289.7820129394531 291.385986328125 293.52801513671875 295.47601318359375 296.62200927734375 297.7900085449219 298.9570007324219 300.1310119628906 301.22601318359375 302.2690124511719 303.14801025390625 303.8819885253906 304.4840087890625 305.2309875488281 305.7460021972656 305.89898681640625 306.010986328125 306.1260070800781 306.2430114746094 306.260009765625 306.2279968261719 306.27398681640625 306.3810119628906 306.4070129394531 -9999 -9999 -9999
-9999 -9999 -9999 -9999 -9999 -9999 -9999 -9999 -9999 -9999 -9999 -9999 -9999 -9999 -9999 -9999 300.5159912109375 302.6709899902344 303.11700439453125 304.2030029296875 305.1029968261719 305.8739929199219 306.37298583984375 306.8110046386719 307.0299987792969 307.28399658203125 307.24700927734375 307.0820007324219 306.6809997558594 306.02801513671875 304.468994140625 301.4840087890625 298.2040100097656 295.29998779296875 293.3970031738281 291.62200927734375 290.3630065917969 288.99798583984375 288.0350036621094 287.0090026855469 286.2279968261719 285.4700012207031 283.90899658203125 284.0870056152344 286.7139892578125 288.8599853515625 288.71099853515625 289.3599853515625 290.3559875488281 290.4830017089844 290.385009765625 290.4429931640625 290.2799987792969 289.8710021972656 289.6449890136719 289.0260009765625 288.4620056152344 287.42401123046875 286.42999267578125 285.2510070800781 284.0880126953125 282.2170104980469 280.0669860839844 277.9639892578125 276.1470031738281 274.5950012207031 272.9750061035156 271.2539978027344 269.38299560546875 267.8810119628906 266.5409851074219 264.989990234375 263.6830139160156 262.97698974609375 262.47601318359375 261.7409973144531 260.9779968261719 260.7760009765625 261.1199951171875 261.46600341796875 261.9989929199219 262.7659912109375 266.9519958496094 270.50201416015625 273.81298828125 277.9209899902344 282.27301025390625 286.1090087890625 288.87200927734375 346.63397216796875 348.36297607421875 349.61395263671875 350.6519470214844 351.1149597167969 350.34295654296875 348.9799499511719 347.42596435546875 346.0289611816406 344.9349670410156 343.7569580078125 342.5939636230469 340.6559753417969 337.4299621582031 330.8889465332031 330.8959655761719 327.2639465332031 328.3199462890625 328.7049560546875 329.21197509765625 330.54095458984375 331.78497314453125 333.136962890625 334.0919494628906 334.85894775390625 334.5599670410156 278.17999267578125 277.7590026855469 276.5849914550781 275.2409973144531 273.4630126953125 273.4670104980469 273.4700012207031 274.7229919433594 277.5840148925781 280.77099609375 284.1929931640625 284.9320068359375 286.10400390625 287.4800109863281 289.114013671875 290.72698974609375 294.0480041503906 294.9580078125 295.9320068359375 297.1159973144531 298.3340148925781 299.44000244140625 300.5159912109375 301.4100036621094 302.260009765625 303.0140075683594 303.6860046386719 304.28399658203125 304.7699890136719 305.3710021972656 305.8739929199219 305.7460021972656 305.6860046386719 305.68499755859375 305.85198974609375 305.99200439453125 305.8940124511719 305.9150085449219 305.9949951171875 -9999 -9999 -9999
-9999 -9999 -9999 -9999 -9999 -9999 -9999 -9999 -9999 -9999 -9999 -9999 -9999 -9999 -9999 -9999 302.6610107421875 302.3039855957031 304.10400390625 304.99700927734375 305.822998046875 306.4150085449219 307.05499267578125 307.1719970703125 307.34100341796875 307.5159912109375 307.3949890136719 307.125 306.6969909667969 306.1340026855469 304.8280029296875 302.24700927734375 298.9670104980469 296.2669982910156 294.09698486328125 292.1449890136719 290.8550109863281 289.4230041503906 288.4020080566406 287.10699462890625 286.1390075683594 285.4410095214844 284.218994140625 283.2070007324219 282.34698486328125 284.4880065917969 286.8840026855469 288.14801025390625 287.95599365234375 288.62701416015625 289.90301513671875 289.8689880371094 289.61700439453125 289.2760009765625 288.8999938964844 288.3290100097656 287.6340026855469 286.5429992675781 285.41900634765625 284.35198974609375 282.83099365234375 281.1809997558594 279.0379943847656 276.9580078125 274.9490051269531 273.36700439453125 271.96099853515625 270.5090026855469 268.9259948730469 267.5329895019531 265.4419860839844 264.52301025390625 263.5220031738281 262.7760009765625 262.2309875488281 261.5849914550781 260.7829895019531 260.34698486328125 260.4809875488281 261.09100341796875 261.5830078125 262.1730041503906 264.302001953125 269.4700012207031 273.31201171875 278.2309875488281 282.2510070800781 285.87701416015625 288.0299987792969 289.9949951171875 291.68499755859375 292.6409912109375 348.6719665527344 348.8029479980469 348.2349548339844 347.3209533691406 345.83697509765625 344.636962890625 343.4379577636719 342.49896240234375 340.845947265625 339.407958984375 336.3519592285156 333.0489501953125 330.5239562988281 326.6979675292969 327.3299560546875 327.9139709472656 328.2809753417969 329.178955078125 330.6799621582031 331.948974609375 333.2549743652344 333.7759704589844 333.5859680175781 277.95098876953125 277.3949890136719 275.4530029296875 274.15399169921875 273.44000244140625 273.4809875488281 273.4700012207031 274.7349853515625 277.93798828125 280.8659973144531 284.010986328125 285.7909851074219 287.1159973144531 288.67498779296875 290.4779968261719 292.0580139160156 294.2130126953125 295.43798828125 296.4150085449219 297.49200439453125 298.54400634765625 299.4649963378906 300.27099609375 301.0270080566406 301.77899169921875 302.5469970703125 303.25299072265625 303.72198486328125 304.17498779296875 304.6289978027344 305.1990051269531 305.4159851074219 305.364990234375 305.2900085449219 305.3039855957031 305.364990234375 305.32598876953125 305.260009765625 305.27099609375 -9999 -9999 -9999
-9999 -9999 -9999 -9999 -9999 -9999 -9999 -9999 -9999 -9999 -9999 -9999 -9999 -9999 -9999 -9999 301.97198486328125 304.2569885253906 305.30499267578125 306.09698486328125 306.7030029296875 307.2030029296875 307.7640075683594 307.614990234375 307.72900390625 307.7959899902344 307.6080017089844 307.2120056152344 306.6650085449219 306.10198974609375 305.0459899902344 302.82501220703125 299.8489990234375 297.468994140625 295.0369873046875 293.63299560546875 292.02301025390625 290.58599853515625 288.98699951171875 287.4939880371094 286.34100341796875 285.40399169921875 284.2200012207031 283.302001953125 282.197998046875 281.4530029296875 282.3970031738281 283.5899963378906 284.281005859375 285.4679870605469 286.8529968261719 287.61700439453125 288.6289978027344 288.760009765625 288.3009948730469 287.57598876953125 286.5929870605469 285.5190124511719 284.5150146484375 283.18701171875 281.2640075683594 279.6440124511719 277.7799987792969 275.99700927734375 274.072998046875 272.3009948730469 270.6090087890625 269.08099365234375 267.97698974609375 266.9440002441406 265.281005859375 263.97100830078125 263.2919921875 262.5400085449219 261.9729919433594 261.375 260.6789855957031 259.8810119628906 259.927001953125 260.72198486328125 261.114013671875 261.7070007324219 264.3059997558594 268.9169921875 272.6090087890625 277.7460021972656 281.1679992675781 283.7070007324219 286.0379943847656 287.9010009765625 289.6549987792969 290.6610107421875 291.35101318359375 291.60198974609375 291.1369934082031 290.40399169921875 344.2689514160156 343.3749694824219 342.2999572753906 341.1429748535156 339.6799621582031 338.3409729003906 335.07196044921875 332.1629638671875 330.501953125 326.2249755859375 326.2779541015625 326.8829650878906 327.58697509765625 328.23095703125 329.64697265625 331.0259704589844 332.0779724121094 332.5629577636719 332.6019592285156 277.0929870605469 276.343994140625 274.39599609375 271.8160095214844 271.09698486328125 273.40399169921875 273.77301025390625 274.6099853515625 278.26800537109375 281.1579895019531 283.89801025390625 286.27899169921875 287.5 289.0710144042969 290.5610046386719 291.9830017089844 293.7720031738281 295.6839904785156 296.635009765625 297.4309997558594 298.1759948730469 298.8919982910156 299.5979919433594 300.3190002441406 301.052001953125 301.8070068359375 302.56201171875 303.30999755859375 303.9930114746094 304.15399169921875 304.3349914550781 304.53900146484375 304.69500732421875 304.6260070800781 304.55999755859375 304.4989929199219 304.52398681640625 304.52398681640625 304.5400085449219 -9999 -9999 -9999
-9999 -9999 -9999 -9999 -9999 -9999 -9999 -9999 -9999 -9999 -9999 -9999 -9999 -9999 -9999 -9999 304.2879943847656 305.6520080566406 306.614990234375 307.1610107421875 307.5790100097656 307.8659973144531 308.1830139160156 308.0329895019531 308.08099365234375 308.0830078125 307.71099853515625 307.2250061035156 306.53900146484375 305.8760070800781 304.97698974609375 302.9800109863281 300.4700012207031 298.6789855957031 296.5769958496094 295.2760009765625 294.0570068359375 292.3869934082031 290.4670104980469 288.4620056152344 286.62200927734375 285.6210021972656 284.27301025390625 283.2030029296875 281.9159851074219 281.4849853515625 280.6180114746094 279.8290100097656 281.2149963378906 281.9150085449219 283.3160095214844 284.60400390625 285.4859924316406 285.7770080566406 285.6789855957031 285.0050048828125 284.1629943847656 283.1629943847656 282.1409912109375 280.4809875488281 278.5690002441406 276.6260070800781 274.9429931640625 273.7569885253906 272.4389953613281 270.1919860839844 268.1130065917969 267.1619873046875 266.6780090332031 266.0769958496094 265.0090026855469 263.8030090332031 263.1449890136719 262.489990234375 261.875 261.3420104980469 260.5169982910156 259.6409912109375 259.864013671875 260.0190124511719 260.8500061035156 261.1759948730469 263.239990234375 267.9840087890625 272.64898681640625 276.1300048828125 278.8559875488281 280.99798583984375 284.00299072265625 286.427001953125 287.7349853515625 288.6059875488281 289.1960144042969 289.7130126953125 289.4070129394531 288.6669921875 287.90899658203125 286.9530029296875 286.25 340.02197265625 338.5379638671875 336.4899597167969 333.8749694824219 331.09796142578125 329.9239501953125 324.8099670410156 324.6119689941406 325.5369567871094 326.4439697265625 327.12896728515625 328.5649719238281 330.0529479980469 331.0449523925781 331.5169677734375 331.636962890625 331.1589660644531 275.17401123046875 271.9630126953125 270.57501220703125 270.4219970703125 270.89599609375 271.89599609375 274.6159973144531 278.56298828125 281.5820007324219 284.36199951171875 286.54901123046875 287.55999755859375 288.760009765625 290.22900390625 291.1940002441406 292.885009765625 294.8739929199219 296.2510070800781 296.9930114746094 297.5329895019531 298.1400146484375 298.77899169921875 299.489013671875 300.260986328125 301.21099853515625 301.8240051269531 302.5329895019531 303.0840148925781 303.48699951171875 303.3269958496094 303.3819885253906 303.5740051269531 303.760986328125 303.7590026855469 303.5840148925781 303.5140075683594 303.6400146484375 303.718994140625 -9999 -9999 -9999
-9999 -9999 -9999 -9999 -9999 -9999 -9999 -9999 -9999 -9999 -9999 -9999 -9999 -9999 -9999 -9999 305.6130065917969 306.8840026855469 307.7659912109375 307.8970031738281 308.322998046875 308.47100830078125 308.2879943847656 308.2929992675781 308.2900085449219 308.1960144042969 307.7929992675781 307.1050109863281 306.3219909667969 305.60198974609375 304.5799865722656 303.0140075683594 301.0840148925781 299.2650146484375 298.00299072265625 296.9259948730469 296.1510009765625 294.27801513671875 292.156005859375 289.7850036621094 287.5559997558594 286.0459899902344 284.51300048828125 283.2019958496094 281.6919860839844 281.05499267578125 280.2330017089844 279.6239929199219 278.7820129394531 278.1889953613281 280.2120056152344 280.864013671875 281.79998779296875 282.1719970703125 282.5769958496094 282.0409851074219 281.4309997558594 280.5159912109375 279.1830139160156 277.49700927734375 275.92401123046875 274.28399658203125 272.97698974609375 271.843994140625 269.08099365234375 268.1180114746094 267.4429931640625 266.6809997558594 265.9049987792969 264.9440002441406 264.864013671875 264.9330139160156 263.0169982910156 262.3789978027344 261.3399963378906 261.3710021972656 260.6029968261719 259.95098876953125 259.4150085449219 259.4179992675781 260.28399658203125 260.9590148925781 261.97601318359375 266.66900634765625 270.5 273.00799560546875 276.47100830078125 279.07501220703125 282.3380126953125 284.8299865722656 286.1499938964844 287.22601318359375 287.6889953613281 288.0989990234375 288.1449890136719 287.489013671875 286.7439880371094 285.885009765625 285.13299560546875 283.9020080566406 282.3290100097656 279.6600036621094 332.73394775390625 330.63397216796875 329.20794677734375 324.04595947265625 324.1569519042969 325.1039733886719 325.5549621582031 326.1669616699219 327.21197509765625 328.4509582519531 329.407958984375 329.9959716796875 330.0009765625 329.83294677734375 273.2690124511719 270.0199890136719 269.3210144042969 269.1619873046875 270.62200927734375 272.3590087890625 275.114990234375 278.97198486328125 281.89801025390625 284.385009765625 285.98699951171875 287.0270080566406 288.4119873046875 289.39801025390625 290.3909912109375 291.52801513671875 292.87701416015625 294.6940002441406 295.9549865722656 296.45098876953125 296.93701171875 297.5679931640625 298.9620056152344 299.38299560546875 300.21600341796875 300.7560119628906 301.4530029296875 301.9930114746094 302.2080078125 302.1390075683594 302.1440124511719 302.1659851074219 302.37200927734375 302.7439880371094 302.7380065917969 302.58599853515625 302.6860046386719 302.7959899902344 -9999 -9999 -9999
-9999 -9999 -9999 -9999 -9999 -9999 -9999 -9999 -9999 -9999 -9999 -9999 -9999 -9999 -9999 305.0799865722656 307.01800537109375 308.0989990234375 308.6789855957031 308.6570129394531 308.6549987792969 308.8810119628906 308.1440124511719 308.2309875488281 308.08099365234375 307.9939880371094 307.47698974609375 306.72100830078125 305.8789978027344 305.20599365234375 304.40899658203125 303.1510009765625 301.8210144042969 300.4020080566406 299.1709899902344 298.12701416015625 296.96600341796875 295.3450012207031 293.7539978027344 291.3139953613281 288.7409973144531 286.66900634765625 284.9289855957031 283.3710021972656 281.7359924316406 280.5669860839844 279.7330017089844 278.9779968261719 278.2309875488281 277.65899658203125 277.07598876953125 276.9949951171875 278.97198486328125 279.1990051269531 279.1300048828125 278.9150085449219 278.23699951171875 277.385009765625 276.41400146484375 275.0589904785156 273.6109924316406 271.37799072265625 271.1919860839844 269.6860046386719 268.7439880371094 267.5719909667969 267.5270080566406 266.9079895019531 265.6860046386719 264.62200927734375 264.7229919433594 265.1109924316406 263.64599609375 262.5450134277344 261.8609924316406 261.19500732421875 260.3299865722656 259.614990234375 258.17999267578125 259.2080078125 259.6470031738281 260.7569885253906 261.5840148925781 264.7879943847656 268.1470031738281 271.99200439453125 274.89300537109375 278.24200439453125 281.51300048828125 283.57501220703125 285.06298828125 286.16400146484375 286.8039855957031 286.88299560546875 286.90399169921875 286.4360046386719 285.7699890136719 285.09600830078125 284.4549865722656 282.8160095214844 280.9570007324219 278.35400390625 276.260986328125 274.2669982910156 271.8710021972656 323.8259582519531 323.6169738769531 323.53594970703125 323.376953125 323.4969482421875 323.8129577636719 324.69696044921875 324.6849670410156 324.8509521484375 325.6259765625 325.83795166015625 269.39599609375 268.15899658203125 267.8009948730469 268.7669982910156 270.5350036621094 272.70001220703125 275.81201171875 279.05999755859375 281.4800109863281 283.0450134277344 284.64300537109375 285.9989929199219 287.20098876953125 288.1839904785156 288.99798583984375 289.6910095214844 290.7950134277344 291.56201171875 292.8070068359375 293.49700927734375 293.9909973144531 294.7879943847656 296.33099365234375 297.9930114746094 298.8030090332031 299.24200439453125 299.69000244140625 300.12298583984375 300.552001953125 300.6400146484375 300.6940002441406 300.8219909667969 300.9200134277344 301.3500061035156 301.8550109863281 301.864990234375 301.8659973144531 302.0920104980469 -9999 -9999 -9999
-9999 -9999 -9999 -9999 -9999 -9999 -9999 -9999 -9999 -9999 -9999 -9999 -9999 -9999 -9999 306.468994140625 308.0849914550781 308.90301513671875 308.9649963378906 308.9570007324219 308.74798583984375 308.4939880371094 307.9909973144531 307.83099365234375 307.68499755859375 307.41400146484375 306.781005859375 305.98699951171875 305.2080078125 304.7550048828125 304.1029968261719 303.12200927734375 302.0880126953125 301.07000732421875 299.8819885253906 298.5589904785156 297.0849914550781 295.5589904785156 294.2799987792969 292.5150146484375 289.9590148925781 287.875 285.5710144042969 283.8110046386719 281.9100036621094 280.7409973144531 279.68701171875 278.5740051269531 277.46600341796875 276.8429870605469 276.2749938964844 275.92401123046875 275.5090026855469 275.4070129394531 276.4670104980469 276.6700134277344 275.4639892578125 273.9079895019531 272.6619873046875 272.2340087890625 271.1470031738281 270.2720031738281 269.4630126953125 268.71600341796875 267.8900146484375 267.0830078125 266.1679992675781 265.4599914550781 265.2080078125 264.5260009765625 264.6260070800781 264.9540100097656 264.8559875488281 262.7919921875 261.656005859375 260.875 260.0450134277344 259.406005859375 258.78900146484375 258.677001953125 259.2409973144531 260.4309997558594 261.2799987792969 263.01300048828125 266.7040100097656 270.9280090332031 273.44500732421875 277.9880065917969 280.3599853515625 282.3179931640625 283.7909851074219 285.20098876953125 285.75201416015625 285.9419860839844 285.8089904785156 285.46099853515625 284.85699462890625 284.12200927734375 283.35198974609375 282.16400146484375 279.37799072265625 277.2359924316406 274.21099853515625 272.65899658203125 268.7879943847656 266.2330017089844 266.4620056152344 265.47698974609375 265.54400634765625 322.63995361328125 322.10894775390625 322.5389709472656 324.3089599609375 324.6489562988281 324.83795166015625 323.219970703125 267.1659851074219 266.1390075683594 267.31500244140625 268.3970031738281 270.7030029296875 272.7770080566406 274.92498779296875 277.9729919433594 279.40301513671875 280.21600341796875 281.9169921875 284.0329895019531 285.16400146484375 286.02099609375 286.60198974609375 287.156005859375 288.12799072265625 288.9389953613281 289.7229919433594 290.5769958496094 291.0369873046875 291.9840087890625 294.0260009765625 295.7980041503906 296.7969970703125 297.31500244140625 297.55999755859375 297.97900390625 298.5159912109375 298.9259948730469 299.14599609375 299.2590026855469 299.5419921875 299.95001220703125 300.76800537109375 301.2149963378906 301.4280090332031 301.5169982910156 -9999 -9999 -9999
-9999 -9999 -9999 -9999 -9999 -9999 -9999 -9999 -9999 -9999 -9999 -9999 -9999 -9999 -9999 307.6059875488281 309 309.1390075683594 308.96099853515625 308.48699951171875 308.30999755859375 307.6390075683594 306.90899658203125 307.17498779296875 306.89801025390625 306.4490051269531 305.6700134277344 304.9360046386719 304.28900146484375 304.31298828125 303.6130065917969 303.0199890136719 302.25 301.1340026855469 299.8680114746094 298.4119873046875 296.9590148925781 295.47698974609375 294.1940002441406 292.6820068359375 290.8739929199219 288.8160095214844 286.3269958496094 284.42999267578125 282.3559875488281 280.70599365234375 279.6629943847656 278.5329895019531 277.3810119628906 276.3290100097656 275.4419860839844 274.9670104980469 274.6300048828125 274.43798828125 274.1300048828125 273.7820129394531 273.3349914550781 272.7130126953125 271.87799072265625 270.92401123046875 270.14898681640625 269.4200134277344 268.7080078125 267.8680114746094 267.302001953125 266.5350036621094 265.8689880371094 265.00299072265625 264.4469909667969 264.1499938964844 263.864013671875 264.8320007324219 263.08599853515625 261.95001220703125 261.3370056152344 260.68499755859375 260.0539855957031 259.3399963378906 258.68798828125 258.2550048828125 258.8039855957031 259.4809875488281 260.7969970703125 261.7640075683594 264.8299865722656 268.78399658203125 272.9280090332031 276.17401123046875 278.2430114746094 280.14599609375 281.8580017089844 283.572998046875 284.3909912109375 285.0660095214844 285.0159912109375 284.635009765625 283.989990234375 283.3110046386719 282.40301513671875 281.0050048828125 278.6000061035156 275.4859924316406 273.2510070800781 270.7019958496094 265.8089904785156 265.114990234375 265.1809997558594 264.864013671875 264.8949890136719 264.7200012207031 264.6440124511719 265.20098876953125 320.87896728515625 320.8669738769531 321.10595703125 320.68597412109375 265.4289855957031 266.1090087890625 267.2130126953125 268.6520080566406 270.89599609375 272.61199951171875 273.8169860839844 275.0559997558594 276.4580078125 277.72601318359375 279.2569885253906 281.07598876953125 282.2900085449219 283.58099365234375 284.468994140625 285.27301025390625 286.1619873046875 287.06201171875 287.8970031738281 289.17498779296875 289.218994140625 289.6789855957031 291.02099609375 292.6600036621094 294.57000732421875 295.5050048828125 295.71600341796875 296.20001220703125 296.7569885253906 297.2659912109375 297.6050109863281 297.86700439453125 298.4230041503906 299.1000061035156 299.5400085449219 300.9750061035156 301.1180114746094 301.1789855957031 -9999 -9999 -9999
-9999 -9999 -9999 -9999 -9999 -9999 -9999 -9999 -9999 -9999 -9999 -9999 -9999 -9999 -9999 308.3429870605469 309.0679931640625 309.05499267578125 308.5159912109375 308.05499267578125 307.2120056152344 306.0559997558594 306.260009765625 306.27099609375 305.781005859375 305.1159973144531 304.3970031738281 303.7120056152344 303.1940002441406 303.1199951171875 303.0199890136719 302.5889892578125 302.0050048828125 300.9179992675781 299.6470031738281 298.218994140625 296.72900390625 295.2330017089844 294.08099365234375 292.7510070800781 291.1440124511719 289.5589904785156 287.0589904785156 285.0299987792969 282.86199951171875 280.989990234375 279.552001953125 278.3219909667969 277.2080078125 276.0669860839844 275.114013671875 274.385009765625 273.885986328125 273.5270080566406 273.260986328125 272.95001220703125 272.5719909667969 271.8240051269531 270.9949951171875 270.1960144042969 269.3940124511719 268.51300048828125 267.6719970703125 266.8919982910156 266.3489990234375 266.0400085449219 266.0360107421875 266.23699951171875 265.8599853515625 264.6669921875 264.42401123046875 263.31201171875 262.3890075683594 261.8349914550781 261.4809875488281 260.77398681640625 260.04400634765625 259.2650146484375 258.6239929199219 258.0979919433594 258.0669860839844 258.8280029296875 260.09698486328125 261.00299072265625 262.67999267578125 266.2619934082031 269.97198486328125 273.135986328125 275.625 277.3110046386719 279.3760070800781 281.1000061035156 282.88800048828125 283.8890075683594 284.2099914550781 283.7659912109375 283.4339904785156 282.5580139160156 281.55999755859375 279.385986328125 277.302001953125 273.6669921875 271.3179931640625 267.552001953125 265.17401123046875 265.09100341796875 264.61700439453125 264.6369934082031 263.8590087890625 263.77899169921875 263.0660095214844 263.7250061035156 263.7770080566406 264.6199951171875 264.8909912109375 320.18896484375 264.8909912109375 265.9110107421875 267.010986328125 268.20001220703125 269.739990234375 271.38800048828125 272.82501220703125 274.8059997558594 275.7879943847656 275.7239990234375 276.44500732421875 277.968994140625 279.4679870605469 280.4989929199219 281.52801513671875 282.95001220703125 283.9590148925781 284.6969909667969 285.77801513671875 286.5719909667969 287.4549865722656 288.2330017089844 289.0790100097656 290.3059997558594 291.63299560546875 293.8349914550781 294.3290100097656 294.6239929199219 295.0419921875 296.0450134277344 296.8290100097656 297.4639892578125 298.0299987792969 298.6180114746094 299.1969909667969 299.97900390625 300.83099365234375 300.968994140625 301.19000244140625 -9999 -9999
-9999 -9999 -9999 -9999 -9999 -9999 -9999 -9999 -9999 -9999 -9999 -9999 -9999 -9999 -9999 308.2879943847656 308.7340087890625 308.4100036621094 307.6929931640625 307.21099853515625 306.17999267578125 305.47198486328125 305.4739990234375 305.22601318359375 304.5199890136719 303.7650146484375 302.98199462890625 302.3489990234375 302.0299987792969 302.2300109863281 302.15399169921875 301.9570007324219 301.4460144042969 300.45098876953125 299.1910095214844 297.8059997558594 296.4469909667969 294.9949951171875 293.9200134277344 292.7690124511719 291.42401123046875 289.96600341796875 287.82000732421875 285.6619873046875 283.31298828125 281.3630065917969 279.82598876953125 278.4280090332031 277.010009765625 275.6919860839844 274.85400390625 274.14599609375 273.5790100097656 273.07598876953125 272.7099914550781 272.37200927734375 271.8559875488281 271.0119934082031 270.11700439453125 269.5570068359375 268.9809875488281 268.447998046875 267.84600830078125 267.2380065917969 266.73699951171875 266.6199951171875 266.10400390625 266.2349853515625 265.95001220703125 264.6719970703125 263.635009765625 263.3599853515625 262.43701171875 261.7460021972656 261.22900390625 260.4219970703125 259.59600830078125 258.8699951171875 258.25299072265625 257.8370056152344 257.6440124511719 257.7149963378906 258.92999267578125 260.18499755859375 261.2439880371094 262.93499755859375 266.39599609375 270.44500732421875 273.0270080566406 274.62799072265625 276.7950134277344 279.1719970703125 281.2829895019531 282.5790100097656 282.9580078125 282.8349914550781 282.5849914550781 281.76800537109375 280.1520080566406 277.9750061035156 275.0710144042969 271.9739990234375 268.7040100097656 264.6719970703125 264.8080139160156 264.3689880371094 263.63800048828125 263.63299560546875 263.0929870605469 263.0799865722656 263.0799865722656 263.0799865722656 263.0799865722656 263.1180114746094 264.27301025390625 264.64898681640625 264.7200012207031 265.8609924316406 266.8559875488281 267.9419860839844 269.1730041503906 270.4849853515625 271.8190002441406 273.06500244140625 275.08599853515625 275.7460021972656 276.4079895019531 276.927001953125 277.52301025390625 278.22900390625 279.30499267578125 280.3710021972656 281.58599853515625 282.9259948730469 284.2919921875 285.4960021972656 286.4389953613281 287.35198974609375 288.31201171875 289.343994140625 290.41400146484375 291.5790100097656 292.8059997558594 293.8340148925781 294.79400634765625 295.5429992675781 296.30499267578125 296.8970031738281 297.6159973144531 298.3299865722656 298.98699951171875 299.2829895019531 300.2179870605469 301.3840026855469 301.9570007324219 -9999 -9999
-9999 -9999 -9999 -9999 -9999 -9999 -9999 -9999 -9999 -9999 -9999 -9999 -9999 -9999 -9999 307.8659973144531 307.8550109863281 307.5469970703125 306.9530029296875 305.8280029296875 305.2550048828125 304.89898681640625 304.48199462890625 303.89599609375 303.3330078125 302.6340026855469 301.9840087890625 301.4119873046875 301.08599853515625 301.2539978027344 301.23699951171875 301.177001953125 300.8139953613281 299.87701416015625 298.5979919433594 297.3179931640625 296.0660095214844 294.5690002441406 293.7030029296875 292.739013671875 291.6570129394531 290.3280029296875 288.4679870605469 286.3420104980469 284.010986328125 281.64300537109375 279.7640075683594 278.41900634765625 277.10400390625 275.9209899902344 274.864990234375 273.93499755859375 273.27099609375 272.80999755859375 272.4049987792969 272 271.58099365234375 271.1080017089844 270.3190002441406 269.635986328125 269.14898681640625 268.5710144042969 268.0769958496094 267.5090026855469 266.9360046386719 266.5989990234375 266.427001953125 266.343994140625 266.32000732421875 265.5530090332031 265.4070129394531 264.7099914550781 262.9159851074219 261.9129943847656 261.3080139160156 260.5169982910156 259.4779968261719 258.6600036621094 257.9739990234375 257.4590148925781 257.2690124511719 257.1130065917969 257.62701416015625 258.99700927734375 260.3489990234375 260.96099853515625 263.2139892578125 266.42401123046875 269.6820068359375 272.3389892578125 274.67999267578125 277.51300048828125 279.89898681640625 281.375 281.760009765625 281.92498779296875 281.4930114746094 280.572998046875 278.85101318359375 276.27398681640625 273.52801513671875 269.37799072265625 263.6080017089844 263.15399169921875 263.2139892578125 263.0979919433594 262.29901123046875 261.8940124511719 263.0799865722656 263.0799865722656 263.0799865722656 263.0799865722656 263.0799865722656 263.2770080566406 263.322998046875 264.8089904785156 264.625 265.6099853515625 266.71099853515625 267.85101318359375 269.22198486328125 270.3219909667969 271.49798583984375 272.4960021972656 273.7669982910156 275.58099365234375 276.59600830078125 276.7300109863281 277.39801025390625 278.0469970703125 278.7650146484375 279.8160095214844 281.0669860839844 282.4129943847656 283.760986328125 284.9389953613281 286.0469970703125 287.1700134277344 288.072998046875 289.0379943847656 290.1000061035156 291.2489929199219 292.2650146484375 293.2619934082031 294.2510070800781 294.9679870605469 295.8399963378906 296.0469970703125 296.8550109863281 297.8179931640625 299.9880065917969 300.60699462890625 301.2430114746094 301.76300048828125 302.3190002441406 -9999 -9999
-9999 -9999 -9999 -9999 -9999 -9999 -9999 -9999 -9999 -9999 -9999 -9999 -9999 -9999 -9999 307.01300048828125 306.7179870605469 306.4679870605469 305.9460144042969 304.32000732421875 304.3299865722656 303.4800109863281 302.968994140625 301.8009948730469 300.3840026855469 299.73699951171875 299.4670104980469 299.8689880371094 299.88299560546875 300.0840148925781 300.3489990234375 300.3909912109375 300.2720031738281 299.2080078125 297.75299072265625 296.7120056152344 295.5119934082031 294.27899169921875 293.3909912109375 292.72100830078125 291.81298828125 290.7330017089844 289.0509948730469 286.9649963378906 284.6449890136719 282.2300109863281 280.2460021972656 278.42401123046875 277.0790100097656 276.02301025390625 275.01300048828125 274.2330017089844 273.4649963378906 272.8089904785156 272.2820129394531 271.89801025390625 271.5710144042969 271.3280029296875 270.5950012207031 269.8269958496094 269.3450012207031 268.8240051269531 268.32598876953125 267.8590087890625 267.3900146484375 267.0539855957031 266.9049987792969 266.9859924316406 265.6579895019531 265.5450134277344 265.1260070800781 263.3869934082031 263.0769958496094 262.2049865722656 261.52099609375 260.56298828125 259.68798828125 258.6159973144531 257.82598876953125 257.2430114746094 256.89898681640625 256.75799560546875 256.739990234375 257.4410095214844 258.8420104980469 259.98199462890625 261.0260009765625 263.2749938964844 266.4360046386719 270.0350036621094 273.5669860839844 276.2439880371094 279.125 280.4519958496094 280.9159851074219 280.8810119628906 280.2569885253906 278.8389892578125 276.8269958496094 273.8429870605469 270.531005859375 265.40399169921875 262.0559997558594 261.7279968261719 261.6759948730469 261.5010070800781 261.9700012207031 261.6600036621094 261.718994140625 263.0580139160156 263.0799865722656 263.0799865722656 263.0799865722656 263.2699890136719 263.52398681640625 263.9320068359375 265.406005859375 265.75799560546875 266.9649963378906 267.97900390625 269.02398681640625 270.3070068359375 271.2489929199219 272.61199951171875 274.0509948730469 274.95001220703125 276.4410095214844 276.9110107421875 277.70001220703125 278.0039978027344 278.77099609375 279.6780090332031 280.9909973144531 282.2869873046875 283.55499267578125 284.72198486328125 285.8699951171875 286.9049987792969 287.8590087890625 288.7229919433594 289.9779968261719 290.2569885253906 291.3940124511719 292.385009765625 293.3590087890625 295.385009765625 297.3290100097656 298.13299560546875 298.9830017089844 299.8450012207031 300.58099365234375 301.1369934082031 301.6470031738281 302.3179931640625 302.9849853515625 -9999 -9999
-9999 -9999 -9999 -9999 -9999 -9999 -9999 -9999 -9999 -9999 -9999 -9999 -9999 -9999 -9999 305.1109924316406 305.34100341796875 305.1719970703125 304.3789978027344 304.1090087890625 303.60198974609375 302.7820129394531 299.9100036621094 298.6159973144531 296.69000244140625 295.7619934082031 295.60101318359375 295.39300537109375 296.8139953613281 297.2330017089844 298.9739990234375 299.52899169921875 299.8009948730469 298.9729919433594 297.3479919433594 296.0379943847656 295.12799072265625 293.96600341796875 293.14300537109375 292.4830017089844 291.7229919433594 290.9150085449219 289.4049987792969 287.52398681640625 285.25799560546875 282.739013671875 280.75 279.02899169921875 277.4840087890625 276.09698486328125 275.18701171875 274.50299072265625 273.8479919433594 273.3080139160156 272.84600830078125 272.4729919433594 272.10699462890625 271.8320007324219 271.3550109863281 270.6969909667969 270.12799072265625 269.6470031738281 269.09600830078125 268.5669860839844 268.2439880371094 267.9739990234375 268.0660095214844 268.197998046875 268.34600830078125 267.78399658203125 266.1369934082031 263.7409973144531 263.3169860839844 262.85699462890625 261.9739990234375 260.86199951171875 259.85400390625 258.77099609375 257.8240051269531 257.0589904785156 256.66400146484375 256.385009765625 256.3070068359375 256.625 257.4939880371094 258.760009765625 260.1629943847656 261.3280029296875 263.85699462890625 267.1419982910156 271.052001953125 273.60198974609375 277.3479919433594 279.22698974609375 279.95599365234375 279.7200012207031 278.40301513671875 277.0199890136719 274.114990234375 271.21099853515625 265.7829895019531 261.6199951171875 261.4320068359375 261.4599914550781 261.1700134277344 260.92999267578125 260.8429870605469 260.843994140625 260.9809875488281 261.7149963378906 263.04901123046875 263.0799865722656 263.0799865722656 263.0799865722656 263.24798583984375 264.32598876953125 265.7909851074219 266.37799072265625 267.5679931640625 268.6830139160156 269.7760009765625 270.93499755859375 272.5989990234375 273.3489990234375 274.39801025390625 274.9200134277344 275.76300048828125 276.97698974609375 278.1199951171875 278.96600341796875 278.875 279.7040100097656 280.9289855957031 282.35400390625 283.84100341796875 285.4960021972656 286.3630065917969 287.04400634765625 287.9339904785156 289.8340148925781 291.7799987792969 293.0539855957031 294.0710144042969 295.0589904785156 295.947998046875 296.8819885253906 297.8900146484375 298.76300048828125 299.5169982910156 300.2869873046875 301.03399658203125 301.72601318359375 302.3890075683594 303.0539855957031 303.7139892578125 -9999 -9999
-9999 -9999 -9999 -9999 -9999 -9999 -9999 -9999 -9999 -9999 -9999 -9999 -9999 -9999 303.2279968261719 303.5849914550781 304.06201171875 304.30999755859375 303.8370056152344 303.9549865722656 303.114990234375 301.7760009765625 298.58599853515625 293.8590087890625 293.7380065917969 292.5790100097656 292.03900146484375 292.8330078125 293.697998046875 295.39300537109375 296.4079895019531 297.37799072265625 298.2770080566406 296.7950134277344 296.5799865722656 295.3269958496094 294.427001953125 293.2699890136719 292.7019958496094 292.05999755859375 291.406005859375 290.80999755859375 289.5140075683594 287.8900146484375 285.822998046875 283.5260009765625 281.7460021972656 279.88800048828125 278.2669982910156 276.968994140625 275.89599609375 275.0679931640625 274.4419860839844 273.8529968261719 273.6369934082031 273.49200439453125 273.4570007324219 273.4700012207031 273.4570007324219 273.34600830078125 272.8299865722656 271.61199951171875 270.45001220703125 269.7139892578125 269.2229919433594 269.0799865722656 269.1099853515625 269.2200012207031 269.1730041503906 268.74200439453125 267.36700439453125 264.9809875488281 263.2409973144531 262.9159851074219 262.5480041503906 262.49798583984375 260.0360107421875 259.114013671875 257.88299560546875 256.63299560546875 256.3330078125 256.0799865722656 255.46800231933594 255.85499572753906 256.5419921875 257.614013671875 259.07598876953125 260.7139892578125 262.0169982910156 264.6700134277344 268.2179870605469 272.5660095214844 274.5249938964844 276.90399169921875 277.9949951171875 278.0190124511719 276.4840087890625 274.35400390625 271.6549987792969 267.19000244140625 261.4599914550781 260.4419860839844 261.0069885253906 260.9949951171875 260.81298828125 260.09100341796875 260.1109924316406 260.0920104980469 260.8599853515625 261.0419921875 262.8080139160156 263.0799865722656 263.0799865722656 263.0799865722656 263.3699951171875 265.375 265.843994140625 266.5050048828125 268.30499267578125 269.33599853515625 270.99700927734375 272.19500732421875 272.7690124511719 273.5769958496094 274.64801025390625 275.5140075683594 276.45098876953125 277.260986328125 278.6180114746094 280.0610046386719 281.1470031738281 281.5260009765625 284.76800537109375 284.7640075683594 285.385986328125 287.4840087890625 289.6570129394531 290.29901123046875 291.10198974609375 292.01800537109375 292.885009765625 293.8139953613281 294.8299865722656 295.8290100097656 296.7130126953125 297.58599853515625 298.5249938964844 299.4259948730469 300.3450012207031 301.17401123046875 301.9630126953125 302.7139892578125 303.32598876953125 303.89599609375 304.5469970703125 -9999 -9999
-9999 -9999 -9999 -9999 -9999 -9999 -9999 -9999 -9999 -9999 -9999 -9999 -9999 -9999 301.375 302.0199890136719 302.6940002441406 303.27301025390625 303.1549987792969 303.07501220703125 302.5090026855469 301.02899169921875 296.75299072265625 292.7340087890625 290.87799072265625 290.3489990234375 289.16900634765625 290.6659851074219 291.1340026855469 293.02899169921875 293.4330139160156 294.4389953613281 296.06500244140625 296.4230041503906 295.8500061035156 293.9330139160156 293.2239990234375 292.7170104980469 292.0820007324219 291.45001220703125 290.80999755859375 290.3039855957031 289.1889953613281 287.8909912109375 285.9649963378906 284.49798583984375 282.87298583984375 281.2850036621094 280.0899963378906 278.3039855957031 276.9800109863281 276.3479919433594 276.01300048828125 275.7919921875 275.7669982910156 275.9020080566406 276.1419982910156 275.54901123046875 275.2330017089844 275.5589904785156 274.7130126953125 273.56298828125 271.72900390625 270.8030090332031 270.2179870605469 269.9750061035156 269.9949951171875 270.0369873046875 269.9110107421875 269.50299072265625 268.7439880371094 266.4389953613281 263.052001953125 262.92498779296875 262.6570129394531 262.5950012207031 262.0199890136719 259.4070129394531 259.0690002441406 259.0660095214844 256.22601318359375 255.81399536132812 255.76199340820312 255.67300415039062 255.64500427246094 256.55999755859375 257.7879943847656 259.5429992675781 261.2090148925781 262.22900390625 265.9639892578125 269.15899658203125 272.031005859375 273.4849853515625 274.94000244140625 274.8330078125 274.218994140625 272.1390075683594 268.04901123046875 262.50201416015625 259.16400146484375 259.1839904785156 260.1610107421875 260.74700927734375 260.1780090332031 260.1199951171875 260.1199951171875 260.1199951171875 260.39599609375 260.9320068359375 261.0979919433594 263.2330017089844 263.0799865722656 263.0799865722656 264.39599609375 265.5329895019531 267.9079895019531 270.2080078125 271.0060119628906 271.8039855957031 272.7149963378906 273.69500732421875 274.8330078125 275.7980041503906 276.8599853515625 277.82598876953125 278.656005859375 279.6300048828125 280.51300048828125 282.0530090332031 283.2139892578125 283.6919860839844 284.510009765625 287.99798583984375 288.8389892578125 289.4360046386719 290.156005859375 290.9309997558594 291.8039855957031 292.5950012207031 293.6549987792969 294.5610046386719 295.6820068359375 296.7829895019531 297.8219909667969 298.8080139160156 299.7919921875 300.6650085449219 301.5740051269531 302.3609924316406 303.0799865722656 303.77301025390625 304.35101318359375 304.7749938964844 305.28399658203125 -9999 -9999
-9999 -9999 -9999 -9999 -9999 -9999 -9999 -9999 -9999 -9999 -9999 -9999 -9999 298.322998046875 299.33099365234375 300.2179870605469 301.2980041503906 302.17498779296875 302.4320068359375 302.9070129394531 302.1319885253906 300.8330078125 296.1650085449219 292.468994140625 290.59100341796875 288.864013671875 288.03900146484375 287.89898681640625 289.322998046875 290.635986328125 291.7179870605469 292.739013671875 293.0880126953125 294.281005859375 293.8819885253906 293.1659851074219 292.3890075683594 291.7380065917969 291.3330078125 290.7349853515625 290.1709899902344 289.72900390625 288.6340026855469 287.6130065917969 286.0329895019531 285.3210144042969 283.9930114746094 283.0199890136719 281.5880126953125 280.3219909667969 279.49200439453125 278.85400390625 277.8110046386719 277.7869873046875 277.9100036621094 278.2460021972656 278.7080078125 279.09600830078125 279.1709899902344 278.77899169921875 277.3080139160156 275.4129943847656 273.7099914550781 272.0799865722656 271.3009948730469 270.9330139160156 270.7869873046875 270.7200012207031 270.4620056152344 270.0060119628906 269.16900634765625 267.7879943847656 263.1809997558594 262.9070129394531 262.6889953613281 262.31500244140625 262.1910095214844 259.5719909667969 259.4549865722656 259.27099609375 256.7640075683594 255.6009979248047 255.38699340820312 255.5189971923828 255.29299926757812 255.64199829101562 256.57000732421875 257.91400146484375 259.697998046875 260.9750061035156 262.2919921875 265.8219909667969 268.7330017089844 270.8940124511719 272.22100830078125 272.78399658203125 271.3420104980469 268.0580139160156 263.82598876953125 259.0530090332031 258.5899963378906 258.6189880371094 258.4800109863281 260.7130126953125 260.1199951171875 260.1199951171875 260.1199951171875 260.1199951171875 260.2550048828125 260.8399963378906 260.96600341796875 261.3550109863281 263.3580017089844 264.3630065917969 267.2030029296875 269.3299865722656 270.3280029296875 271.7449951171875 272.95098876953125 273.85198974609375 274.7650146484375 275.5530090332031 276.49798583984375 277.5840148925781 278.6730041503906 279.6289978027344 280.56500244140625 281.30499267578125 281.9280090332031 282.3590087890625 284.531005859375 286.0419921875 285.5610046386719 288.3869934082031 289.1340026855469 289.8609924316406 290.80499267578125 291.6600036621094 292.64599609375 293.6369934082031 294.66400146484375 295.69000244140625 296.8450012207031 298.03399658203125 299.2279968261719 300.197998046875 301.2090148925781 302.010009765625 302.8680114746094 303.6210021972656 304.2799987792969 304.77899169921875 305.2869873046875 305.63800048828125 305.9840087890625 -9999 -9999
-9999 -9999 -9999 -9999 -9999 -9999 -9999 -9999 -9999 -9999 -9999 -9999 -9999 295.9599914550781 297.3059997558594 298.64599609375 300 301.2510070800781 301.677001953125 302.7760009765625 301.7349853515625 299.9880065917969 295.5459899902344 291.81201171875 288.97900390625 287.9840087890625 286.8760070800781 286.57598876953125 287.0799865722656 288.46600341796875 289.9599914550781 290.8450012207031 291.3699951171875 292.031005859375 291.5140075683594 290.864013671875 290.1449890136719 289.92999267578125 290.0669860839844 290.1520080566406 289.5740051269531 288.7170104980469 288.2720031738281 287.3080139160156 286.35400390625 285.78399658203125 284.989013671875 284.1340026855469 283.3399963378906 282.4909973144531 281.8760070800781 280.85400390625 280.8110046386719 280.9469909667969 281.3110046386719 280.72198486328125 281.22601318359375 281.6499938964844 281.5069885253906 281.02099609375 278.99700927734375 277.00201416015625 275.2770080566406 273.29901123046875 272.43798828125 271.9200134277344 271.5849914550781 271.3529968261719 270.9070129394531 270.3370056152344 269.4620056152344 268.1700134277344 266.3819885253906 263.1809997558594 262.6600036621094 261.9630126953125 261.9729919433594 259.6400146484375 259.53399658203125 259.2019958496094 258.27899169921875 255.4929962158203 255.14700317382812 255.1199951171875 254.8939971923828 254.97300720214844 255.44900512695312 256.3399963378906 257.6600036621094 259.28399658203125 260.3840026855469 262.3609924316406 265.625 268.1730041503906 269.6910095214844 268.3689880371094 266.552001953125 264.35400390625 258.4419860839844 258.39300537109375 258.4179992675781 258.29901123046875 258.3280029296875 259.1860046386719 260.4010009765625 260.1199951171875 260.1199951171875 260.1199951171875 260.7409973144531 260.97601318359375 261.16400146484375 261.5710144042969 263.68499755859375 267.04901123046875 268.4540100097656 269.96099853515625 271.7179870605469 272.97601318359375 274.1369934082031 274.82501220703125 275.61199951171875 276.4219970703125 277.2409973144531 278.1180114746094 279.1300048828125 279.7619934082031 279.6319885253906 280.3240051269531 282.1809997558594 283.83599853515625 285.4519958496094 286.2569885253906 287.3599853515625 288.9460144042969 289.7179870605469 290.6499938964844 291.6789855957031 292.80499267578125 293.8190002441406 294.9079895019531 296.010009765625 296.97198486328125 298.1199951171875 299.3689880371094 300.64300537109375 301.6719970703125 302.5450134277344 303.36700439453125 304.04901123046875 304.77301025390625 305.32000732421875 305.7650146484375 306.11199951171875 306.4410095214844 306.67498779296875 -9999 -9999
-9999 -9999 -9999 -9999 -9999 -9999 -9999 -9999 -9999 -9999 -9999 -9999 293.74700927734375 294.09100341796875 295.66900634765625 297.05999755859375 298.6910095214844 300.33099365234375 301.0920104980469 302.4410095214844 301.40399169921875 299.1499938964844 295.2650146484375 291.62200927734375 288.2690124511719 286.79400634765625 285.8900146484375 285.65301513671875 285.1719970703125 285.9649963378906 287.5679931640625 288.8840026855469 289.20098876953125 289.1650085449219 288.9960021972656 288.5610046386719 287.92999267578125 287.9230041503906 288.1700134277344 288.4519958496094 288.3009948730469 287.8110046386719 287.5140075683594 287.2650146484375 286.7749938964844 286.1090087890625 285.46600341796875 285.135009765625 284.7139892578125 283.8630065917969 283.2820129394531 283.0780029296875 283.5039978027344 283.37701416015625 283.302001953125 283.6499938964844 283.7959899902344 283.656005859375 283.1860046386719 282.3919982910156 281.0119934082031 279.0669860839844 276.64300537109375 274.9179992675781 273.5140075683594 272.7850036621094 272.3909912109375 272.010986328125 271.4159851074219 270.5790100097656 269.55499267578125 268.27398681640625 266.885986328125 263.45599365234375 262.614990234375 262.0360107421875 261.9949951171875 262.0580139160156 259.6300048828125 258.18701171875 256.1709899902344 255.4199981689453 254.98599243164062 254.87899780273438 254.89599609375 254.86000061035156 254.58900451660156 254.9969940185547 255.83099365234375 257.1400146484375 258.593994140625 259.6189880371094 260.34698486328125 262.64801025390625 264.05999755859375 262.4330139160156 261.5360107421875 259.7149963378906 257.8810119628906 257.65399169921875 257.76800537109375 257.95098876953125 258.11199951171875 257.9020080566406 260.5140075683594 260.4429931640625 260.25799560546875 260.6579895019531 260.82598876953125 261.10400390625 261.4989929199219 263.48199462890625 265.48699951171875 266.9700012207031 268.010986328125 270.4020080566406 272.3110046386719 273.3110046386719 274.0069885253906 275.0150146484375 275.7149963378906 276.4460144042969 276.3179931640625 276.25201416015625 276.82000732421875 280.08099365234375 280.9620056152344 281.6600036621094 282.17401123046875 284.0719909667969 285.2640075683594 286.2869873046875 287.6600036621094 288.9549865722656 290.4169921875 291.6610107421875 292.72100830078125 293.9360046386719 295.0580139160156 296.1730041503906 297.3110046386719 298.35699462890625 299.4330139160156 300.7229919433594 301.89599609375 302.9949951171875 303.7539978027344 304.4649963378906 305.0150146484375 305.677001953125 306.1929931640625 306.5790100097656 306.84698486328125 307.125 307.2449951171875 -9999 -9999
-9999 -9999 -9999 -9999 -9999 -9999 -9999 -9999 -9999 -9999 -9999 -9999 291.8970031738281 292.5249938964844 294.2829895019531 295.7149963378906 297.8370056152344 299.8059997558594 300.6409912109375 301.9580078125 300.8340148925781 299.7550048828125 295.8080139160156 292.07598876953125 288.4339904785156 285.9700012207031 285.13299560546875 284.5669860839844 284.34600830078125 284.0480041503906 284.9169921875 286.3009948730469 286.57000732421875 286.2590026855469 286.2860107421875 286.06298828125 285.72900390625 285.8500061035156 286.2669982910156 286.51300048828125 286.614990234375 286.4739990234375 286.2879943847656 286.385986328125 286.6130065917969 286.3949890136719 285.97198486328125 285.5270080566406 285.0580139160156 284.7279968261719 284.385986328125 284.29901123046875 284.30499267578125 284.5429992675781 284.510009765625 284.9049987792969 284.5320129394531 284.2879943847656 283.77899169921875 282.9419860839844 281.5669860839844 279.8269958496094 277.74700927734375 276.12701416015625 274.52398681640625 273.7820129394531 273.1669921875 272.6449890136719 271.9330139160156 270.94000244140625 269.7619934082031 268.35198974609375 266.7539978027344 264.87701416015625 262.96600341796875 262.0419921875 261.3760070800781 260.74200439453125 259.98699951171875 258.2909851074219 256.6940002441406 255.5290069580078 254.96099853515625 254.70599365234375 254.5919952392578 254.63499450683594 254.47500610351562 254.32899475097656 254.66799926757812 255.35400390625 256.3599853515625 257.3450012207031 258.29400634765625 259.1159973144531 259.5469970703125 259.5469970703125 259.0419921875 258.4010009765625 257.3800048828125 257.1960144042969 257.3609924316406 257.8370056152344 257.2969970703125 257.22100830078125 258.7139892578125 260.614013671875 260.7200012207031 260.885009765625 261.1940002441406 261.343994140625 262.8630065917969 265.1809997558594 265.8210144042969 266.46600341796875 267.79901123046875 269.3330078125 270.66400146484375 272.56298828125 273.385009765625 272.61199951171875 273.09698486328125 274.2510070800781 276.6319885253906 277.5799865722656 278.635009765625 279.54400634765625 280.36199951171875 280.7239990234375 281.84698486328125 283.4519958496094 285.04901123046875 286.6080017089844 287.7430114746094 289.406005859375 291.45599365234375 292.6059875488281 293.95599365234375 295.0989990234375 296.2640075683594 297.4110107421875 298.49700927734375 299.64300537109375 300.7070007324219 301.89599609375 303.0539855957031 304.0589904785156 304.7080078125 305.3240051269531 305.9440002441406 306.4570007324219 306.8949890136719 307.260009765625 307.52301025390625 307.7070007324219 307.78900146484375 -9999 -9999
-9999 -9999 -9999 -9999 -9999 -9999 -9999 -9999 -9999 -9999 -9999 -9999 290.45599365234375 291.5679931640625 293.2120056152344 295.3330078125 297.4110107421875 299.6289978027344 300.1549987792969 301.0950012207031 300.4800109863281 299.65399169921875 296.9460144042969 292.85699462890625 289.16900634765625 285.56500244140625 284.2120056152344 283.87799072265625 283.37799072265625 283.2909851074219 282.9280090332031 283.3380126953125 283.78399658203125 283.60101318359375 283.3489990234375 283.5329895019531 283.4289855957031 283.5419921875 284.01800537109375 284.5539855957031 285.0190124511719 285.1919860839844 285.2919921875 285.31201171875 285.56298828125 285.5740051269531 285.6759948730469 285.77099609375 285.5069885253906 284.8890075683594 284.760986328125 284.7309875488281 284.7550048828125 284.7669982910156 285.1470031738281 285.17401123046875 284.6159973144531 284.6789855957031 283.97198486328125 283.1990051269531 282.0469970703125 280.40899658203125 279.0950012207031 277.3349914550781 275.88800048828125 274.7239990234375 274.0429992675781 273.4079895019531 272.50299072265625 271.38800048828125 269.9830017089844 268.6820068359375 266.87701416015625 265.2969970703125 263.6919860839844 262.2380065917969 260.97900390625 260.7250061035156 260.2460021972656 259.2959899902344 257.9119873046875 255.87399291992188 255.1999969482422 254.63800048828125 254.4720001220703 254.39999389648438 254.427001953125 254.1750030517578 254.1540069580078 254.13699340820312 254.41299438476562 255.0800018310547 255.96099853515625 257.4840087890625 257.6470031738281 258.3760070800781 257.5150146484375 257.1310119628906 256.7690124511719 256.8479919433594 257.00799560546875 257.35101318359375 257.22100830078125 257.3450012207031 258.3160095214844 260.760009765625 260.90399169921875 261.05499267578125 261.2359924316406 262.62298583984375 264.7560119628906 265.5710144042969 265.9469909667969 266.6820068359375 267.29901123046875 268.3139953613281 268.5169982910156 269.5220031738281 270.5220031738281 273.0010070800781 274.01800537109375 274.77398681640625 275.6960144042969 276.71600341796875 277.8789978027344 278.7030029296875 279.5329895019531 281.614990234375 281.52899169921875 283.59698486328125 285.3489990234375 286.7179870605469 288.3999938964844 290.5950012207031 292.62200927734375 293.74200439453125 295.2250061035156 296.2909851074219 297.5090026855469 298.47601318359375 299.6059875488281 300.65899658203125 301.7929992675781 302.8970031738281 303.9939880371094 304.86700439453125 305.5580139160156 306.0419921875 306.61700439453125 307.0820007324219 307.4849853515625 307.7900085449219 307.97198486328125 308.125 308.18798828125 -9999 -9999
-9999 -9999 -9999 -9999 -9999 -9999 -9999 -9999 -9999 -9999 -9999 288.3169860839844 289.3710021972656 291.1000061035156 292.6470031738281 294.635009765625 296.9800109863281 299.3630065917969 299.8380126953125 300.4570007324219 300.09698486328125 299.23199462890625 298.0159912109375 293.885009765625 289.9209899902344 286.19500732421875 283.7460021972656 282.8689880371094 282.68499755859375 282.4339904785156 282.072998046875 281.5840148925781 281.0669860839844 280.9179992675781 280.74200439453125 280.49200439453125 280.59100341796875 280.7690124511719 281.1889953613281 281.7590026855469 282.9580078125 283.9649963378906 284.3389892578125 284.6650085449219 284.8840026855469 284.8609924316406 284.8299865722656 284.8500061035156 284.98699951171875 285.2770080566406 285.20001220703125 285.14599609375 284.9209899902344 284.875 284.8070068359375 284.87799072265625 284.6910095214844 284.57000732421875 284.125 283.4570007324219 282.47698974609375 281.1549987792969 279.68798828125 278.31298828125 277.0780029296875 275.72601318359375 274.8819885253906 274.0799865722656 273.0710144042969 271.77398681640625 270.29998779296875 268.8219909667969 267.3450012207031 265.8869934082031 264.3429870605469 262.63299560546875 260.8789978027344 260.1470031738281 259.8349914550781 259.02899169921875 257.8280029296875 256.85101318359375 255.50399780273438 254.8280029296875 254.44400024414062 254.26199340820312 254.2030029296875 254.14700317382812 253.9600067138672 253.927001953125 253.843994140625 253.98399353027344 254.9290008544922 255.0030059814453 255.39999389648438 255.4709930419922 255.2969970703125 255.96499633789062 256.281005859375 256.4159851074219 256.48199462890625 257.0849914550781 257.22100830078125 258.2279968261719 258.9800109863281 260.02301025390625 260.9490051269531 261.21600341796875 262.6050109863281 263.3330078125 264.3869934082031 264.4809875488281 264.87298583984375 265.5610046386719 266.8489990234375 268.1260070800781 269.0979919433594 270.2250061035156 271.1189880371094 272.0299987792969 272.98699951171875 273.8590087890625 274.864013671875 275.9700012207031 277.1549987792969 277.9410095214844 279.1820068359375 281.0799865722656 281.84698486328125 284.02899169921875 285.5249938964844 287.0830078125 289.0929870605469 291.4949951171875 293.239013671875 295.21600341796875 296.47100830078125 297.4590148925781 298.5270080566406 299.6059875488281 300.60400390625 301.6650085449219 302.7569885253906 303.8160095214844 304.7409973144531 305.5140075683594 306.16400146484375 306.63299560546875 307.0979919433594 307.5559997558594 307.85198974609375 308.1409912109375 308.2909851074219 308.37701416015625 308.4219970703125 308.37298583984375 -9999
-9999 -9999 -9999 -9999 -9999 -9999 -9999 -9999 -9999 -9999 -9999 287.35101318359375 288.64599609375 290.260009765625 291.9179992675781 293.9840087890625 296.6610107421875 298.97601318359375 299.4960021972656 300.0820007324219 299.7860107421875 298.8219909667969 297.50201416015625 294.77801513671875 290.7130126953125 287.05499267578125 284.1929931640625 282.6510009765625 281.7250061035156 281.56201171875 281.2659912109375 280.9289855957031 280.59600830078125 279.6369934082031 279.114013671875 278.63800048828125 278.3919982910156 278.23699951171875 278.8169860839844 279.5690002441406 280.1440124511719 281.906005859375 282.885009765625 283.56500244140625 283.8739929199219 284.2380065917969 284.4859924316406 284.44000244140625 284.52398681640625 284.6310119628906 284.75201416015625 284.8080139160156 284.91900634765625 285.07598876953125 284.9779968261719 284.97100830078125 284.9289855957031 284.6109924316406 284.3909912109375 283.6809997558594 282.8290100097656 281.656005859375 280.3970031738281 279.1759948730469 277.9700012207031 276.7799987792969 275.61700439453125 274.6610107421875 273.54901123046875 272.25799560546875 270.7359924316406 269.1730041503906 267.8160095214844 266.30499267578125 265.1289978027344 263.67498779296875 260.87799072265625 260.3190002441406 259.4809875488281 259.2030029296875 258.8219909667969 257.8399963378906 256.0459899902344 255.07000732421875 254.49400329589844 254.21600341796875 254.05299377441406 254.04299926757812 253.7050018310547 253.4759979248047 253.42100524902344 253.35800170898438 254.0030059814453 254.7220001220703 254.50999450683594 254.68899536132812 254.76100158691406 255.15199279785156 255.99000549316406 256.0929870605469 256.6499938964844 257.3869934082031 257.7229919433594 258.63299560546875 259.5150146484375 260.1449890136719 260.5950012207031 263.1969909667969 264.78900146484375 265.3349914550781 265.59600830078125 265.80999755859375 266.12799072265625 266.510009765625 267.2120056152344 267.9750061035156 268.7919921875 269.5580139160156 270.7080078125 271.5610046386719 272.489013671875 273.5589904785156 274.64599609375 275.6619873046875 276.468994140625 277.7980041503906 278.9389953613281 280.38299560546875 282.1730041503906 284.0419921875 285.7569885253906 287.5880126953125 289.7749938964844 292.2200012207031 294.54400634765625 296.8210144042969 297.5830078125 298.5270080566406 299.4949951171875 300.64801025390625 301.61199951171875 302.5060119628906 303.5169982910156 304.5069885253906 305.2929992675781 305.97601318359375 306.52398681640625 307.0559997558594 307.43499755859375 307.8590087890625 308.10101318359375 308.2950134277344 308.40399169921875 308.43499755859375 308.50201416015625 308.4339904785156 -9999
-9999 -9999 -9999 -9999 -9999 -9999 -9999 -9999 -9999 -9999 285.2359924316406 286.6390075683594 287.9490051269531 289.4410095214844 291.2309875488281 293.4700012207031 295.9989929199219 298.3070068359375 299.0690002441406 299.69500732421875 299.38299560546875 298.552001953125 297.10699462890625 295.6759948730469 292.0150146484375 288.50201416015625 285.2869873046875 282.6730041503906 281.62298583984375 280.9200134277344 280.5419921875 280.0119934082031 279.66900634765625 279.29998779296875 278.6940002441406 278.19000244140625 277.8550109863281 277.5820007324219 277.44000244140625 277.3190002441406 277.3630065917969 278.3840026855469 279.27801513671875 280.17498779296875 281.4119873046875 282.4620056152344 283.4230041503906 283.9129943847656 284.14300537109375 284.3819885253906 284.60400390625 284.72698974609375 284.718994140625 285.23199462890625 284.760986328125 284.718994140625 284.67999267578125 284.49200439453125 284.2699890136719 283.74700927734375 283.2430114746094 282.0530090332031 280.8450012207031 279.7460021972656 278.6969909667969 277.6199951171875 276.3420104980469 275.2659912109375 274.0740051269531 272.6940002441406 271.1400146484375 269.6610107421875 268.2409973144531 266.9100036621094 266.0369873046875 264.0710144042969 263.5090026855469 260.635009765625 259.1189880371094 259.281005859375 258.9320068359375 257.75201416015625 256.71099853515625 255.32400512695312 254.7949981689453 254.11399841308594 253.8280029296875 253.60699462890625 253.6909942626953 253.33799743652344 252.94400024414062 253.3560028076172 253.2030029296875 253.30299377441406 253.6020050048828 253.89500427246094 254.18899536132812 254.79100036621094 255.5290069580078 255.41099548339844 256.2640075683594 256.7139892578125 257.6510009765625 258.4490051269531 262.0069885253906 263.05499267578125 264.1210021972656 265.1889953613281 266.0509948730469 266.51800537109375 266.5780029296875 266.51300048828125 266.6090087890625 266.7669982910156 267.49798583984375 268.1520080566406 268.8269958496094 269.7550048828125 270.7430114746094 271.90301513671875 272.7669982910156 273.64801025390625 274.73199462890625 275.6340026855469 276.7980041503906 278.3389892578125 279.65301513671875 280.6180114746094 282.4549865722656 284.3529968261719 286.31500244140625 288.2349853515625 290.4119873046875 292.9599914550781 295.489990234375 296.95001220703125 298.34600830078125 299.5050048828125 300.4490051269531 301.4540100097656 302.4169921875 303.22601318359375 304.1549987792969 305.0570068359375 305.7049865722656 306.22698974609375 306.76300048828125 307.2650146484375 307.62701416015625 307.89599609375 308.1390075683594 308.260986328125 308.3760070800781 308.3559875488281 308.3370056152344 308.29998779296875 -9999
-9999 -9999 -9999 -9999 -9999 -9999 -9999 -9999 -9999 -9999 284.5799865722656 286.114990234375 287.4280090332031 289.00201416015625 291.0639953613281 293.0469970703125 295.29400634765625 297.635986328125 299.0639953613281 299.5090026855469 299.0559997558594 298.364990234375 296.9739990234375 295.3330078125 293.5360107421875 289.6050109863281 286.5849914550781 283.8580017089844 282.0409851074219 280.864013671875 280.3580017089844 279.8139953613281 279.24200439453125 278.8869934082031 278.260986328125 277.8529968261719 277.4930114746094 277.125 276.8210144042969 276.5740051269531 276.4599914550781 276.4330139160156 276.5480041503906 277.40899658203125 278.15399169921875 278.989013671875 279.85101318359375 281.56298828125 282.62701416015625 283.3970031738281 284.1400146484375 284.47698974609375 284.58599853515625 284.343994140625 284.8380126953125 284.6600036621094 284.552001953125 284.510009765625 284.3699951171875 284.1600036621094 283.3190002441406 281.989013671875 281.10400390625 280.1510009765625 279.2179870605469 278.24200439453125 277.1549987792969 275.7959899902344 274.5419921875 273.1180114746094 271.6789855957031 270.1610107421875 268.7099914550781 267.5360107421875 266.2510070800781 264.67401123046875 264.0450134277344 262.32000732421875 260.8340148925781 259.6709899902344 259.614013671875 258.5329895019531 257.65399169921875 255.968994140625 255.1009979248047 254.23399353027344 253.63299560546875 253.39300537109375 253.46200561523438 253.27200317382812 253.11399841308594 253.1060028076172 252.96499633789062 253.12600708007812 253.3300018310547 253.52499389648438 253.96400451660156 254.64199829101562 255.32200622558594 255.81900024414062 256.0820007324219 257.99798583984375 259.7300109863281 261.4540100097656 262.9639892578125 264.281005859375 265.4209899902344 267.57501220703125 268.96099853515625 268.03399658203125 268.0580139160156 267.73199462890625 267.4339904785156 267.7919921875 268.322998046875 268.71600341796875 269.40301513671875 270.364990234375 271.33599853515625 272.1809997558594 273.12200927734375 274.1029968261719 275.07000732421875 276.1199951171875 277.3349914550781 278.6029968261719 279.72100830078125 281.510009765625 283.36700439453125 285.3389892578125 287.4309997558594 289.4200134277344 291.4339904785156 293.6969909667969 296.06298828125 297.2799987792969 299.28900146484375 300.28399658203125 301.4670104980469 302.2539978027344 303.135986328125 303.87799072265625 304.62298583984375 305.39801025390625 305.9679870605469 306.39801025390625 306.8179931640625 307.22900390625 307.5899963378906 307.81500244140625 307.9849853515625 308.0979919433594 308.1570129394531 308.11700439453125 308.0190124511719 307.9259948730469 -9999
-9999 -9999 -9999 -9999 -9999 -9999 -9999 -9999 -9999 282.864013671875 284.3380126953125 286.00201416015625 287.5639953613281 289.5119934082031 291.2969970703125 293.20098876953125 295.2539978027344 297.3500061035156 299.4219970703125 299.25 298.55499267578125 298.09600830078125 297.010986328125 295.5060119628906 293.6520080566406 291.1260070800781 287.968994140625 285.25799560546875 282.9639892578125 281.5260009765625 280.77301025390625 279.7950134277344 279.2510070800781 279.3389892578125 278.1289978027344 277.5690002441406 277.2229919433594 276.8210144042969 276.47900390625 276.14898681640625 275.8819885253906 275.7149963378906 275.6619873046875 275.6400146484375 275.74798583984375 275.8590087890625 276.7619934082031 277.45001220703125 279.2909851074219 280.9179992675781 282.6650085449219 283.8070068359375 284.56298828125 284.44000244140625 284.5480041503906 284.43701171875 284.4309997558594 284.4219970703125 284.2560119628906 284.1629943847656 283.5400085449219 282.97900390625 282.04998779296875 280.9419860839844 279.2099914550781 278.32000732421875 277.7850036621094 276.2720031738281 274.9179992675781 273.52801513671875 272.10101318359375 270.6260070800781 269.18798828125 267.97100830078125 266.5979919433594 265.27899169921875 263.77398681640625 261.9230041503906 260.8940124511719 260.2659912109375 259.864013671875 259.0190124511719 258.1239929199219 256.9280090332031 255.39500427246094 254.3979949951172 253.7010040283203 253.20700073242188 253.04200744628906 252.54100036621094 252.95899963378906 252.7220001220703 252.88499450683594 253.1199951171875 253.27499389648438 253.62899780273438 254.08999633789062 254.5500030517578 255.08700561523438 256.1679992675781 257.1940002441406 258.8030090332031 260.7330017089844 262.5589904785156 263.9700012207031 267.447998046875 270.12701416015625 271.24700927734375 271.4750061035156 271.0509948730469 270.4169921875 269.7250061035156 269.3810119628906 269.20599365234375 269.2130126953125 269.7030029296875 270.15301513671875 271.2120056152344 272.1300048828125 273.010009765625 273.90301513671875 274.74200439453125 275.7879943847656 276.9259948730469 277.9639892578125 279.4739990234375 280.7409973144531 282.68798828125 284.9840087890625 286.86199951171875 288.93701171875 291.1860046386719 293.2340087890625 295.2430114746094 297.0830078125 298.6130065917969 300.3689880371094 301.1059875488281 302.2179870605469 302.9809875488281 303.7090148925781 304.322998046875 304.92999267578125 305.4849853515625 306.0199890136719 306.35699462890625 306.7200012207031 307.03900146484375 307.385009765625 307.5769958496094 307.6889953613281 307.78399658203125 307.81201171875 307.6919860839844 307.53399658203125 307.3479919433594 -9999
-9999 -9999 -9999 -9999 -9999 -9999 -9999 -9999 -9999 282.9339904785156 284.59698486328125 286.3030090332031 287.90301513671875 289.6719970703125 291.5190124511719 293.58099365234375 295.6889953613281 297.4440002441406 299.41900634765625 299.0979919433594 298.1260070800781 297.7309875488281 297.1000061035156 295.7850036621094 294.0249938964844 292.364013671875 289.75 287.07501220703125 285.156005859375 283.4630126953125 282.1659851074219 281.2430114746094 280.5150146484375 279.9360046386719 278.8800048828125 278.2640075683594 277.0920104980469 276.7489929199219 276.3089904785156 275.8999938964844 275.5769958496094 275.322998046875 275.0849914550781 274.94500732421875 274.8429870605469 274.8269958496094 274.7699890136719 275.5660095214844 276.5060119628906 278.22900390625 280.4460144042969 282.77801513671875 283.8529968261719 284.2690124511719 284.2959899902344 284.375 284.4410095214844 284.4639892578125 284.4440002441406 284.4110107421875 284.0249938964844 283.5320129394531 282.6510009765625 281.7359924316406 281.03399658203125 279.9739990234375 275.6929931640625 276.760009765625 275.1189880371094 273.7439880371094 272.4429931640625 271.0929870605469 269.6759948730469 268.2569885253906 267.2330017089844 264.80499267578125 262.9219970703125 263.85400390625 263.0610046386719 261.6409912109375 261.156005859375 259.4880065917969 258.3970031738281 257.822998046875 255.89700317382812 254.7220001220703 253.94500732421875 253.29600524902344 252.8699951171875 252.87100219726562 252.9290008544922 252.85299682617188 252.94700622558594 253.29100036621094 253.44200134277344 253.99200439453125 254.08799743652344 254.01400756835938 254.69700622558594 256.2460021972656 257.7760009765625 259.6910095214844 261.55999755859375 263.72100830078125 266.8609924316406 269.5350036621094 271.3240051269531 272.8789978027344 273.4519958496094 273.2489929199219 272.718994140625 272.0090026855469 271.0570068359375 270.7049865722656 270.4129943847656 270.83599853515625 271.42498779296875 272.2279968261719 273.08099365234375 273.8909912109375 274.9779968261719 275.8190002441406 276.6619873046875 277.70098876953125 279.2130126953125 280.1990051269531 281.7619934082031 284.135986328125 286.27899169921875 288.25201416015625 290.6470031738281 292.92498779296875 295.1969909667969 296.93701171875 298.45001220703125 299.5889892578125 300.968994140625 302.0849914550781 302.98699951171875 303.57598876953125 304.1310119628906 304.5979919433594 305.1090087890625 305.5050048828125 305.9150085449219 306.2030029296875 306.43701171875 306.7569885253906 307 307.1470031738281 307.2279968261719 307.3290100097656 307.2449951171875 307.12799072265625 306.9070129394531 306.6919860839844 -9999
-9999 -9999 -9999 -9999 -9999 -9999 -9999 -9999 281.9949951171875 283.8039855957031 285.39300537109375 286.9469909667969 288.5830078125 290.41400146484375 292.1990051269531 294.2099914550781 296.0889892578125 298.32000732421875 299.5589904785156 298.56298828125 296.14898681640625 297.49200439453125 296.97601318359375 296.1730041503906 294.66400146484375 293.0190124511719 291.0690002441406 288.62298583984375 287.156005859375 285.69500732421875 284.85198974609375 283.8800048828125 282.84600830078125 282.02398681640625 280.5530090332031 279.1679992675781 278.1210021972656 277.5710144042969 276.593994140625 276.17498779296875 275.6610107421875 275.2149963378906 274.8500061035156 274.5710144042969 274.2760009765625 274.0889892578125 274.0249938964844 274.0190124511719 274.5060119628906 275.80499267578125 278.02301025390625 280.26800537109375 282.5260009765625 283.7619934082031 284.0880126953125 284.4320068359375 284.5539855957031 284.5509948730469 284.74798583984375 284.72601318359375 284.42498779296875 284.0329895019531 283.27099609375 282.4150085449219 281.4859924316406 280.53900146484375 279.3739929199219 276.4530029296875 273.32501220703125 273.97601318359375 272.5050048828125 271.18701171875 269.78900146484375 268.3139953613281 266.6629943847656 264.7380065917969 265.0639953613281 264.50799560546875 263.58599853515625 262.135009765625 261.2049865722656 260.4620056152344 259.22601318359375 257.6600036621094 256.635009765625 255.45899963378906 254.4510040283203 253.4810028076172 252.85699462890625 252.75399780273438 253.0540008544922 253.0970001220703 253.24099731445312 252.87899780273438 252.99000549316406 252.96600341796875 253.1739959716797 253.7429962158203 254.87100219726562 256.4469909667969 258.1759948730469 260.14599609375 261.52899169921875 264.5830078125 267.03900146484375 269.54901123046875 271.4230041503906 273.3070068359375 274.6099853515625 274.7439880371094 274.22100830078125 273.5010070800781 272.68701171875 272.2900085449219 271.86199951171875 272.2749938964844 272.8680114746094 273.47100830078125 274.36199951171875 275.5350036621094 276.10400390625 277.0820007324219 277.9750061035156 279.2489929199219 280.2030029296875 281.4360046386719 283.3070068359375 285.37200927734375 287.4440002441406 289.8919982910156 292.3630065917969 294.7309875488281 296.7550048828125 298.3739929199219 299.7099914550781 300.97698974609375 302.07000732421875 303.260009765625 303.6130065917969 304.0979919433594 304.38800048828125 304.77099609375 305.0679931640625 305.3890075683594 305.5740051269531 305.9010009765625 306.0559997558594 306.2850036621094 306.4739990234375 306.65899658203125 306.66400146484375 306.6889953613281 306.5899963378906 306.4490051269531 306.2170104980469 305.94500732421875 -9999
-9999 -9999 -9999 -9999 -9999 -9999 -9999 -9999 283.5150146484375 285.0249938964844 286.4219970703125 288.04400634765625 289.47198486328125 291.260009765625 293.1239929199219 295.07000732421875 296.72900390625 298.8190002441406 299.5480041503906 297.36700439453125 295.0329895019531 296.5379943847656 296.6629943847656 296.13800048828125 295.37799072265625 293.4859924316406 291.3949890136719 289.864013671875 288.4599914550781 287.1919860839844 286.22601318359375 285.2359924316406 284.343994140625 283.36199951171875 282.2099914550781 280.8320007324219 279.9960021972656 279.11700439453125 278.2090148925781 277.21099853515625 276.1629943847656 275.5140075683594 274.9800109863281 274.4599914550781 274.0429992675781 273.6919860839844 273.3999938964844 273.260009765625 273.3290100097656 273.843994140625 276.20001220703125 278.06201171875 280.6780090332031 282.9110107421875 283.9549865722656 284.27099609375 284.5899963378906 284.7239990234375 284.781005859375 284.875 284.6809997558594 284.3240051269531 283.6390075683594 282.8450012207031 281.88800048828125 281.072998046875 279.82000732421875 278.28399658203125 276.6619873046875 274.5639953613281 271.0899963378906 269.82501220703125 268.5469970703125 267.5409851074219 268.2770080566406 266.29998779296875 265.7760009765625 264.885009765625 263.9410095214844 262.72601318359375 261.5400085449219 260.4960021972656 258.8500061035156 258.2869873046875 257.8009948730469 255.67799377441406 254.64999389648438 253.83599853515625 253.2519989013672 252.71099853515625 252.2100067138672 252.31399536132812 252.4239959716797 252.39500427246094 252.36700439453125 252.29400634765625 252.69400024414062 253.61199951171875 254.4709930419922 256.1130065917969 258.01300048828125 259.7879943847656 261.3489990234375 262.3389892578125 265.18798828125 267.4280090332031 269.9429931640625 271.9219970703125 273.8210144042969 274.81201171875 274.67999267578125 274.3739929199219 274.0299987792969 273.697998046875 273.52398681640625 273.77301025390625 274.19500732421875 275.052001953125 275.8280029296875 276.5169982910156 277.52301025390625 278.6300048828125 279.6099853515625 280.7929992675781 281.96099853515625 283.75201416015625 285.3299865722656 286.97900390625 289.20599365234375 291.8240051269531 294.47900390625 296.7980041503906 298.56201171875 300.0740051269531 301.2200012207031 302.4129943847656 303.40399169921875 303.9049987792969 304.0409851074219 304.3550109863281 304.3699951171875 304.697998046875 304.906005859375 305.11700439453125 305.2040100097656 305.4519958496094 305.63299560546875 305.74700927734375 305.90399169921875 306.0400085449219 306.0119934082031 305.95001220703125 305.9259948730469 305.67498779296875 305.4729919433594 305.1700134277344 -9999
-9999 -9999 -9999 -9999 -9999 -9999 -9999 283.4309997558594 285.09100341796875 286.468994140625 287.8429870605469 289.3299865722656 290.80499267578125 292.4330139160156 294.1919860839844 296.2049865722656 298.18798828125 298.92401123046875 297.85198974609375 295.7099914550781 294.2300109863281 295.3030090332031 296.2409973144531 295.82000732421875 295.2650146484375 293.5459899902344 291.49200439453125 289.9159851074219 288.6340026855469 287.42401123046875 286.5 285.44500732421875 284.7690124511719 283.8680114746094 282.9750061035156 282.0979919433594 281.3819885253906 280.71600341796875 279.6239929199219 278.5069885253906 277.36700439453125 276.4219970703125 275.5400085449219 274.7699890136719 274.0369873046875 273.3949890136719 272.9599914550781 272.65399169921875 272.61199951171875 272.86199951171875 273.8800048828125 276.15399169921875 278.9230041503906 281.5199890136719 283.4070129394531 284.2120056152344 284.4570007324219 284.68499755859375 284.8689880371094 284.8529968261719 284.7879943847656 284.50799560546875 283.9330139160156 283.1610107421875 282.24700927734375 281.25299072265625 280.1189880371094 278.6470031738281 276.9079895019531 275.1830139160156 273.5469970703125 272.07598876953125 270.8330078125 269.6449890136719 268.33599853515625 267.38800048828125 266.1090087890625 265.156005859375 264.3039855957031 263.0050048828125 261.87799072265625 261.2080078125 259.43499755859375 258.7179870605469 257.5509948730469 255.7030029296875 254.92999267578125 254.0709991455078 252.8990020751953 252.32400512695312 251.7989959716797 252.0800018310547 251.9250030517578 251.7729949951172 251.7519989013672 251.76300048828125 252.16600036621094 253.10299682617188 253.947998046875 254.95199584960938 257.4200134277344 258.8370056152344 260.12200927734375 261.10699462890625 262.24200439453125 264.87799072265625 267.1990051269531 269.37200927734375 271.39898681640625 273.4129943847656 274.6159973144531 274.8320007324219 274.6600036621094 274.7669982910156 274.8900146484375 275.3429870605469 276.010986328125 276.85101318359375 277.46099853515625 278.4259948730469 279.9599914550781 280.10101318359375 281.9670104980469 283.010009765625 284.41400146484375 285.8219909667969 287.64599609375 289.4800109863281 291.57501220703125 294.2080078125 296.9410095214844 299.1180114746094 300.635009765625 302.0249938964844 302.84698486328125 303.4620056152344 303.6820068359375 303.8810119628906 304.2349853515625 304.3869934082031 304.3479919433594 304.47100830078125 304.59100341796875 304.6629943847656 304.7619934082031 304.8789978027344 305.02801513671875 305.0979919433594 305.2460021972656 305.3059997558594 305.3320007324219 305.2430114746094 305.1499938964844 304.89599609375 304.6239929199219 304.4289855957031 -9999
-9999 -9999 -9999 -9999 -9999 -9999 -9999 285.43701171875 286.6860046386719 287.9360046386719 289.5929870605469 290.9150085449219 292.375 293.9200134277344 295.8240051269531 297.22900390625 298.8070068359375 298.34100341796875 295.69000244140625 293.85699462890625 293.51300048828125 293.47601318359375 294.4750061035156 294.5360107421875 294.1969909667969 292.7650146484375 291.0530090332031 289.60400390625 288.2359924316406 287.2969970703125 286.239990234375 285.4460144042969 284.64300537109375 283.94500732421875 283.3219909667969 282.7659912109375 282.4440002441406 281.57501220703125 280.91400146484375 280.13299560546875 279.0669860839844 278.0459899902344 276.97601318359375 275.5 274.3190002441406 273.3389892578125 272.5790100097656 272.18499755859375 272.02398681640625 272.12701416015625 272.62799072265625 274.89898681640625 277.5660095214844 280.4580078125 282.61700439453125 283.9729919433594 284.5350036621094 284.6000061035156 284.7550048828125 284.6499938964844 284.7569885253906 284.4549865722656 283.9930114746094 283.2080078125 282.385009765625 281.2860107421875 280.00299072265625 278.6419982910156 276.9280090332031 275.2770080566406 273.6109924316406 272.1189880371094 270.78399658203125 269.5150146484375 268.1759948730469 267.2869873046875 266.1340026855469 265.1440124511719 264.4070129394531 263.1180114746094 261.99798583984375 261.8139953613281 261.1940002441406 258.68499755859375 256.72198486328125 256.0639953613281 254.8699951171875 254.03700256347656 253.00399780273438 252.23500061035156 251.60400390625 251.7030029296875 251.34800720214844 251.2899932861328 251.30099487304688 251.3780059814453 251.7239990234375 252.6320037841797 253.62600708007812 254.8520050048828 256.7460021972656 257.9419860839844 259.04998779296875 260.0299987792969 261.2799987792969 262.3349914550781 263.2380065917969 266.06500244140625 268.3450012207031 270.65399169921875 272.57000732421875 273.739013671875 274.24200439453125 274.8919982910156 275.6090087890625 276.39801025390625 277.2959899902344 278.1199951171875 279.2409973144531 280.2510070800781 281.5409851074219 282.6059875488281 283.9049987792969 285.1310119628906 286.364990234375 287.9330139160156 289.8280029296875 291.9930114746094 294.4209899902344 296.7120056152344 299.26800537109375 301.5559997558594 302.82598876953125 303.1300048828125 303.5350036621094 303.7909851074219 304.22900390625 304.0570068359375 304.2860107421875 304.0950012207031 304.1159973144531 303.9580078125 304.02398681640625 304.0539855957031 304.13800048828125 304.19500732421875 304.3320007324219 304.4020080566406 304.5090026855469 304.5610046386719 304.6080017089844 304.5119934082031 304.2829895019531 304.1310119628906 303.8370056152344 303.625 -9999
-9999 -9999 -9999 -9999 -9999 -9999 -9999 287.02301025390625 288.14801025390625 289.87200927734375 291.197998046875 292.6780090332031 294.0469970703125 295.44000244140625 296.49700927734375 298.489990234375 299.2640075683594 296.46099853515625 294.08099365234375 292.9289855957031 292.69500732421875 291.9729919433594 292.7510070800781 292.8800048828125 292.5190124511719 291.3529968261719 290.10699462890625 288.8059997558594 287.6969909667969 286.9079895019531 285.3949890136719 285.40899658203125 284.6289978027344 283.9519958496094 283.4809875488281 283.4330139160156 282.74798583984375 282.2950134277344 281.8009948730469 281.2309875488281 280.48199462890625 279.4049987792969 278.239013671875 276.71600341796875 274.8659973144531 273.3190002441406 272.30999755859375 271.72100830078125 271.52301025390625 271.4949951171875 271.7049865722656 272.4159851074219 275.5379943847656 279.4989929199219 281.9389953613281 283.2460021972656 284.1159973144531 284.6109924316406 284.572998046875 284.3789978027344 284.510009765625 284.25799560546875 283.7909851074219 283.09100341796875 282.39801025390625 281.1719970703125 279.82598876953125 278.40301513671875 276.6910095214844 275.0320129394531 273.3819885253906 271.8869934082031 270.43499755859375 269.08599853515625 267.68499755859375 266.34100341796875 265.65399169921875 264.7749938964844 264.3059997558594 263.0710144042969 261.96099853515625 261.1669921875 260.6130065917969 258.6080017089844 257.0580139160156 256.0870056152344 254.93899536132812 253.93699645996094 253.0260009765625 252.1820068359375 251.6280059814453 251.4429931640625 251.04200744628906 250.92100524902344 250.80099487304688 251.06900024414062 251.55299377441406 252.3800048828125 253.5500030517578 254.81500244140625 256.4169921875 257.41400146484375 258.40899658203125 259.3699951171875 260.4590148925781 261.4159851074219 262.5260009765625 263.57501220703125 264.63800048828125 267.3949890136719 269.4750061035156 270.9909973144531 272.25799560546875 273.8710021972656 275.7489929199219 276.885986328125 278.2040100097656 279.4549865722656 280.31500244140625 281.4490051269531 282.5299987792969 283.8349914550781 285.0849914550781 286.5090026855469 288.10101318359375 289.91900634765625 291.87200927734375 294.25201416015625 296.635009765625 299.02899169921875 301.2449951171875 303.1629943847656 303.6830139160156 303.5580139160156 303.614990234375 303.7619934082031 303.8160095214844 303.9540100097656 303.3450012207031 303.5929870605469 303.5350036621094 303.2550048828125 303.25299072265625 303.2909851074219 303.38299560546875 303.4330139160156 303.55499267578125 303.6440124511719 303.7170104980469 303.75 303.74798583984375 303.66400146484375 303.49798583984375 303.3190002441406 303.04901123046875 302.8479919433594 -9999
-9999 -9999 -9999 -9999 -9999 -9999 287.1700134277344 288.2799987792969 289.58599853515625 291.27301025390625 292.697998046875 294.17999267578125 295.2909851074219 296.2229919433594 298.0929870605469 299.3609924316406 297.95599365234375 294.8789978027344 293.1310119628906 291.9630126953125 291.5320129394531 290.56500244140625 291.0039978027344 291.00799560546875 290.5570068359375 289.8269958496094 288.9070129394531 288.1029968261719 287.177001953125 284.7980041503906 284.69500732421875 284.8970031738281 284.7439880371094 283.9049987792969 283.56298828125 283.0480041503906 282.9100036621094 282.635009765625 282.2799987792969 281.85198974609375 281.1579895019531 280.1340026855469 278.90301513671875 277.3840026855469 275.5840148925781 273.56201171875 272.12701416015625 271.4079895019531 271.07501220703125 270.89599609375 270.9339904785156 271.7510070800781 273.9599914550781 278.9729919433594 281.25 282.72601318359375 283.6709899902344 284.14898681640625 284.4460144042969 284.23199462890625 284.13299560546875 283.88299560546875 283.50299072265625 282.947998046875 282.1570129394531 281.05499267578125 279.5690002441406 278.0400085449219 276.2430114746094 274.5159912109375 272.79998779296875 271.2950134277344 269.80499267578125 268.3389892578125 267.0830078125 265.7099914550781 265.15301513671875 264.468994140625 263.8169860839844 262.8630065917969 261.8789978027344 260.94500732421875 260.364013671875 258.54400634765625 257.01300048828125 256.12298583984375 254.9969940185547 253.947998046875 252.75900268554688 252.0050048828125 251.4429931640625 251.1529998779297 250.8780059814453 250.62399291992188 250.6479949951172 251.04400634765625 251.5050048828125 252.45599365234375 253.88299560546875 255.66900634765625 256.6679992675781 257.54400634765625 258.3529968261719 259.16400146484375 260.0299987792969 260.8760070800781 261.875 262.9429931640625 264.49200439453125 265.5530090332031 266.84698486328125 268.13800048828125 270.5140075683594 272.8349914550781 275.39801025390625 276.6029968261719 278.2439880371094 279.6180114746094 280.4259948730469 282.1730041503906 283.656005859375 284.97601318359375 286.25299072265625 287.70599365234375 289.4989929199219 291.65899658203125 293.7770080566406 296.43701171875 298.8330078125 300.9330139160156 302.69500732421875 303.7040100097656 303.52899169921875 303.4779968261719 303.2950134277344 303.3169860839844 303.2850036621094 303.0929870605469 302.5820007324219 302.61700439453125 302.49700927734375 302.3500061035156 302.260009765625 302.3800048828125 302.50799560546875 302.5979919433594 302.66400146484375 302.81298828125 302.8380126953125 302.9119873046875 302.8399963378906 302.8280029296875 302.6340026855469 302.3949890136719 302.2200012207031 301.9519958496094 301.7900085449219
-9999 -9999 -9999 -9999 -9999 -9999 288.1059875488281 289.34600830078125 291.0849914550781 292.5769958496094 294.2099914550781 295.3179931640625 295.9830017089844 298.0010070800781 299.4729919433594 298.00799560546875 296.14300537109375 293.7969970703125 292.1369934082031 290.9440002441406 290.45001220703125 289.031005859375 289.45001220703125 289.2760009765625 288.51300048828125 288.14300537109375 287.7250061035156 286.7929992675781 284.7409973144531 284.6759948730469 284.54998779296875 284.3370056152344 284.2239990234375 284.125 283.16900634765625 283.052001953125 282.8529968261719 282.760009765625 282.56201171875 282.12200927734375 281.3489990234375 280.37298583984375 279.1610107421875 277.6929931640625 275.8739929199219 273.77301025390625 272.239013671875 271.2139892578125 270.6510009765625 270.26800537109375 270.2170104980469 270.4330139160156 271.5899963378906 275.7049865722656 280.4150085449219 281.95001220703125 283.0419921875 283.58599853515625 283.8580017089844 283.8689880371094 283.6440124511719 283.3840026855469 283.1610107421875 282.6289978027344 281.9670104980469 280.7770080566406 279.13299560546875 277.4429931640625 275.5989990234375 273.7749938964844 272.04400634765625 270.51300048828125 268.8590087890625 267.3299865722656 265.6099853515625 265.0409851074219 264.468994140625 263.8680114746094 263.281005859375 262.53399658203125 261.57598876953125 260.64300537109375 260.0459899902344 258.3940124511719 256.9309997558594 256.0820007324219 254.9720001220703 253.8780059814453 252.57000732421875 251.74600219726562 251.22799682617188 251.01400756835938 250.71299743652344 250.4250030517578 250.36500549316406 250.73899841308594 251.58599853515625 252.6649932861328 255.3990020751953 256.27301025390625 256.989013671875 257.697998046875 258.41400146484375 259.114990234375 259.8479919433594 260.6929931640625 261.6400146484375 262.697998046875 264.09600830078125 265.2049865722656 266.4049987792969 267.7170104980469 268.9440002441406 271.33599853515625 275.00799560546875 275.9580078125 277.4100036621094 279.4949951171875 281.0950012207031 282.8179931640625 284.85699462890625 286.34600830078125 287.72198486328125 289.3280029296875 291.0690002441406 293.7120056152344 296.2699890136719 298.4159851074219 300.5260009765625 302.5050048828125 303.4679870605469 303.60101318359375 303.51800537109375 303.0830078125 302.99700927734375 302.677001953125 302.4309997558594 301.97198486328125 301.6990051269531 301.7019958496094 301.2869873046875 301.33599853515625 301.27398681640625 301.4150085449219 301.5710144042969 301.6809997558594 301.7449951171875 301.92401123046875 302.0050048828125 302.010009765625 302.0190124511719 301.8800048828125 301.6709899902344 301.4540100097656 301.3320007324219 301.0299987792969 300.9469909667969
-9999 -9999 -9999 -9999 -9999 287.125 288.6099853515625 290.0419921875 292.1260070800781 293.7760009765625 295.06500244140625 294.885009765625 297.1440124511719 300.35198974609375 297.864990234375 295.9830017089844 294.2980041503906 292.9410095214844 291.1820068359375 289.9440002441406 289.14898681640625 288.3580017089844 288.4389953613281 287.6050109863281 287.6700134277344 287.5140075683594 286.281005859375 284.50201416015625 284.3909912109375 284.4219970703125 284.2690124511719 284.2340087890625 283.97198486328125 283.79400634765625 282.96600341796875 282.8039855957031 282.6659851074219 282.6189880371094 282.531005859375 282.0899963378906 281.3699951171875 280.32501220703125 279.28900146484375 278.0260009765625 276.25201416015625 274.04901123046875 272.1969909667969 271.12701416015625 270.2590026855469 269.57501220703125 269.5369873046875 269.822998046875 270.6090087890625 273.6889953613281 278.96600341796875 280.75299072265625 282.2669982910156 283.2070007324219 283.4360046386719 283.3380126953125 283.1860046386719 283.0379943847656 282.739013671875 282.22601318359375 281.385986328125 280.03900146484375 278.39898681640625 276.6340026855469 274.6679992675781 272.843994140625 271.1830139160156 269.5459899902344 267.69000244140625 266.20001220703125 264.8160095214844 264.21099853515625 263.70599365234375 263.2640075683594 262.760986328125 262.1289978027344 261.1549987792969 260.35400390625 259.79901123046875 258.031005859375 256.7439880371094 255.87899780273438 254.7830047607422 253.63600158691406 252.22999572753906 251.4239959716797 250.96600341796875 250.875 250.42100524902344 250.1820068359375 250.12899780273438 250.81500244140625 251.88600158691406 255.65499877929688 256.3590087890625 256.89300537109375 257.5329895019531 258.1080017089844 258.8609924316406 259.5249938964844 260.1830139160156 260.9630126953125 261.85400390625 262.8919982910156 264.01800537109375 265.093994140625 266.2760009765625 267.5060119628906 268.6419982910156 269.8659973144531 272.9800109863281 274.3479919433594 276.2650146484375 278.58099365234375 281.29400634765625 283.239990234375 285.4809875488281 287.47900390625 289.8179931640625 291.44000244140625 293.75 296.19000244140625 298.5580139160156 300.322998046875 302.1470031738281 303.20098876953125 303.45001220703125 303.239990234375 302.9840087890625 302.5719909667969 302.2070007324219 301.6289978027344 300.64300537109375 299.7279968261719 299.56201171875 299.8139953613281 300.00201416015625 300.12701416015625 300.239990234375 300.4419860839844 300.64898681640625 300.77801513671875 300.8420104980469 300.9859924316406 301.0530090332031 301.09600830078125 301.08599853515625 300.9289855957031 300.7650146484375 300.5270080566406 300.2879943847656 300.1709899902344 300.12701416015625
-9999 -9999 -9999 -9999 -9999 287.5069885253906 289.22100830078125 290.61199951171875 291.8609924316406 294.12701416015625 293.7279968261719 296.1669921875 300.177001953125 298.0559997558594 296.1310119628906 294.4230041503906 293.17498779296875 291.56500244140625 290.52301025390625 289.1610107421875 287.9360046386719 287.4280090332031 287.10400390625 286.5769958496094 287.1730041503906 285.8039855957031 284.2539978027344 284.11199951171875 284.0260009765625 284.01800537109375 284.02899169921875 283.90399169921875 283.7130126953125 283.5419921875 283.3559875488281 282.4259948730469 282.3500061035156 282.3219909667969 282.177001953125 281.8819885253906 281.156005859375 280.3080139160156 279.2669982910156 278.1610107421875 276.53900146484375 274.45599365234375 272.3529968261719 270.9670104980469 269.8590087890625 269.0889892578125 268.7950134277344 269.0929870605469 269.54901123046875 272.1940002441406 275.6440124511719 279.06201171875 281.2900085449219 282.1549987792969 282.8070068359375 282.80999755859375 282.77398681640625 282.572998046875 282.2120056152344 281.69500732421875 280.54901123046875 279.1419982910156 277.3320007324219 275.5480041503906 273.5669860839844 271.7749938964844 270.1709899902344 268.4800109863281 266.50799560546875 265.0870056152344 263.989990234375 263.364990234375 262.8450012207031 262.572998046875 262.2950134277344 261.61199951171875 260.5830078125 259.8699951171875 259.2380065917969 257.489990234375 256.4119873046875 255.56700134277344 254.4290008544922 253.26800537109375 251.83900451660156 251.12399291992188 250.7010040283203 250.63600158691406 250.16799926757812 249.86599731445312 250.09800720214844 251.0540008544922 254.91000366210938 256.6239929199219 257.281005859375 257.9179992675781 258.7359924316406 259.4490051269531 259.9320068359375 260.3810119628906 260.89300537109375 261.54998779296875 262.3299865722656 263.3399963378906 264.23199462890625 265.2449951171875 266.3529968261719 267.50799560546875 268.63299560546875 269.77398681640625 271.22198486328125 273.12701416015625 275.625 278.08099365234375 280.9419860839844 283.3789978027344 285.9200134277344 288.5480041503906 291.4849853515625 294.0060119628906 296.1610107421875 298.62200927734375 300.5220031738281 301.8429870605469 302.75299072265625 303.156005859375 303.01300048828125 302.6000061035156 302.2030029296875 301.822998046875 301.1759948730469 299.75799560546875 297.7699890136719 296.7250061035156 297.2179870605469 298.17999267578125 298.8479919433594 298.9599914550781 299.30499267578125 299.54400634765625 299.7200012207031 299.8710021972656 299.9410095214844 299.9679870605469 300.1369934082031 300.1130065917969 300.0539855957031 299.9460144042969 299.75 299.49798583984375 299.30499267578125 299.281005859375 299.1210021972656
-9999 -9999 -9999 -9999 285.99700927734375 287.8299865722656 289.3450012207031 290.83099365234375 292.322998046875 293.22900390625 294.4419860839844 297.2359924316406 298.3320007324219 296.2879943847656 294.0530090332031 292.2279968261719 291.9209899902344 290.7909851074219 289.7829895019531 288.59600830078125 287.0419921875 286.4419860839844 286.5169982910156 285.69500732421875 285.0740051269531 283.9880065917969 283.8389892578125 283.6390075683594 283.53900146484375 283.5299987792969 283.5610046386719 283.5010070800781 283.30999755859375 282.9169921875 281.7669982910156 281.7330017089844 281.7850036621094 281.7489929199219 281.65899658203125 281.3030090332031 280.7760009765625 279.99798583984375 279.1960144042969 278.1080017089844 276.6700134277344 274.6549987792969 272.42401123046875 270.4540100097656 269.3280029296875 268.6830139160156 268.0610046386719 268.23699951171875 268.77801513671875 269.8349914550781 273.7130126953125 276.48199462890625 279.6520080566406 281.2449951171875 282.3380126953125 282.4639892578125 282.364990234375 281.9360046386719 281.5260009765625 280.7900085449219 278.7489929199219 278.0539855957031 275.8479919433594 274.1159973144531 272.27899169921875 270.5159912109375 268.8949890136719 267.1449890136719 265.4859924316406 263.9079895019531 263.11199951171875 262.4580078125 262.01800537109375 261.93499755859375 261.4939880371094 261.0039978027344 260.2330017089844 259.3689880371094 258.64300537109375 256.9460144042969 255.95700073242188 255.08799743652344 253.93699645996094 252.8159942626953 251.53900146484375 250.84500122070312 250.38400268554688 250.19500732421875 249.91600036621094 249.67300415039062 249.9340057373047 251.23399353027344 256.2070007324219 257.5069885253906 258.4989929199219 259.5950012207031 260.6679992675781 261.239990234375 261.5690002441406 261.8380126953125 262.1059875488281 262.5669860839844 263.14898681640625 264.031005859375 264.7359924316406 265.71099853515625 266.70001220703125 267.8240051269531 268.9590148925781 270.04998779296875 271.6830139160156 273.6809997558594 275.6709899902344 277.7829895019531 280.87200927734375 283.7139892578125 286.51800537109375 289.41400146484375 292.9209899902344 296.0409851074219 298.1570129394531 300.1940002441406 301.6780090332031 302.5199890136719 302.6000061035156 302.4930114746094 302.1650085449219 301.6830139160156 301.34600830078125 300.61199951171875 299.53399658203125 297.6820068359375 295.3450012207031 294.5469970703125 295.1499938964844 296.4159851074219 297.54998779296875 298.0060119628906 298.468994140625 298.69000244140625 298.79400634765625 298.92498779296875 299.07501220703125 299.07000732421875 299.1340026855469 299.0799865722656 298.989013671875 298.89300537109375 298.6940002441406 298.60699462890625 298.385009765625 298.21099853515625 297.8210144042969
-9999 -9999 -9999 -9999 286.67401123046875 288.15899658203125 289.6839904785156 291.08099365234375 292.46600341796875 292.98199462890625 294.9599914550781 296.1310119628906 295.86199951171875 294.0799865722656 292.0360107421875 291.6130065917969 291.1099853515625 289.84698486328125 288.9429931640625 287.6520080566406 286.1090087890625 285.94000244140625 285.91900634765625 284.5450134277344 283.4119873046875 283.3349914550781 283.29400634765625 283.2309875488281 283.1780090332031 283.1960144042969 283.114013671875 283.0039978027344 281.9259948730469 281.16400146484375 281.0379943847656 280.9570007324219 280.885009765625 281.0589904785156 280.87200927734375 280.6579895019531 280.2309875488281 279.5690002441406 278.8240051269531 278.0299987792969 276.7850036621094 274.75 272.2359924316406 270.0119934082031 268.87799072265625 268.1130065917969 267.5690002441406 267.3500061035156 267.8680114746094 268.5090026855469 271.3659973144531 274.73199462890625 277.427001953125 280.40399169921875 281.0769958496094 280.92401123046875 280.9110107421875 280.9800109863281 279.80999755859375 278.5780029296875 277.28399658203125 276.093994140625 273.9630126953125 272.4410095214844 270.8039855957031 268.9259948730469 267.0889892578125 265.53399658203125 264.16400146484375 262.65399169921875 262.0979919433594 261.7080078125 261.4179992675781 261.2139892578125 260.88299560546875 260.4989929199219 259.68798828125 258.9209899902344 258.0979919433594 256.0950012207031 255.38900756835938 254.4980010986328 253.30499267578125 252.25999450683594 251.0919952392578 250.5019989013672 250.1750030517578 250.21099853515625 249.73500061035156 249.4720001220703 249.89100646972656 253.6020050048828 256.8789978027344 258.32501220703125 259.97601318359375 262.4079895019531 263.7449951171875 265.03900146484375 265.1919860839844 265.14300537109375 265.1130065917969 265.4230041503906 265.8659973144531 266.0799865722656 266.79901123046875 267.49200439453125 268.12799072265625 268.40301513671875 269.44000244140625 270.489013671875 272.75799560546875 274.7019958496094 276.125 278.82598876953125 281.37701416015625 284.1390075683594 287.0610046386719 290.1180114746094 293.90399169921875 297.1260070800781 299.4620056152344 300.89300537109375 301.5849914550781 301.79998779296875 301.7799987792969 301.5419921875 301.1029968261719 300.68798828125 300.1759948730469 299.3349914550781 297.5610046386719 295.3559875488281 293.37701416015625 292.8009948730469 293.56298828125 295.3009948730469 296.85198974609375 297.2820129394531 297.52899169921875 297.77801513671875 297.85699462890625 298.0270080566406 298.1570129394531 298.1889953613281 298.0830078125 298.12200927734375 297.96099853515625 297.8659973144531 297.73199462890625 297.5710144042969 297.3240051269531 296.6629943847656 296.3039855957031
-9999 -9999 -9999 286.37200927734375 287.7430114746094 288.9939880371094 290.39801025390625 291.74200439453125 292.97601318359375 292.8479919433594 293.96600341796875 294.8900146484375 293.87799072265625 292.2650146484375 291.4909973144531 291.22698974609375 290.7720031738281 289.3609924316406 287.6730041503906 286.3840026855469 285.2139892578125 285.0159912109375 283.19000244140625 283.17498779296875 282.95098876953125 282.8529968261719 282.8420104980469 282.7650146484375 282.7909851074219 282.7760009765625 282.6889953613281 280.7099914550781 280.60699462890625 280.3900146484375 280.25799560546875 280.07501220703125 280.0799865722656 280.1310119628906 280.0710144042969 279.8970031738281 279.5690002441406 279.04400634765625 278.4859924316406 277.85198974609375 276.7049865722656 274.8290100097656 272.3340148925781 270.1130065917969 268.3940124511719 267.59600830078125 267.0570068359375 266.54400634765625 266.9079895019531 267.718994140625 268.9150085449219 272.8219909667969 275.3890075683594 277.97900390625 279.2489929199219 280.37701416015625 279.49200439453125 278.760009765625 276.52899169921875 276.6400146484375 274.45001220703125 273.20098876953125 272.3909912109375 271.09698486328125 269.5429992675781 267.5820007324219 265.12799072265625 263.7359924316406 262.6440124511719 261.38800048828125 261.04901123046875 260.9540100097656 260.9549865722656 260.70001220703125 260.5660095214844 260.20098876953125 259.4219970703125 258.6669921875 256.8630065917969 255.64199829101562 254.9239959716797 253.89100646972656 252.6820068359375 251.75599670410156 250.77999877929688 250.29299926757812 249.96499633789062 249.97799682617188 249.53599548339844 249.3300018310547 250.04200744628906 255.20700073242188 257.1400146484375 259.0660095214844 261.6300048828125 264.4599914550781 267.1340026855469 268.0379943847656 268.29901123046875 268.5570068359375 269.3030090332031 269.9639892578125 270.4549865722656 270.96600341796875 271.48699951171875 272.17401123046875 272.8699951171875 273.15301513671875 273.6919860839844 274.0880126953125 274.67498779296875 275.83099365234375 278.1300048828125 279.8290100097656 282.3489990234375 285.3299865722656 288.0889892578125 290.8269958496094 294.5790100097656 297.9010009765625 299.9070129394531 300.6449890136719 301.0190124511719 301.0559997558594 300.7539978027344 300.3059997558594 299.9729919433594 299.5169982910156 298.88299560546875 297.44000244140625 295.5350036621094 293.27099609375 291.5190124511719 291.3599853515625 291.97601318359375 293.9679870605469 295.6669921875 296.0539855957031 296.6549987792969 296.97698974609375 297.0870056152344 297.22100830078125 297.3280029296875 297.4280090332031 297.37701416015625 297.3699951171875 297.15301513671875 296.95001220703125 296.7619934082031 296.0450134277344 295.73199462890625 295.24700927734375 294.7860107421875
-9999 -9999 -9999 287.6189880371094 288.906005859375 290.0989990234375 291.0660095214844 292.0539855957031 292.93499755859375 292.7030029296875 292.3269958496094 293.3039855957031 292.23699951171875 291.4649963378906 291.25299072265625 290.92999267578125 289.8179931640625 288.04901123046875 286.4259948730469 285.1319885253906 284.26300048828125 282.14898681640625 281.93798828125 281.8059997558594 282.1759948730469 282.3949890136719 282.4679870605469 282.4360046386719 282.4360046386719 282.3479919433594 280.3219909667969 280.1470031738281 279.8190002441406 279.49200439453125 279.2349853515625 279.1789855957031 279.1080017089844 278.91400146484375 279.0989990234375 279.1440124511719 278.9259948730469 278.49798583984375 278.1059875488281 277.4649963378906 276.5559997558594 274.8810119628906 272.5369873046875 270.0849914550781 268.0989990234375 267.1839904785156 266.50799560546875 265.9639892578125 265.97900390625 266.6889953613281 267.3299865722656 269.52899169921875 273.70599365234375 275.4320068359375 277.27301025390625 276.947998046875 276.02301025390625 274.08099365234375 273.5660095214844 272.947998046875 272.3380126953125 271.9419860839844 269.2200012207031 266.75 264.3919982910156 263.2850036621094 262.4159851074219 261.9049987792969 261.0409851074219 260.1390075683594 260.0379943847656 260.2080078125 260.3710021972656 260.2550048828125 260.1709899902344 259.72100830078125 258.86199951171875 258.1340026855469 255.30499267578125 255.1580047607422 254.36500549316406 253.2830047607422 252.1649932861328 251.322998046875 250.44000244140625 250.072998046875 249.7740020751953 249.80299377441406 249.33999633789062 249.1199951171875 250.36900329589844 255.05099487304688 256.9490051269531 259.41400146484375 263.64898681640625 267.1210021972656 269.08599853515625 269.7879943847656 271.22100830078125 271.9649963378906 272.510986328125 273.2019958496094 273.8810119628906 274.5190124511719 275.29400634765625 276.61199951171875 278.0069885253906 278.01300048828125 278.1700134277344 278.0270080566406 277.8800048828125 278.1730041503906 280.593994140625 282.4460144042969 284.5299987792969 286.7070007324219 289.6709899902344 292.4670104980469 296.0299987792969 298.7909851074219 299.7879943847656 300.0350036621094 300.3609924316406 300.0039978027344 299.57000732421875 299.2799987792969 298.8869934082031 298.1969909667969 297.0610046386719 295.2090148925781 293.0299987792969 290.76800537109375 289.5740051269531 289.8330078125 290.45098876953125 292.5710144042969 294.20001220703125 295.26800537109375 295.8890075683594 296.1510009765625 296.2919921875 296.50299072265625 296.64801025390625 296.7040100097656 296.6700134277344 296.5260009765625 296.3489990234375 295.49200439453125 295.18701171875 294.6449890136719 294.18499755859375 293.6260070800781 293.0379943847656
-9999 -9999 287.5350036621094 288.8869934082031 290.1659851074219 291.1029968261719 291.8999938964844 292.82000732421875 292.906005859375 291.447998046875 292.2340087890625 291.864990234375 291.32501220703125 291.1319885253906 290.8590087890625 290.5880126953125 288.3110046386719 287.3819885253906 285.3059997558594 284.3190002441406 283.55499267578125 281.7229919433594 281.40301513671875 281.3330078125 281.4750061035156 282.1499938964844 282.2650146484375 282.10400390625 282.0469970703125 280.20001220703125 279.885986328125 279.37701416015625 278.94000244140625 278.4779968261719 278.2829895019531 278.114990234375 278.0249938964844 278.1700134277344 278.35101318359375 278.4200134277344 278.3699951171875 278.0870056152344 277.572998046875 277.0929870605469 276.4800109863281 275.114013671875 272.947998046875 270.364990234375 268.22601318359375 266.8479919433594 266.08099365234375 265.6409912109375 265.32000732421875 265.6839904785156 266.4010009765625 267.50299072265625 269.9779968261719 273.79998779296875 273.3900146484375 273.2300109863281 272.9519958496094 272.8070068359375 271.5920104980469 269.14898681640625 266.79998779296875 264.4930114746094 263.0880126953125 262.6669921875 262.2229919433594 261.7309875488281 261.07501220703125 260.35699462890625 259.6409912109375 259.0849914550781 259.0979919433594 259.4549865722656 259.7149963378906 259.7149963378906 259.510009765625 258.87200927734375 257.9800109863281 257.2049865722656 254.52999877929688 254.44000244140625 253.62600708007812 252.63299560546875 251.6820068359375 251.00799560546875 249.94700622558594 249.67300415039062 249.4669952392578 249.53599548339844 249.20399475097656 249.1219940185547 251.6739959716797 254.61000061035156 256.72198486328125 259.5270080566406 264.1659851074219 268.3819885253906 270.22100830078125 272.4070129394531 274.1600036621094 274.8030090332031 275.5379943847656 276.4070129394531 277.14801025390625 278.20001220703125 278.4840087890625 280.35198974609375 281.5299987792969 282.260009765625 282.375 282.135986328125 282.0740051269531 282.74798583984375 284.1189880371094 286.0450134277344 287.60101318359375 289.6719970703125 291.9519958496094 294.1520080566406 297.12298583984375 299.0570068359375 299.3630065917969 299.75201416015625 299.489013671875 299.02099609375 298.510986328125 298.052001953125 297.37298583984375 296.25 294.6940002441406 292.46600341796875 290.1260070800781 288.61700439453125 288.0119934082031 288.3179931640625 289.1099853515625 291.10699462890625 292.8240051269531 294.4729919433594 295.1629943847656 295.46600341796875 295.7770080566406 295.7929992675781 295.8179931640625 295.97900390625 295.02801513671875 294.3680114746094 294.1960144042969 293.9110107421875 293.4599914550781 293.0409851074219 292.5249938964844 291.781005859375 291.1809997558594
-9999 -9999 288.6029968261719 289.98699951171875 291.1029968261719 292.0369873046875 292.90899658203125 292.96600341796875 291.968994140625 290.09600830078125 291.1449890136719 291.1419982910156 290.91400146484375 290.7980041503906 290.5589904785156 288.6109924316406 287.52801513671875 285.7250061035156 284.7019958496094 283.7550048828125 282.9110107421875 282.218994140625 280.98699951171875 280.97100830078125 281.0889892578125 281.1960144042969 281.0889892578125 281.8399963378906 280.30499267578125 279.864013671875 279.2349853515625 278.5429992675781 277.9800109863281 277.5169982910156 276.9419860839844 277.1679992675781 277.3760070800781 277.4490051269531 277.6239929199219 277.7340087890625 277.7049865722656 277.5740051269531 277.1549987792969 276.6910095214844 276.281005859375 275.3630065917969 273.4280090332031 270.989990234375 268.5690002441406 266.6210021972656 265.906005859375 265.2980041503906 264.9859924316406 264.94000244140625 265.3789978027344 265.83099365234375 267.15301513671875 268.1659851074219 269.44000244140625 270.4150085449219 268.44000244140625 266.447998046875 264.4320068359375 262.74200439453125 262.1969909667969 261.68798828125 261.37200927734375 260.9599914550781 260.5419921875 260.17498779296875 259.4840087890625 258.8819885253906 258.3840026855469 258.1919860839844 258.2309875488281 258.6709899902344 258.885986328125 258.8280029296875 258.4330139160156 257.65899658203125 256.739990234375 255.9530029296875 253.6300048828125 253.50900268554688 252.72799682617188 251.927001953125 251.27200317382812 250.79299926757812 249.43699645996094 249.17799377441406 249.052001953125 249.35299682617188 249.197998046875 249.39999389648438 252.36900329589844 254.08900451660156 256.7049865722656 260.0880126953125 264.9540100097656 269.20098876953125 271.1730041503906 274.0069885253906 275.6820068359375 276.9079895019531 277.6409912109375 278.4519958496094 279.98199462890625 281.2510070800781 282.4779968261719 283.75 284.9830017089844 285.8110046386719 286.2510070800781 286.1730041503906 286.00299072265625 286.4360046386719 287.74798583984375 289.52099609375 291.2149963378906 293.08599853515625 295.1300048828125 296.7860107421875 297.7650146484375 298.760986328125 299.09698486328125 299.1549987792969 298.6409912109375 298.0069885253906 297.18499755859375 296.4739990234375 295.4230041503906 294.14300537109375 291.75201416015625 289.635009765625 287.70599365234375 286.6990051269531 286.6629943847656 286.9360046386719 288.1719970703125 290.06500244140625 291.9049987792969 293.5050048828125 293.625 294.33099365234375 294.4830017089844 294.6260070800781 293.9590148925781 293.09600830078125 292.2359924316406 292.3320007324219 292.5679931640625 292.1059875488281 291.63299560546875 291.38800048828125 290.6789855957031 289.8599853515625 289.15899658203125
-9999 -9999 289.843994140625 290.9809875488281 292.2030029296875 293.02099609375 293.20599365234375 291.92999267578125 290.406005859375 289.0419921875 289.89898681640625 289.9800109863281 290.47900390625 290.3760070800781 288.4880065917969 287.5880126953125 286.2650146484375 285.2650146484375 284.260009765625 283.1310119628906 282.2569885253906 281.7070007324219 280.9800109863281 280.76800537109375 280.8240051269531 280.8599853515625 280.7980041503906 280.44000244140625 279.97900390625 279.302001953125 278.4809875488281 277.76300048828125 276.6759948730469 276.16400146484375 276.2279968261719 276.4159851074219 276.6969909667969 276.9599914550781 277.00799560546875 277.07501220703125 277.1390075683594 276.9939880371094 276.8380126953125 276.4570007324219 276.09100341796875 275.489013671875 274.1510009765625 272.07501220703125 269.447998046875 267.2669982910156 265.84698486328125 265.1260070800781 264.7090148925781 264.58099365234375 264.82598876953125 265.0459899902344 264.6570129394531 264.5060119628906 264.2829895019531 263.8689880371094 263.20599365234375 262.510009765625 261.9119873046875 261.3320007324219 260.6570129394531 260.26800537109375 259.802001953125 258.822998046875 258.72198486328125 258.5369873046875 258.0840148925781 257.6300048828125 257.3609924316406 257.2590026855469 257.3190002441406 257.7239990234375 257.7720031738281 257.5350036621094 256.9960021972656 256.18701171875 255.27499389648438 254.5050048828125 252.91099548339844 252.52000427246094 251.9429931640625 251.46499633789062 250.88299560546875 249.2689971923828 248.8820037841797 248.70799255371094 248.7949981689453 249.01600646972656 249.1840057373047 250.3509979248047 251.9199981689453 253.718994140625 257.44500732421875 261.7959899902344 265.83599853515625 269.3789978027344 271.4949951171875 274.59100341796875 276.51800537109375 277.65399169921875 278.9949951171875 280.2850036621094 281.7770080566406 283.4339904785156 285.0119934082031 286.1099853515625 287.4800109863281 288.7030029296875 289.5979919433594 289.6289978027344 289.5409851074219 290.2959899902344 291.6390075683594 293.239990234375 295.0369873046875 296.5580139160156 297.68798828125 298.2569885253906 298.5450134277344 298.92401123046875 298.8179931640625 298.4230041503906 297.52801513671875 296.4209899902344 295.34100341796875 294.1319885253906 293.1610107421875 291.2590026855469 288.91900634765625 287.2829895019531 285.84100341796875 285.50799560546875 285.4330139160156 286.0400085449219 287.7040100097656 289.7669982910156 291.58599853515625 293.0669860839844 293.7340087890625 292.9049987792969 293.5690002441406 292.0320129394531 291.3269958496094 290.7879943847656 290.2850036621094 290.21099853515625 290.4440002441406 290.3080139160156 289.42999267578125 289.2900085449219 288.74700927734375 287.8819885253906 287.06201171875
-9999 289.20098876953125 290.6340026855469 291.7770080566406 293.3009948730469 293.3940124511719 293.2170104980469 291.7439880371094 289.8559875488281 287.8269958496094 288.4549865722656 289.0159912109375 288.8999938964844 288.3599853515625 287.64300537109375 286.6619873046875 285.7659912109375 284.8380126953125 283.7659912109375 282.64801025390625 281.66400146484375 280.927001953125 280.4779968261719 280.468994140625 280.5989990234375 280.7909851074219 280.54998779296875 280.239013671875 279.6289978027344 278.7439880371094 277.8599853515625 276.3840026855469 275.5530090332031 275.4580078125 275.4840087890625 275.6319885253906 275.9309997558594 276.2439880371094 276.47100830078125 276.57501220703125 276.6099853515625 276.5469970703125 276.4200134277344 276.3299865722656 276.0769958496094 275.5459899902344 274.72900390625 273.0450134277344 270.7130126953125 268.1919860839844 265.8800048828125 265.2409973144531 264.5509948730469 264.4549865722656 264.2650146484375 263.7460021972656 263.37200927734375 263.1109924316406 262.86700439453125 262.4200134277344 261.8699951171875 261.2650146484375 260.656005859375 260.0480041503906 259.47698974609375 258.9440002441406 258.5669860839844 257.89801025390625 257.6700134277344 257.3429870605469 256.92498779296875 256.6820068359375 256.4469909667969 256.3609924316406 256.2550048828125 256.4729919433594 256.3819885253906 255.9720001220703 255.38999938964844 254.6300048828125 253.8040008544922 253.08599853515625 252.1649932861328 251.92799377441406 251.4250030517578 251.08700561523438 249.16000366210938 248.76600646972656 248.51300048828125 248.50799560546875 248.91000366210938 248.94500732421875 248.89500427246094 250.00999450683594 251.26600646972656 253.01600646972656 258.3840026855469 261.635009765625 265.56201171875 268.8320007324219 271.3609924316406 274.4460144042969 276.5150146484375 278.0589904785156 278.8840026855469 281.22198486328125 283.1369934082031 284.989990234375 286.1910095214844 287.9519958496094 289.57598876953125 291.43701171875 292.8420104980469 293.70599365234375 293.6830139160156 294.02801513671875 295.18701171875 296.6820068359375 298.03399658203125 298.4100036621094 298.6390075683594 298.510986328125 298.54998779296875 298.3039855957031 297.8169860839844 296.70001220703125 295.4049987792969 294.37701416015625 293.21600341796875 292.0050048828125 290.2239990234375 288.9469909667969 286.67999267578125 285.2969970703125 284.3110046386719 284.50201416015625 284.5840148925781 285.3280029296875 287.33599853515625 289.2489929199219 290.6029968261719 292.1400146484375 292.7770080566406 291.74200439453125 290.1940002441406 290.2590026855469 289.2019958496094 288.78399658203125 288.5480041503906 288.2049865722656 287.9840087890625 287.3940124511719 286.8500061035156 287.02301025390625 287.114990234375 285.781005859375 284.8789978027344
-9999 289.7539978027344 290.57000732421875 292.8900146484375 293.40899658203125 293.3420104980469 292.50299072265625 291.3110046386719 289.3190002441406 287.4649963378906 287.35699462890625 288.0690002441406 288.0329895019531 287.6300048828125 286.9230041503906 286.07598876953125 285.281005859375 284.3080139160156 283.1449890136719 282.0570068359375 281.0159912109375 280.20001220703125 279.4590148925781 279.32598876953125 278.95001220703125 280.6449890136719 280.6400146484375 280.010009765625 279.2130126953125 278.3110046386719 276.614990234375 275.3420104980469 274.84600830078125 274.6719970703125 274.71099853515625 274.9119873046875 275.1400146484375 275.4460144042969 275.7650146484375 276.0249938964844 276.0899963378906 276.0920104980469 275.9989929199219 275.8590087890625 275.7919921875 275.4119873046875 274.8110046386719 273.8349914550781 271.94000244140625 269.4949951171875 267.1520080566406 265.5400085449219 264.62799072265625 264.0480041503906 263.4549865722656 262.7569885253906 262.3630065917969 262.06201171875 261.7349853515625 261.3070068359375 260.76300048828125 260.2489929199219 259.7090148925781 259.05499267578125 258.62200927734375 258.1910095214844 257.739013671875 257.3169860839844 256.875 256.42999267578125 256.2099914550781 255.9770050048828 255.73699951171875 255.46299743652344 255.23899841308594 255.2270050048828 254.98800659179688 254.49400329589844 253.92799377441406 253.2449951171875 252.55799865722656 252.04200744628906 251.4029998779297 250.88699340820312 249.343994140625 248.91299438476562 248.61599731445312 248.32899475097656 248.22799682617188 248.3470001220703 248.3459930419922 248.51699829101562 248.67799377441406 249.58900451660156 250.68899536132812 252.07699584960938 258.75201416015625 261.3580017089844 264.8970031738281 267.6669921875 270.5679931640625 273.40399169921875 276.1409912109375 277.9700012207031 279.739990234375 281.77099609375 283.7659912109375 285.8059997558594 287.4779968261719 289.0220031738281 291.1369934082031 293.5260009765625 295.7909851074219 297.14898681640625 297.55499267578125 297.46600341796875 298.2279968261719 298.65899658203125 298.88800048828125 299.0260009765625 298.656005859375 298.5400085449219 298.1239929199219 297.17999267578125 295.9389953613281 294.65301513671875 293.4100036621094 292.3110046386719 291.2179870605469 289.98199462890625 288.2090148925781 286.64599609375 285.00799560546875 283.9549865722656 283.6809997558594 283.5989990234375 284.1000061035156 285.27301025390625 286.95098876953125 288.2250061035156 289.3840026855469 290.6709899902344 289.88800048828125 289.9119873046875 288.3599853515625 288.0660095214844 286.98699951171875 285.78399658203125 285.3080139160156 285.5369873046875 285.72900390625 284.9880065917969 284.51800537109375 284.7720031738281 284.85699462890625 283.50299072265625 282.7099914550781
288.3450012207031 289.2980041503906 291.3479919433594 292.5780029296875 293.0220031738281 292.60101318359375 291.53399658203125 290.49700927734375 288.8080139160156 287.3070068359375 286.14898681640625 287.2539978027344 287.406005859375 286.9209899902344 286.2239990234375 285.5830078125 284.7699890136719 283.71099853515625 282.52301025390625 281.37298583984375 280.385009765625 280.1059875488281 278.8039855957031 278.4530029296875 278.3699951171875 278.0719909667969 280.6059875488281 279.7879943847656 278.78900146484375 276.78399658203125 275.6090087890625 274.7409973144531 274.0509948730469 273.7770080566406 273.8500061035156 274.09600830078125 274.4570007324219 274.6889953613281 275.0249938964844 275.3030090332031 275.5119934082031 275.55499267578125 275.48199462890625 275.3320007324219 275.2030029296875 275.114990234375 274.65899658203125 274.0220031738281 272.802001953125 270.8110046386719 268.4460144042969 266.25 264.93701171875 263.7969970703125 263.0220031738281 262.5570068359375 261.8970031738281 261.4320068359375 261.0790100097656 260.5799865722656 260.0169982910156 259.5270080566406 259.1260070800781 258.5480041503906 258.1239929199219 257.6549987792969 257.29400634765625 256.8840026855469 256.3739929199219 255.96099853515625 255.75799560546875 255.49899291992188 255.1540069580078 254.6840057373047 254.41299438476562 254.16099548339844 253.8939971923828 253.3560028076172 252.8350067138672 252.3780059814453 251.84100341796875 251.38800048828125 250.66000366210938 248.83200073242188 247.98599243164062 248.2010040283203 248.04299926757812 247.8699951171875 247.68899536132812 247.8699951171875 247.98899841308594 248.15499877929688 248.322998046875 249.1909942626953 250.21800231933594 251.3350067138672 257.7560119628906 261.156005859375 263.7030029296875 266.5710144042969 269.43798828125 272.42999267578125 275.4830017089844 277.71099853515625 280.0159912109375 282.0050048828125 284.3190002441406 286.2019958496094 288.2699890136719 290.1820068359375 292.52301025390625 295.593994140625 298.3970031738281 299.343994140625 299.39801025390625 299.0010070800781 299.3599853515625 299.1180114746094 299.1210021972656 298.82501220703125 298.7179870605469 298.0379943847656 296.7489929199219 295.3819885253906 293.9599914550781 292.62200927734375 291.5480041503906 290.4150085449219 289.3529968261719 287.97601318359375 286.63800048828125 285.1090087890625 283.85198974609375 283.0379943847656 282.89300537109375 282.968994140625 283.6629943847656 284.9949951171875 286.3070068359375 287.3080139160156 288.39898681640625 288.6189880371094 288.5870056152344 287.7380065917969 286.4590148925781 285.40399169921875 284.8380126953125 283.2820129394531 282.4989929199219 283.0260009765625 283.2179870605469 282.83099365234375 282.5060119628906 282.7019958496094 282.8110046386719 281.65301513671875 280.6789855957031
288.26300048828125 289.5320129394531 290.7250061035156 291.239990234375 291.2359924316406 290.875 289.9739990234375 289.34698486328125 288.20599365234375 286.20001220703125 285.5480041503906 286.5820007324219 286.62200927734375 286.1830139160156 285.6789855957031 285.093994140625 284.27301025390625 283.18499755859375 281.8949890136719 280.6889953613281 280.1960144042969 278.6400146484375 278.01800537109375 277.5660095214844 277.4490051269531 277.2560119628906 276.7860107421875 277.3890075683594 276.1669921875 275.52398681640625 274.6990051269531 273.8630065917969 273.22198486328125 272.8760070800781 272.91400146484375 273.17999267578125 273.5740051269531 274.00201416015625 274.3389892578125 274.6549987792969 274.8059997558594 274.9360046386719 274.88800048828125 274.7900085449219 274.64801025390625 274.5060119628906 274.3389892578125 273.8919982910156 273.1400146484375 271.7799987792969 269.80999755859375 267.593994140625 265.0150146484375 264.0660095214844 263.0140075683594 262.21099853515625 261.625 261.2049865722656 260.94500732421875 260.46099853515625 259.8699951171875 259.3949890136719 258.96099853515625 258.5190124511719 257.9460144042969 257.4429931640625 257.11700439453125 256.57598876953125 256.3999938964844 255.947998046875 255.63999938964844 255.28199768066406 254.71600341796875 254.2989959716797 253.83999633789062 253.3520050048828 253.04100036621094 252.5919952392578 252.13699340820312 251.68899536132812 251.35400390625 250.74099731445312 250.33399963378906 249.4600067138672 248.5850067138672 247.88099670410156 247.2740020751953 246.97799682617188 247.27099609375 247.28700256347656 247.6820068359375 247.78500366210938 247.93899536132812 248.78399658203125 249.802001953125 250.85499572753906 256.83599853515625 259.8529968261719 262.5450134277344 265.4259948730469 268.3909912109375 271.61199951171875 274.52398681640625 277.30999755859375 279.68701171875 281.62799072265625 284.2300109863281 286.2430114746094 288.32000732421875 290.7770080566406 293.64599609375 297.4939880371094 299.3280029296875 299.9519958496094 299.74798583984375 299.447998046875 299.2690124511719 299.12701416015625 298.73199462890625 298.5 297.4429931640625 296.2659912109375 294.72900390625 293.3890075683594 292.1700134277344 290.80999755859375 289.90899658203125 288.8039855957031 287.74798583984375 286.4289855957031 285.2699890136719 283.92401123046875 283.3370056152344 282.72698974609375 282.6759948730469 283.07000732421875 283.843994140625 284.9100036621094 285.760009765625 286.0320129394531 287.1510009765625 287.1549987792969 286.25201416015625 285.6159973144531 284.55999755859375 283.6579895019531 282.4949951171875 281.31201171875 280.02398681640625 280.864990234375 281.1929931640625 281.0419921875 280.3160095214844 280.64599609375 280.84698486328125 279.8529968261719 278.9939880371094
288.47900390625 289.10101318359375 289.58099365234375 289.7770080566406 289.4859924316406 289.1080017089844 288.89300537109375 288.19500732421875 287.1310119628906 286.1990051269531 285.0849914550781 285.989990234375 285.8290100097656 285.5589904785156 285.1669921875 284.5690002441406 283.739990234375 282.6099853515625 281.29998779296875 280.177001953125 278.6860046386719 278.0190124511719 277.3710021972656 276.7919921875 276.364990234375 276.14300537109375 275.86199951171875 275.4429931640625 274.99200439453125 274.4169921875 273.5740051269531 272.8840026855469 272.3210144042969 272.0320129394531 272.0260009765625 272.3160095214844 272.75 273.1839904785156 273.6820068359375 273.9859924316406 274.22601318359375 274.22100830078125 274.2070007324219 274.1679992675781 274.12298583984375 273.96600341796875 273.8039855957031 273.5690002441406 273.2080078125 272.0780029296875 270.3320007324219 268.5060119628906 266.28900146484375 264.25201416015625 263.45098876953125 262.5050048828125 261.7850036621094 261.1759948730469 260.59600830078125 260.0409851074219 259.4909973144531 259.0790100097656 258.8160095214844 258.5710144042969 258.25 257.718994140625 257.1239929199219 256.6830139160156 256.2929992675781 255.93299865722656 255.55799865722656 255.11099243164062 254.58599853515625 253.99200439453125 253.3699951171875 252.86300659179688 252.3470001220703 251.85800170898438 251.38299560546875 250.96600341796875 250.61300659179688 250.23599243164062 250.14500427246094 248.90899658203125 247.81399536132812 247.03900146484375 246.7760009765625 246.51699829101562 246.78399658203125 246.7740020751953 247.27200317382812 247.38499450683594 247.43899536132812 248.28199768066406 249.38400268554688 250.38999938964844 255.95899963378906 258.72198486328125 261.4339904785156 264.6099853515625 267.2929992675781 270.4219970703125 273.6809997558594 276.7449951171875 279.10101318359375 281.5669860839844 284.0190124511719 286.3710021972656 288.2510070800781 290.77801513671875 293.9110107421875 298.3349914550781 299.32598876953125 299.3919982910156 299.3710021972656 299.4750061035156 299.635986328125 298.8389892578125 298.281005859375 297.3389892578125 295.5669860839844 294.10400390625 292.760986328125 291.5710144042969 290.45599365234375 289.4460144042969 288.4849853515625 287.5169982910156 286.4119873046875 285.25299072265625 283.85198974609375 282.8800048828125 282.09600830078125 282.11199951171875 282.4859924316406 282.9670104980469 283.7239990234375 284.31500244140625 284.67999267578125 284.9800109863281 285.2130126953125 285.0870056152344 284.35198974609375 283.4289855957031 282.3760070800781 281.0559997558594 279.4670104980469 278.6860046386719 277.63800048828125 277.9309997558594 278.3269958496094 278.14801025390625 277.4570007324219 278.3489990234375 278.0870056152344 277.3609924316406 277.3819885253906
287.9200134277344 287.8909912109375 287.864013671875 287.9419860839844 287.7130126953125 287.12799072265625 286.5820007324219 286.39898681640625 286.10699462890625 285.57598876953125 284.760009765625 285.2749938964844 285.2349853515625 285.0409851074219 284.6180114746094 283.9639892578125 283.14801025390625 282.0299987792969 280.8940124511719 279.17401123046875 278.3699951171875 277.5260009765625 276.8349914550781 276.18798828125 275.6050109863281 275.14300537109375 274.760986328125 274.302001953125 273.6940002441406 273.1109924316406 272.3800048828125 271.6629943847656 271.2569885253906 271.0669860839844 271.13299560546875 271.4639892578125 271.9100036621094 272.5539855957031 273.0050048828125 273.3080139160156 273.4599914550781 273.42401123046875 273.4150085449219 273.5379943847656 273.5270080566406 273.4049987792969 273.2619934082031 273.0419921875 272.61700439453125 271.93499755859375 270.59698486328125 269.1419982910156 267.3680114746094 265.2439880371094 263.6700134277344 263.0400085449219 262.1789855957031 261.5249938964844 260.8739929199219 260.26800537109375 259.70098876953125 259.260009765625 258.8399963378906 258.5610046386719 258.1719970703125 257.635009765625 257.02801513671875 256.5329895019531 256.17401123046875 255.8260040283203 255.4499969482422 255.0279998779297 254.45199584960938 253.76100158691406 253.06700134277344 252.4239959716797 251.8280029296875 251.27000427246094 250.79100036621094 250.4429931640625 250.22500610351562 249.97900390625 249.98300170898438 248.5330047607422 247.6179962158203 246.9969940185547 246.5019989013672 246.16299438476562 246.28199768066406 246.34300231933594 246.85499572753906 246.68600463867188 247.03399658203125 247.83900451660156 248.9040069580078 249.9340057373047 254.24200439453125 257.53399658203125 260.4469909667969 263.4599914550781 266.2820129394531 269.6820068359375 273.04901123046875 275.8590087890625 278.489013671875 281.23699951171875 283.8340148925781 286.3110046386719 288.3710021972656 291.20001220703125 293.9580078125 298.510986328125 299.2959899902344 299.49798583984375 299.3080139160156 299.43499755859375 298.87799072265625 298.17999267578125 296.85400390625 295.1889953613281 293.40301513671875 292.1719970703125 290.9599914550781 290.02301025390625 289.0260009765625 288.0899963378906 287.1029968261719 286.2229919433594 285.2619934082031 283.8420104980469 282.81298828125 281.7510070800781 280.5249938964844 280.94500732421875 281.6650085449219 282.5329895019531 283.0060119628906 283.4840087890625 283.7850036621094 283.85400390625 283.59600830078125 283.093994140625 282.27398681640625 281.2309875488281 280.1440124511719 278.5610046386719 276.8429870605469 275.79998779296875 275.2409973144531 274.8890075683594 275.2720031738281 275.3599853515625 275.0369873046875 275.8599853515625 275.73699951171875 275.31298828125 275.2130126953125
-9999 286.4360046386719 286.1990051269531 285.81500244140625 285.5119934082031 285.1889953613281 285.156005859375 285.1180114746094 284.989990234375 284.5820007324219 284.41900634765625 284.79998779296875 284.7439880371094 284.4410095214844 284.0379943847656 283.375 282.5169982910156 281.56201171875 280.3970031738281 278.9590148925781 277.9859924316406 277.1449890136719 276.3559875488281 275.614013671875 275.02301025390625 274.5 273.9849853515625 273.34600830078125 272.5740051269531 271.8760070800781 271.2820129394531 270.58599853515625 270.17401123046875 270.07598876953125 270.1809997558594 270.5880126953125 271.1470031738281 271.7179870605469 272.27301025390625 272.4750061035156 272.4110107421875 272.4809875488281 272.5469970703125 272.7200012207031 272.8349914550781 272.8489990234375 272.6910095214844 272.4590148925781 272.08099365234375 271.6390075683594 270.8219909667969 269.46600341796875 267.989013671875 266.38299560546875 264.7919921875 263.2049865722656 262.6860046386719 262.0150146484375 261.3080139160156 260.6300048828125 260.1080017089844 259.6130065917969 259.239013671875 258.9429931640625 258.5190124511719 258.03900146484375 257.5090026855469 257.072998046875 256.77398681640625 256.4419860839844 256.1080017089844 255.677001953125 255.08900451660156 254.36599731445312 253.54800415039062 252.78500366210938 252.08999633789062 251.4219970703125 250.8470001220703 250.3939971923828 250.10899353027344 249.8820037841797 249.79600524902344 248.79299926757812 247.8730010986328 247.16400146484375 246.5919952392578 246.23599243164062 245.8780059814453 246.09500122070312 246.28500366210938 246.69900512695312 246.7779998779297 247.25 248.5019989013672 249.41099548339844 252.0749969482422 256.55499267578125 259.6669921875 262.9540100097656 266.01800537109375 269.3340148925781 272.5249938964844 275.7149963378906 278.5979919433594 281.4779968261719 284.22900390625 286.48199462890625 288.8949890136719 291.3429870605469 294.5190124511719 298.4620056152344 299.4320068359375 299.29998779296875 298.9200134277344 298.9440002441406 298.4750061035156 296.8559875488281 294.99798583984375 293.11199951171875 291.6570129394531 290.48699951171875 289.4729919433594 288.6029968261719 287.7430114746094 286.87799072265625 286.0929870605469 285.1239929199219 283.864990234375 282.1759948730469 281.2850036621094 279.885009765625 279.8139953613281 280.47601318359375 281.03399658203125 281.6730041503906 282.1210021972656 282.614013671875 282.63800048828125 282.3169860839844 281.86199951171875 281.1130065917969 278.73199462890625 277.3760070800781 277.0710144042969 275.4859924316406 274.15899658203125 273.65899658203125 273.1260070800781 271.58599853515625 271.9739990234375 272.1449890136719 272.1929931640625 272.8420104980469 272.5899963378906 272.4750061035156 -9999
-9999 285.0450134277344 285.0140075683594 284.9809875488281 285.052001953125 285.1260070800781 285.0669860839844 285.0570068359375 284.8559875488281 284.2959899902344 284.0249938964844 284.2799987792969 284.2239990234375 283.8900146484375 283.4129943847656 282.7080078125 281.97198486328125 281.0740051269531 279.6289978027344 278.60198974609375 277.6449890136719 276.8030090332031 275.94000244140625 275.1709899902344 274.5769958496094 274.02899169921875 273.34698486328125 272.56201171875 271.7690124511719 271.02099609375 270.3630065917969 269.8349914550781 269.39599609375 269.1969909667969 269.2330017089844 269.6499938964844 270.239990234375 270.8919982910156 271.3370056152344 271.4330139160156 271.35400390625 271.427001953125 271.5989990234375 271.864013671875 272.0849914550781 272.2030029296875 272.125 271.9320068359375 271.6910095214844 271.2650146484375 270.7539978027344 270.1050109863281 268.6820068359375 267.22198486328125 265.9309997558594 264.760986328125 263.5589904785156 262.260009765625 261.8479919433594 261.3689880371094 260.8039855957031 260.27899169921875 259.91400146484375 259.57000732421875 259.1600036621094 258.7439880371094 258.29998779296875 257.97601318359375 257.71099853515625 257.46600341796875 257.1700134277344 256.75 256.21099853515625 255.48800659179688 254.6280059814453 253.76199340820312 252.83700561523438 252.01600646972656 251.27499389648438 250.63099670410156 250.16700744628906 249.88400268554688 249.7239990234375 249.0449981689453 248.10299682617188 247.43099975585938 246.88600158691406 246.38800048828125 245.85699462890625 245.6820068359375 245.8769989013672 246.3820037841797 246.56100463867188 246.6959991455078 248.00100708007812 248.99200439453125 250.25599670410156 255.968994140625 259.6080017089844 263.0450134277344 266.4989929199219 269.78399658203125 273.09100341796875 276.30499267578125 279.2969970703125 282.1650085449219 284.57000732421875 287.1960144042969 289.5480041503906 292.05999755859375 295.2749938964844 298.635009765625 299.1199951171875 299.52398681640625 298.906005859375 298.85198974609375 296.92401123046875 294.9880065917969 293.1340026855469 291.4599914550781 290.09698486328125 289.14300537109375 288.1510009765625 287.3590087890625 286.5329895019531 285.8800048828125 285.04998779296875 283.7489929199219 282.25799560546875 281.2569885253906 279.4490051269531 278.93701171875 279.0329895019531 279.50799560546875 280.12799072265625 280.9150085449219 281.0159912109375 280.656005859375 279.5419921875 278.73699951171875 278.1300048828125 277.489990234375 276.59698486328125 275.5530090332031 274.5350036621094 273.54901123046875 272.5899963378906 272.11700439453125 270.6340026855469 269.05999755859375 268.4540100097656 269.10400390625 269.09600830078125 269.35198974609375 269.4010009765625 269.3009948730469 -9999
-9999 284.4530029296875 284.4630126953125 284.4070129394531 284.4360046386719 284.6709899902344 284.6919860839844 283.52899169921875 283.1650085449219 283.7829895019531 283.9779968261719 283.62298583984375 283.5539855957031 283.1600036621094 282.7359924316406 282.1579895019531 281.3399963378906 280.1610107421875 279.22198486328125 278.260986328125 277.3169860839844 276.4150085449219 275.6090087890625 274.87200927734375 274.2460021972656 273.56298828125 272.76300048828125 271.9549865722656 271.1189880371094 270.4830017089844 269.8380126953125 269.33599853515625 268.8429870605469 268.6000061035156 268.47198486328125 268.76300048828125 269.2409973144531 269.7919921875 270.26800537109375 270.37799072265625 270.218994140625 270.2929992675781 270.57501220703125 270.93701171875 271.2340087890625 271.4159851074219 271.50201416015625 271.5249938964844 271.4020080566406 271.1449890136719 270.74700927734375 270.2309875488281 269.5480041503906 268.3800048828125 267.1159973144531 265.99798583984375 265.0039978027344 264.0530090332031 263.0889892578125 262.22698974609375 261.34100341796875 261.125 260.8590087890625 260.4779968261719 260.0870056152344 259.80999755859375 259.4200134277344 259.14300537109375 258.9670104980469 258.7650146484375 258.5 258.1319885253906 257.6099853515625 256.8739929199219 256.0169982910156 255.06199645996094 254.08799743652344 253.08999633789062 252.15699768066406 251.31399536132812 250.57400512695312 250.04299926757812 249.74899291992188 249.48500061035156 248.3719940185547 247.64599609375 246.9770050048828 246.531005859375 246.10499572753906 245.39100646972656 245.58999633789062 245.9770050048828 246.22300720214844 246.38800048828125 247.58799743652344 248.6929931640625 249.8489990234375 254.63900756835938 259.03900146484375 263.62799072265625 267.01300048828125 270.5400085449219 273.8160095214844 276.90399169921875 279.87298583984375 282.4070129394531 285.3190002441406 287.55499267578125 289.9119873046875 292.6889953613281 295.5 298.6419982910156 299.2340087890625 299.010986328125 298.9209899902344 297.6189880371094 294.9429931640625 293.12701416015625 291.4079895019531 290.13800048828125 288.8450012207031 287.8599853515625 286.9410095214844 286.1929931640625 285.65899658203125 284.90399169921875 283.5119934082031 282.50799560546875 281.2330017089844 280.218994140625 278.8299865722656 278.3280029296875 278.4909973144531 278.7619934082031 279.04998779296875 279.4599914550781 279.0429992675781 278.5150146484375 277.71600341796875 276.7950134277344 275.9859924316406 275.34100341796875 274.37298583984375 273.61199951171875 272.3900146484375 270.5690002441406 269.5369873046875 268.6990051269531 268.2569885253906 267.4129943847656 266.6719970703125 266.56500244140625 266.2030029296875 266.4570007324219 266.4580078125 265.9989929199219 -9999
-9999 -9999 281.7330017089844 281.7149963378906 280.7699890136719 280.43798828125 281.3970031738281 282.4169921875 281.24798583984375 280.7340087890625 281.80999755859375 282.5769958496094 282.7409973144531 282.5039978027344 282.2669982910156 281.7250061035156 280.61199951171875 279.7460021972656 278.8630065917969 277.9599914550781 277.04998779296875 276.1709899902344 275.375 274.7179870605469 274.0150146484375 273.2090148925781 272.3009948730469 271.5039978027344 270.7139892578125 270.1180114746094 269.5740051269531 269.031005859375 268.531005859375 268.1029968261719 267.8919982910156 267.6189880371094 268.10198974609375 269.01300048828125 269.0150146484375 268.7690124511719 269.2139892578125 269.2170104980469 269.4320068359375 269.7969970703125 270.2359924316406 270.5199890136719 270.7099914550781 270.8909912109375 271.0530090332031 271.0419921875 270.9460144042969 270.68701171875 270.21099853515625 269.3909912109375 268.56500244140625 267.5400085449219 266.4280090332031 265.4779968261719 264.63800048828125 263.9410095214844 263.2340087890625 262.6099853515625 262.114990234375 261.6549987792969 261.2640075683594 261.31500244140625 261.00299072265625 260.77899169921875 260.5989990234375 260.4309997558594 260.12701416015625 259.77398681640625 259.2279968261719 258.3689880371094 257.4259948730469 256.4200134277344 255.35400390625 254.22500610351562 253.2100067138672 252.25999450683594 251.427001953125 250.6230010986328 250.00799560546875 249.656005859375 248.7689971923828 247.93600463867188 247.32699584960938 246.58999633789062 246.08999633789062 245.65699768066406 245.28700256347656 245.7449951171875 245.56100463867188 246.08799743652344 247.13400268554688 248.447998046875 249.69200134277344 252.86500549316406 257.2799987792969 263.5299987792969 267.47698974609375 270.45001220703125 273.12200927734375 275.8089904785156 278.2669982910156 281.7409973144531 285.00299072265625 287.62799072265625 289.91400146484375 292.6409912109375 295.18499755859375 298.2900085449219 299.2669982910156 299.0899963378906 298.3160095214844 295.0509948730469 293.33599853515625 291.4620056152344 290.0469970703125 288.97900390625 287.8330078125 286.6180114746094 285.8580017089844 284.64300537109375 283.2049865722656 282.5400085449219 282.3429870605469 281.2869873046875 280.12799072265625 278.7640075683594 278.12200927734375 277.5429992675781 277.64599609375 277.8290100097656 278.22198486328125 278.197998046875 277.9110107421875 277.0830078125 276.26800537109375 275.2120056152344 273.5559997558594 272.2130126953125 271.13299560546875 270.1919860839844 269.2200012207031 268.39599609375 267.80999755859375 266.93701171875 266.3489990234375 266.2869873046875 265.7860107421875 265.0469970703125 264.35198974609375 264.1400146484375 263.9490051269531 263.87799072265625 -9999
-9999 -9999 277.4570007324219 278.3609924316406 278.7229919433594 280.9739990234375 280.7300109863281 280.6940002441406 280.71600341796875 280.7149963378906 280.7030029296875 281.94000244140625 282.0589904785156 281.8590087890625 281.7460021972656 280.95098876953125 280.1910095214844 279.47100830078125 278.6210021972656 277.7359924316406 276.8160095214844 276.00799560546875 275.3949890136719 274.74798583984375 273.87799072265625 272.9830017089844 272.010009765625 271.18701171875 270.60101318359375 269.9630126953125 269.3550109863281 268.8080139160156 268.3039855957031 267.864013671875 267.4750061035156 267.19000244140625 266.77899169921875 266.3949890136719 267.62200927734375 267.9389953613281 267.5090026855469 267.2239990234375 268.55999755859375 268.70098876953125 268.9100036621094 269.1830139160156 269.50201416015625 269.92999267578125 270.2760009765625 270.64898681640625 270.92999267578125 270.9549865722656 270.6919860839844 270.1960144042969 269.56298828125 268.822998046875 268.07000732421875 267.3919982910156 266.31298828125 265.5010070800781 264.8710021972656 264.3349914550781 263.9280090332031 263.5639953613281 263.0190124511719 262.572998046875 262.5580139160156 262.5369873046875 262.5790100097656 262.5069885253906 262.0369873046875 261.52398681640625 260.7850036621094 259.8139953613281 258.75201416015625 257.6669921875 256.56500244140625 255.4040069580078 254.27699279785156 253.2519989013672 252.2790069580078 251.41299438476562 250.57000732421875 249.9810028076172 249.19900512695312 248.28199768066406 247.63400268554688 246.95199584960938 246.12399291992188 245.6739959716797 245.22799682617188 245.3509979248047 245.7830047607422 245.79800415039062 246.5240020751953 248.11099243164062 249.4810028076172 252.0489959716797 256.1319885253906 260.4219970703125 265.64898681640625 268.3489990234375 270.26300048828125 273.02099609375 276.9150085449219 280.76300048828125 284.1579895019531 287.1839904785156 289.5820007324219 292.5329895019531 295.3580017089844 297.70001220703125 298.2969970703125 297.90899658203125 295.6969909667969 293.4530029296875 291.6910095214844 290.0929870605469 288.8869934082031 287.8760070800781 286.7090148925781 285.5920104980469 283.4849853515625 282.82598876953125 282.22100830078125 281.9280090332031 281.23699951171875 280.0329895019531 279.26300048828125 277.9549865722656 277.3370056152344 276.59100341796875 276.4909973144531 276.73199462890625 276.864990234375 276.61700439453125 276.1059875488281 274.9700012207031 273.87200927734375 272.760009765625 271.760009765625 270.5350036621094 269.3760070800781 268.24700927734375 267.4200134277344 266.6789855957031 266.0159912109375 265.2879943847656 264.74200439453125 263.99798583984375 263.68798828125 263.45001220703125 263.0580139160156 262.5270080566406 262.32501220703125 262.1709899902344 -9999
-9999 -9999 -9999 277.0069885253906 277.2909851074219 280.7959899902344 280.6820068359375 280.6839904785156 280.7590026855469 280.70001220703125 280.7340087890625 281.989013671875 281.6499938964844 281.16900634765625 281.0350036621094 280.57501220703125 279.9169921875 279.2080078125 278.34600830078125 277.52301025390625 276.74700927734375 276.1189880371094 275.5039978027344 274.74798583984375 273.81500244140625 272.9320068359375 272.0480041503906 271.2300109863281 270.5190124511719 269.9440002441406 269.3240051269531 268.6659851074219 268.0669860839844 267.6499938964844 267.2099914550781 266.8070068359375 266.406005859375 265.94000244140625 265.4599914550781 265.10198974609375 266.3840026855469 266.3089904785156 266.2929992675781 266.3789978027344 267.95001220703125 268.0220031738281 268.1239929199219 268.4389953613281 268.9949951171875 269.57598876953125 270.2560119628906 270.6709899902344 270.614990234375 270.4580078125 270.2720031738281 269.84698486328125 269.24798583984375 268.59600830078125 267.9219970703125 267.2929992675781 266.8580017089844 266.1210021972656 265.61199951171875 265.28399658203125 265.0039978027344 264.7380065917969 264.5870056152344 264.39599609375 264.39599609375 264.114990234375 263.67498779296875 263.0220031738281 262.1839904785156 261.12799072265625 259.94000244140625 258.7300109863281 257.5360107421875 256.3599853515625 255.2530059814453 254.16099548339844 253.0500030517578 252.07000732421875 251.16900634765625 250.2899932861328 249.656005859375 248.96800231933594 247.81700134277344 247.21400451660156 246.27099609375 245.56900024414062 245.16200256347656 244.91799926757812 245.4320068359375 245.6280059814453 245.81500244140625 247.7429962158203 249.11000061035156 250.89300537109375 255.19500732421875 258.9490051269531 263.12298583984375 265.2049865722656 267.72601318359375 271.4150085449219 275.5880126953125 280.0539855957031 283.4100036621094 286.7430114746094 289.2820129394531 292.2560119628906 294.92498779296875 295.9989929199219 295.8030090332031 294.6210021972656 293.3739929199219 291.7090148925781 290.4010009765625 288.8590087890625 287.6709899902344 286.7959899902344 284.8900146484375 283.385009765625 282.9320068359375 282.39300537109375 281.93499755859375 281.8699951171875 281.10400390625 279.7200012207031 278.02398681640625 277.23699951171875 276.55499267578125 275.80499267578125 275.4670104980469 275.6610107421875 275.6090087890625 275.2300109863281 274.6369934082031 273.6910095214844 272.5140075683594 271.3290100097656 270.1440124511719 268.6990051269531 267.52398681640625 266.375 265.4700012207031 264.718994140625 264.0880126953125 263.4670104980469 263.072998046875 262.7139892578125 262.6050109863281 261.6239929199219 261.4049987792969 261.49200439453125 261.1759948730469 260.81298828125 -9999
-9999 -9999 -9999 276.2149963378906 276.4859924316406 280.3900146484375 280.6709899902344 280.7080078125 280.7049865722656 280.6969909667969 280.7860107421875 280.9750061035156 281.0140075683594 280.9100036621094 280.7380065917969 280.4070129394531 279.7330017089844 278.9419860839844 278.1159973144531 277.37298583984375 276.8070068359375 276.2650146484375 275.5419921875 274.69000244140625 273.74200439453125 272.8420104980469 272.12701416015625 271.4620056152344 270.77801513671875 270.06201171875 269.3680114746094 268.739990234375 268.04400634765625 267.4179992675781 266.9989929199219 266.635009765625 266.2460021972656 265.7300109863281 265.1960144042969 264.760986328125 264.3710021972656 264.3599853515625 264.7569885253906 264.864990234375 265.1830139160156 265.0039978027344 266.2860107421875 267.3240051269531 267.77801513671875 268.3420104980469 269.18701171875 269.8080139160156 270.052001953125 270.1310119628906 270.20599365234375 270.18701171875 269.9620056152344 269.6210021972656 269.135009765625 268.614013671875 268.12799072265625 267.68798828125 267.3429870605469 267.0889892578125 266.8030090332031 266.3699951171875 266.10699462890625 265.864990234375 265.4779968261719 265.3349914550781 264.6960144042969 263.947998046875 263.02801513671875 261.9320068359375 260.7309875488281 259.4729919433594 258.2430114746094 257.09698486328125 255.947998046875 254.8719940185547 253.79299926757812 252.69200134277344 251.60899353027344 250.60299682617188 249.8070068359375 249.31700134277344 248.0659942626953 247.29200744628906 246.60899353027344 245.54400634765625 245.08200073242188 244.84300231933594 244.96600341796875 245.25999450683594 245.33799743652344 247.3489990234375 248.64100646972656 249.927001953125 254.50799560546875 257.56201171875 260.74700927734375 263.27099609375 266.82501220703125 271.1099853515625 274.9909973144531 279.0870056152344 282.3760070800781 285.7349853515625 288.7749938964844 291.9460144042969 293.93798828125 293.78399658203125 293.2049865722656 292.21099853515625 291.3710021972656 290.1830139160156 288.5639953613281 287.5159912109375 286.22601318359375 283.9020080566406 283.3890075683594 282.989990234375 282.635009765625 282.1570129394531 281.822998046875 281.531005859375 281.5450134277344 280.92498779296875 277.49200439453125 276.60101318359375 275.8680114746094 275.0589904785156 274.14898681640625 274.2950134277344 274.031005859375 273.4670104980469 272.6730041503906 271.6199951171875 270.6789855957031 269.4429931640625 268.2250061035156 267.1510009765625 266.1499938964844 265.1789855957031 264.4880065917969 263.8080139160156 263.1990051269531 262.49200439453125 262.1919860839844 261.9809875488281 261.7690124511719 261.02099609375 260.3240051269531 259.80499267578125 260.33599853515625 260.1409912109375 -9999
-9999 -9999 -9999 -9999 275.8840026855469 279.9469909667969 280.66400146484375 280.65399169921875 281.0780029296875 280.6759948730469 279.843994140625 280.91900634765625 280.63800048828125 280.6990051269531 280.5690002441406 280.23699951171875 279.489013671875 278.72698974609375 278.0190124511719 277.4639892578125 276.8970031738281 276.2919921875 275.4649963378906 274.5119934082031 273.6610107421875 272.8739929199219 272.1080017089844 271.4830017089844 270.989013671875 270.3380126953125 269.6180114746094 268.8429870605469 268.0849914550781 267.42999267578125 266.81201171875 266.40301513671875 266.07598876953125 265.70098876953125 265.2550048828125 264.6610107421875 264.1520080566406 263.83099365234375 263.6099853515625 263.4840087890625 263.5660095214844 263.66900634765625 263.73699951171875 263.781005859375 264.5979919433594 266.56298828125 266.3089904785156 267.2449951171875 269.2850036621094 269.5509948730469 269.7829895019531 269.9859924316406 269.9930114746094 270.0050048828125 269.8380126953125 269.55499267578125 269.31201171875 269.0780029296875 268.7860107421875 268.42999267578125 268.06500244140625 267.80999755859375 267.6239929199219 267.4670104980469 266.5459899902344 266.093994140625 265.37298583984375 264.4419860839844 263.37701416015625 262.260986328125 261.06298828125 259.85400390625 258.65301513671875 257.5140075683594 256.44000244140625 255.3489990234375 254.1909942626953 253.06500244140625 251.9250030517578 250.89100646972656 249.9010009765625 249.2830047607422 248.70399475097656 247.36099243164062 246.7570037841797 245.6959991455078 245.1020050048828 244.656005859375 244.68299865722656 244.65199279785156 245.197998046875 246.98399353027344 248.23800659179688 249.2689971923828 253.38999938964844 256.26800537109375 259.4079895019531 262.6600036621094 266.7749938964844 270.6340026855469 274.37200927734375 277.9259948730469 281.2749938964844 284.72198486328125 287.51800537109375 290.2080078125 291.53900146484375 290.81298828125 290.89300537109375 290.0849914550781 288.802001953125 287.93701171875 287.0889892578125 284.4620056152344 283.82598876953125 283.5320129394531 283.1610107421875 282.7850036621094 282.3429870605469 282.04400634765625 281.8399963378906 281.5929870605469 281.5260009765625 281.14300537109375 277.4540100097656 275.86700439453125 274.8890075683594 273.7900085449219 272.8689880371094 272.5679931640625 272.3009948730469 271.635009765625 270.760009765625 269.8330078125 268.91900634765625 268.0260009765625 267.00799560546875 266.1319885253906 265.489990234375 264.4639892578125 263.7539978027344 263.1310119628906 262.6669921875 262.1570129394531 261.79400634765625 261.5690002441406 261.18798828125 260.36700439453125 259.6650085449219 259.09100341796875 258.6300048828125 258.7550048828125 -9999
-9999 -9999 -9999 -9999 275.5950012207031 279.6719970703125 280.0889892578125 279.89898681640625 279.9460144042969 279.9469909667969 279.8529968261719 280.9320068359375 280.7820129394531 280.59600830078125 280.3840026855469 279.97601318359375 279.2489929199219 278.57501220703125 278.08099365234375 277.635986328125 277.0369873046875 276.2349853515625 275.3710021972656 274.5119934082031 273.6029968261719 272.78900146484375 272.2090148925781 271.55999755859375 270.85198974609375 270.37200927734375 269.7829895019531 269.08099365234375 268.25799560546875 267.43701171875 266.87799072265625 266.41400146484375 266.0169982910156 265.6669921875 265.25299072265625 264.74200439453125 264.2430114746094 263.8559875488281 263.4159851074219 262.8370056152344 262.3909912109375 262.21600341796875 262.1709899902344 262.3320007324219 262.6549987792969 262.4649963378906 264.05499267578125 265.20098876953125 266.1809997558594 267.3110046386719 269.15301513671875 269.4679870605469 269.7569885253906 269.9159851074219 270.01800537109375 270.02301025390625 269.98199462890625 269.97698974609375 269.84100341796875 269.67999267578125 269.4159851074219 269.11700439453125 268.74700927734375 268.3070068359375 267.67999267578125 266.8789978027344 265.8599853515625 264.7279968261719 263.489013671875 262.2720031738281 261.12799072265625 259.9570007324219 258.75299072265625 257.6549987792969 256.5780029296875 255.5709991455078 254.4530029296875 253.2989959716797 252.11700439453125 251.00100708007812 250.00999450683594 249.2530059814453 248.69400024414062 247.43699645996094 246.74200439453125 245.9530029296875 245.26600646972656 244.88900756835938 244.74400329589844 244.46400451660156 245.38999938964844 246.66200256347656 247.7899932861328 248.97500610351562 251.98899841308594 255.3470001220703 258.7040100097656 262.09100341796875 266.0010070800781 269.9549865722656 273.9599914550781 277.24200439453125 280.1600036621094 283.2959899902344 286.2550048828125 287.5060119628906 288.1059875488281 288.7860107421875 288.68798828125 287.9729919433594 287.2099914550781 286.40399169921875 285.3030090332031 283.8500061035156 283.68499755859375 283.20001220703125 282.9440002441406 282.4440002441406 282.2359924316406 281.968994140625 281.68499755859375 281.64801025390625 281.48199462890625 281.0870056152344 277.2080078125 275.56298828125 274.55499267578125 273.3630065917969 272.22698974609375 271.52801513671875 270.906005859375 270.2749938964844 269.5690002441406 268.6369934082031 267.79901123046875 266.9410095214844 266.2860107421875 265.7590026855469 265.1700134277344 264.2850036621094 263.6629943847656 263.0559997558594 262.510009765625 262.0679931640625 261.614013671875 261.33099365234375 260.6820068359375 259.8789978027344 259.1669921875 258.4309997558594 257.9700012207031 257.6610107421875 -9999
-9999 -9999 -9999 -9999 275.3800048828125 279.260986328125 279.8070068359375 279.9070129394531 279.9469909667969 279.927001953125 279.86199951171875 280.94000244140625 280.87701416015625 280.218994140625 280.26300048828125 279.77899169921875 279.2090148925781 278.7590026855469 278.3420104980469 277.8789978027344 277.14898681640625 276.28900146484375 275.3599853515625 274.49798583984375 273.85400390625 273.0539855957031 272.2850036621094 271.6499938964844 271.09698486328125 270.3559875488281 269.6619873046875 269.14300537109375 268.447998046875 267.7019958496094 267.07598876953125 266.6199951171875 266.260986328125 265.8479919433594 265.4849853515625 265.1210021972656 264.7539978027344 264.3689880371094 263.7569885253906 263.0060119628906 262.3059997558594 261.7799987792969 261.5790100097656 261.4800109863281 261.43798828125 261.5559997558594 261.8080139160156 262.42401123046875 263.7149963378906 264.9230041503906 265.9549865722656 267.60101318359375 269.2560119628906 269.6210021972656 269.95001220703125 270.12799072265625 270.2409973144531 270.4049987792969 270.5039978027344 270.5530090332031 270.44500732421875 270.1990051269531 269.76800537109375 269.0899963378906 268.3630065917969 267.38299560546875 266.3039855957031 264.9800109863281 263.4670104980469 262.09600830078125 261.0140075683594 259.8840026855469 258.822998046875 257.6260070800781 256.5299987792969 255.5659942626953 254.5019989013672 253.3350067138672 252.16099548339844 250.9969940185547 249.98300170898438 249.2689971923828 248.74200439453125 247.8459930419922 246.8249969482422 246.1580047607422 245.7689971923828 245.36300659179688 244.63299560546875 244.55999755859375 244.69700622558594 245.9510040283203 247.13299560546875 248.1510009765625 251.54200744628906 254.89199829101562 258.79400634765625 262.41400146484375 266.1929931640625 270.2030029296875 274.22198486328125 277.49200439453125 279.8299865722656 282.4830017089844 284.3389892578125 285.447998046875 286.0580139160156 286.6940002441406 286.7330017089844 286.3290100097656 285.58599853515625 284.760009765625 283.8330078125 283.47100830078125 283.4119873046875 283.04998779296875 282.6820068359375 282.35198974609375 282.0329895019531 281.8139953613281 281.5740051269531 281.6319885253906 280.2040100097656 278.3210144042969 276.4339904785156 275.43499755859375 274.36700439453125 273.30999755859375 272.14300537109375 270.9909973144531 270.2200012207031 269.5320129394531 268.85198974609375 268.0220031738281 267.10400390625 266.2590026855469 265.43798828125 264.885009765625 264.3059997558594 263.7980041503906 263.322998046875 262.8680114746094 262.3489990234375 261.9150085449219 261.42999267578125 261.0299987792969 260.3999938964844 259.4859924316406 258.614990234375 257.9949951171875 257.4309997558594 257.09100341796875 -9999
-9999 -9999 -9999 -9999 -9999 279.35101318359375 279.74700927734375 279.8810119628906 279.9360046386719 279.9389953613281 279.87701416015625 279.9649963378906 279.885009765625 280.5830078125 280.114990234375 279.80999755859375 279.37701416015625 279.02099609375 278.6470031738281 278.1340026855469 277.39801025390625 276.5589904785156 275.7099914550781 274.8219909667969 274.0090026855469 273.3810119628906 272.7749938964844 272.02301025390625 271.3330078125 270.7090148925781 270.1310119628906 269.33099365234375 268.8030090332031 268.2510070800781 267.73699951171875 267.2969970703125 266.8450012207031 266.4410095214844 266.072998046875 265.67999267578125 265.3290100097656 264.80499267578125 264.07000732421875 263.32501220703125 262.6029968261719 261.9649963378906 261.33599853515625 261.0299987792969 260.8380126953125 260.7650146484375 260.81298828125 260.9739990234375 261.3089904785156 262.3789978027344 264.01300048828125 265.0719909667969 266.5589904785156 269.1549987792969 269.54901123046875 269.8890075683594 270.1830139160156 270.44000244140625 270.7619934082031 270.97900390625 271.1080017089844 270.9309997558594 270.37200927734375 269.61199951171875 268.6549987792969 267.6059875488281 266.24200439453125 264.6919860839844 263.2340087890625 261.97100830078125 260.7030029296875 259.7380065917969 258.7309875488281 257.6839904785156 256.6090087890625 255.60499572753906 254.55099487304688 253.35400390625 252.08700561523438 250.95700073242188 249.906005859375 249.20399475097656 248.65199279785156 248.2259979248047 246.44000244140625 246.08799743652344 245.44700622558594 244.88400268554688 244.20599365234375 244.13699340820312 244.35400390625 245.34300231933594 246.4709930419922 247.51800537109375 250.00399780273438 254.3489990234375 259.52301025390625 263.4490051269531 267.3240051269531 271.36199951171875 275.1199951171875 277.89801025390625 279.4309997558594 280.7690124511719 282.6719970703125 283.8599853515625 284.6839904785156 284.69000244140625 284.81500244140625 284.35699462890625 283.2130126953125 282.3500061035156 281.88800048828125 281.63299560546875 283.37701416015625 283.00799560546875 282.593994140625 282.3420104980469 281.9750061035156 281.82598876953125 281.78900146484375 280.7279968261719 278.9410095214844 277.5050048828125 276.2279968261719 274.9779968261719 273.8869934082031 272.7239990234375 271.7340087890625 270.8349914550781 269.9620056152344 269.2099914550781 268.38299560546875 267.6099853515625 266.864990234375 266.125 265.4840087890625 264.8840026855469 264.3489990234375 263.7959899902344 263.2869873046875 262.78900146484375 262.3169860839844 261.7950134277344 261.32501220703125 260.7799987792969 260.1390075683594 259.3009948730469 258.4739990234375 257.7239990234375 257.1369934082031 256.5559997558594 -9999
-9999 -9999 -9999 -9999 -9999 278.3710021972656 280.1029968261719 279.8869934082031 279.9429931640625 279.95001220703125 279.8800048828125 279.93798828125 279.885986328125 279.7900085449219 280.4410095214844 279.8949890136719 279.5480041503906 279.1659851074219 278.8039855957031 278.3039855957031 277.6099853515625 276.8680114746094 276.1650085449219 275.4830017089844 274.68701171875 273.9219970703125 273.2929992675781 272.72198486328125 272.0610046386719 271.39898681640625 270.7539978027344 270.2250061035156 269.6759948730469 269.04901123046875 268.6440124511719 268.2929992675781 267.99700927734375 267.6520080566406 267.20599365234375 266.6789855957031 266.17401123046875 265.43701171875 264.49798583984375 263.69500732421875 262.92498779296875 262.2409973144531 261.510009765625 260.9599914550781 260.5090026855469 260.2239990234375 260.0769958496094 260.05499267578125 260.17999267578125 260.4830017089844 260.6579895019531 263.3450012207031 264.447998046875 266.1340026855469 267.6820068359375 269.3919982910156 269.7539978027344 270.1759948730469 270.6839904785156 271.135009765625 271.3599853515625 271.2080078125 270.614990234375 269.7229919433594 268.5820007324219 267.22198486328125 265.8139953613281 264.3919982910156 263.0459899902344 261.61700439453125 260.4150085449219 259.37799072265625 258.5350036621094 257.5559997558594 256.5539855957031 255.5959930419922 254.593994140625 253.44700622558594 252.2209930419922 250.968994140625 249.9320068359375 249.16000366210938 248.57200622558594 248.04299926757812 246.6529998779297 245.8300018310547 245.10899353027344 244.61099243164062 243.99400329589844 243.93099975585938 244.06399536132812 244.78799438476562 245.88900756835938 247.0019989013672 249.21600341796875 253.9669952392578 259.7980041503906 263.90301513671875 267.79901123046875 271.9930114746094 275.2229919433594 277.0979919433594 278.7090148925781 279.8840026855469 281.031005859375 282.1029968261719 282.6340026855469 283.0459899902344 282.69000244140625 281.96600341796875 281.0639953613281 280.3550109863281 279.843994140625 279.8529968261719 280.2200012207031 282.6239929199219 282.4280090332031 282.1650085449219 282.5360107421875 282.4580078125 281.4469909667969 280.65399169921875 279.4490051269531 277.97900390625 276.5249938964844 275.2130126953125 273.9599914550781 272.85699462890625 271.8240051269531 270.8869934082031 270.0090026855469 269.20001220703125 268.3179931640625 267.5669860839844 266.8479919433594 266.1159973144531 265.4909973144531 264.9259948730469 264.40399169921875 263.9169921875 263.44500732421875 262.92999267578125 262.3890075683594 261.760009765625 261.1310119628906 260.49200439453125 259.864990234375 259.2149963378906 258.4330139160156 257.63299560546875 256.8340148925781 256.2349853515625 -9999
-9999 -9999 -9999 -9999 -9999 -9999 280.6449890136719 279.9739990234375 279.760986328125 279.40301513671875 279.2909851074219 279.1929931640625 279.8900146484375 279.7969970703125 279.7590026855469 279.5840148925781 279.56201171875 279.1099853515625 278.7820129394531 278.36700439453125 277.92999267578125 277.2829895019531 276.6520080566406 276.0539855957031 275.4830017089844 274.8210144042969 274.1549987792969 273.53399658203125 272.97100830078125 272.53399658203125 271.9679870605469 271.34600830078125 270.7760009765625 270.4129943847656 269.9490051269531 269.5639953613281 269.2829895019531 269.0069885253906 268.62200927734375 267.9779968261719 267.1960144042969 266.27099609375 265.1499938964844 264.1789855957031 263.26300048828125 262.489013671875 261.6520080566406 261.0690002441406 260.5480041503906 260.04400634765625 259.71600341796875 259.3489990234375 259.25299072265625 259.3070068359375 259.614990234375 260.1669921875 262.10699462890625 263.7950134277344 265.4830017089844 266.9280090332031 268.760986328125 269.70599365234375 270.2950134277344 270.8999938964844 271.322998046875 271.11199951171875 270.4739990234375 269.40301513671875 268.09100341796875 266.7909851074219 265.47698974609375 264.0039978027344 262.6099853515625 261.31500244140625 260.1289978027344 259.1510009765625 258.2340087890625 257.3009948730469 256.3500061035156 255.42999267578125 254.48300170898438 253.45799255371094 252.26800537109375 251.09500122070312 250.0260009765625 249.20700073242188 248.58299255371094 247.8520050048828 246.47900390625 245.73399353027344 244.9810028076172 244.49000549316406 243.78399658203125 243.76800537109375 243.85499572753906 243.8820037841797 245.33599853515625 246.4810028076172 248.5189971923828 252.4810028076172 258.06298828125 262.79998779296875 266.4639892578125 270.26800537109375 274.1289978027344 276.2359924316406 277.72698974609375 278.8139953613281 279.71099853515625 280.3869934082031 280.5989990234375 280.8160095214844 280.5539855957031 279.8550109863281 278.9440002441406 278.3009948730469 277.8349914550781 277.8800048828125 278.4429931640625 279.5119934082031 281.7829895019531 281.13299560546875 282.0899963378906 282.1180114746094 281.5350036621094 280.94500732421875 279.8810119628906 278.427001953125 276.9849853515625 275.4429931640625 274.1659851074219 272.91400146484375 271.8590087890625 270.8739929199219 270.03399658203125 269.2239990234375 268.4469909667969 267.7430114746094 267.114013671875 266.5469970703125 266.06500244140625 265.5769958496094 265.19500732421875 264.7099914550781 264.2139892578125 263.635009765625 263.02398681640625 262.3160095214844 261.5589904785156 260.82598876953125 260.1310119628906 259.36700439453125 258.4360046386719 257.3190002441406 256.70098876953125 255.9499969482422 -9999
-9999 -9999 -9999 -9999 -9999 -9999 279.9809875488281 280.3110046386719 279.2799987792969 279.3500061035156 279.3240051269531 279.2850036621094 280 279.8299865722656 279.7900085449219 279.87701416015625 279.510986328125 279.2850036621094 278.85198974609375 278.37200927734375 278.0299987792969 277.6600036621094 277.197998046875 276.75 276.25 275.7569885253906 275.2879943847656 274.677001953125 274.1520080566406 273.62799072265625 273.22900390625 272.7959899902344 272.34100341796875 271.8819885253906 271.49700927734375 271.2300109863281 270.7919921875 270.4070129394531 269.885009765625 269.22698974609375 268.2980041503906 267.37200927734375 266.1510009765625 264.9429931640625 263.8529968261719 262.86199951171875 261.9649963378906 261.218994140625 260.60198974609375 260.0090026855469 259.5119934082031 259.0830078125 258.5769958496094 258.30999755859375 258.5379943847656 258.9989929199219 259.6470031738281 260.8659973144531 262.8219909667969 264.760986328125 266.447998046875 267.39599609375 269.7869873046875 270.1679992675781 270.4219970703125 270.239013671875 269.739990234375 268.7340087890625 267.5669860839844 266.22198486328125 264.8080139160156 263.51800537109375 262.20599365234375 260.92999267578125 259.8909912109375 258.9169921875 257.9620056152344 256.9209899902344 255.92999267578125 255.08200073242188 254.12600708007812 253.16099548339844 252.0749969482422 251.0709991455078 250.05099487304688 249.31700134277344 248.58799743652344 247.51499938964844 246.39199829101562 245.64700317382812 244.8679962158203 244.3300018310547 243.52999877929688 243.47900390625 243.68699645996094 243.39100646972656 244.82200622558594 246.0330047607422 247.08700561523438 251.86900329589844 256.9750061035156 260.66900634765625 264.6719970703125 268.6910095214844 272.8970031738281 275.7300109863281 276.9020080566406 277.6679992675781 278.2829895019531 278.8900146484375 279.1520080566406 279.1839904785156 278.8500061035156 278.1289978027344 277.0350036621094 275.9429931640625 275.50299072265625 275.6679992675781 276.16900634765625 277.4570007324219 278.7760009765625 280.1440124511719 281.052001953125 281.4429931640625 281.3800048828125 280.885009765625 280.1310119628906 279.0539855957031 277.6289978027344 276.18798828125 274.7850036621094 273.39898681640625 272.38299560546875 271.33599853515625 270.5369873046875 269.78399658203125 269.0790100097656 268.45098876953125 267.89300537109375 267.47601318359375 267.14599609375 266.7659912109375 266.3840026855469 265.9469909667969 265.3909912109375 264.6860046386719 263.864013671875 262.9639892578125 262.11700439453125 261.27899169921875 260.5050048828125 259.739990234375 258.4620056152344 257.28900146484375 256.35400390625 255.6580047607422 -9999
-9999 -9999 -9999 -9999 -9999 -9999 -9999 279.42401123046875 279.260986328125 279.3280029296875 279.3529968261719 279.2969970703125 279.1940002441406 279.8800048828125 279.81201171875 279.81201171875 279.7569885253906 279.3280029296875 279.0950012207031 278.4389953613281 277.9859924316406 277.78399658203125 277.6419982910156 277.3970031738281 277.03399658203125 276.6300048828125 276.2340087890625 275.8269958496094 275.4590148925781 275.0169982910156 274.5690002441406 274.1709899902344 273.91400146484375 273.55499267578125 273.1059875488281 272.6709899902344 272.3599853515625 271.82598876953125 271.03900146484375 270.260986328125 269.3810119628906 268.4339904785156 267.14599609375 265.8919982910156 264.6960144042969 263.62200927734375 262.5849914550781 261.62200927734375 260.7959899902344 259.96099853515625 259.37298583984375 258.8909912109375 258.4469909667969 257.93701171875 257.6669921875 257.968994140625 258.5 259.16900634765625 260.14599609375 262.072998046875 263.74700927734375 265.7120056152344 267.1659851074219 268.9410095214844 269.7879943847656 269.56298828125 268.89300537109375 267.7919921875 266.5870056152344 265.3739929199219 264.1180114746094 262.8479919433594 261.6789855957031 260.5509948730469 259.54998779296875 258.65301513671875 257.71099853515625 256.68701171875 255.63600158691406 254.56500244140625 253.6179962158203 252.7030029296875 251.71099853515625 250.7449951171875 249.8990020751953 249.19900512695312 248.5760040283203 247.11099243164062 246.35800170898438 245.5800018310547 244.7830047607422 244.1929931640625 243.36700439453125 243.25999450683594 243.39700317382812 243.3820037841797 244.31199645996094 245.58299255371094 246.58200073242188 250.4290008544922 255.1580047607422 259.77398681640625 263.9840087890625 268.0069885253906 272.2510070800781 274.7239990234375 275.91400146484375 276.7080078125 277.4259948730469 277.78900146484375 278.0150146484375 277.5929870605469 276.77099609375 275.7619934082031 274.7019958496094 273.7829895019531 273.2279968261719 273.4159851074219 274.2619934082031 275.47900390625 276.8869934082031 278.71600341796875 280.19000244140625 280.7130126953125 281.0299987792969 280.7969970703125 280.37701416015625 279.5660095214844 278.45001220703125 277.1990051269531 275.8089904785156 274.47601318359375 273.3479919433594 272.375 271.531005859375 270.84100341796875 270.1440124511719 269.614990234375 269.2030029296875 268.85101318359375 268.5169982910156 268.22601318359375 267.84600830078125 267.260009765625 266.5190124511719 265.66900634765625 264.7170104980469 263.7690124511719 262.7699890136719 261.97100830078125 261.2090148925781 260.3389892578125 259.2200012207031 258.01300048828125 256.7900085449219 255.6790008544922 -9999
-9999 -9999 -9999 -9999 -9999 -9999 -9999 279.3349914550781 279.177001953125 279.3080139160156 279.3550109863281 279.3420104980469 279.2720031738281 279.50299072265625 280.1629943847656 280.2200012207031 279.7539978027344 279.62200927734375 279.1759948730469 278.81298828125 278.2229919433594 277.93499755859375 277.9809875488281 277.9049987792969 277.6820068359375 277.3970031738281 277.0979919433594 276.7619934082031 276.5140075683594 276.2550048828125 275.8840026855469 275.5669860839844 275.2359924316406 274.92999267578125 274.6260070800781 274.2070007324219 273.5989990234375 272.8800048828125 272.0090026855469 271.14599609375 270.2380065917969 269.1780090332031 268.0039978027344 266.7929992675781 265.6440124511719 264.5509948730469 263.4419860839844 262.34600830078125 261.2799987792969 260.27301025390625 259.3420104980469 258.7770080566406 258.24798583984375 257.81500244140625 257.3210144042969 257.1159973144531 257.45599365234375 257.89898681640625 258.6130065917969 259.3840026855469 261.30499267578125 263.2569885253906 265.47900390625 266.8819885253906 267.7569885253906 267.82000732421875 267.3529968261719 266.5050048828125 265.4429931640625 264.3370056152344 263.18798828125 262.135986328125 261.10400390625 260.09600830078125 259.125 258.25 257.3630065917969 256.41400146484375 255.5240020751953 254.2550048828125 253.22999572753906 252.0959930419922 251.08599853515625 250.3070068359375 249.6320037841797 249.0070037841797 248.3419952392578 247.0659942626953 246.2760009765625 245.4810028076172 244.6020050048828 244.02499389648438 243.18499755859375 243.13699340820312 243.1699981689453 243.20199584960938 243.83799743652344 245.02200317382812 246.15199279785156 249.1959991455078 254.23699951171875 259.7139892578125 263.9670104980469 267.8890075683594 271.5270080566406 273.67498779296875 275.02301025390625 276.12799072265625 276.59698486328125 276.64599609375 276.4200134277344 276.62200927734375 275.0690002441406 273.9200134277344 272.6029968261719 271.58099365234375 270.8999938964844 271.1960144042969 272.27301025390625 273.8919982910156 275.5769958496094 277.3299865722656 279.3340148925781 280.0929870605469 280.5360107421875 280.5889892578125 280.3840026855469 279.9209899902344 279.15301513671875 278.2049865722656 277.0989990234375 275.9320068359375 274.8599853515625 273.8739929199219 273.03900146484375 272.3290100097656 271.7120056152344 271.2170104980469 270.7430114746094 270.3659973144531 269.9620056152344 269.4549865722656 268.8869934082031 268.15399169921875 267.3550109863281 266.4519958496094 265.4859924316406 264.5570068359375 263.7489929199219 263.0350036621094 262.2900085449219 261.56298828125 260.58599853515625 259.3900146484375 258.010009765625 256.5880126953125 -9999
-9999 -9999 -9999 -9999 -9999 -9999 -9999 279.46099853515625 279.2090148925781 279.2539978027344 279.3190002441406 279.4530029296875 279.72698974609375 280.4670104980469 280.1839904785156 280.1260070800781 279.8330078125 279.5039978027344 279.27301025390625 278.9590148925781 278.6730041503906 278.4219970703125 278.2380065917969 278.1210021972656 278.03900146484375 277.9259948730469 277.7300109863281 277.52301025390625 277.302001953125 277.1709899902344 276.9909973144531 276.7919921875 276.50299072265625 276.1319885253906 275.6940002441406 275.3349914550781 274.79400634765625 273.7820129394531 272.72698974609375 271.875 270.82501220703125 269.635009765625 268.5450134277344 267.51800537109375 266.5060119628906 265.4209899902344 264.3210144042969 263.21600341796875 262.04901123046875 260.9460144042969 259.8550109863281 258.8840026855469 258.21099853515625 257.6340026855469 257.16900634765625 256.75201416015625 256.4880065917969 256.81201171875 257.2760009765625 258.01800537109375 258.4830017089844 260.59100341796875 262.4960021972656 264.6239929199219 265.89898681640625 266.12799072265625 265.86700439453125 265.1449890136719 264.1929931640625 263.26300048828125 262.3299865722656 261.34100341796875 260.4150085449219 259.489990234375 258.5539855957031 257.6820068359375 256.77301025390625 255.9290008544922 255.01400756835938 254.13400268554688 253.21800231933594 252.1929931640625 251.1439971923828 250.1439971923828 249.2270050048828 248.42999267578125 247.4459991455078 246.92599487304688 246.05099487304688 245.26300048828125 244.4250030517578 243.27099609375 242.98599243164062 242.93699645996094 242.947998046875 243.0800018310547 243.2949981689453 244.5449981689453 245.71099853515625 248.09800720214844 252.9239959716797 258.635009765625 263.1860046386719 267.4960021972656 270.1860046386719 272.2070007324219 273.677001953125 275.2040100097656 275.7300109863281 275.6719970703125 275.385986328125 274.7699890136719 273.3739929199219 271.8580017089844 270.38299560546875 269.37799072265625 269.02099609375 269.3659973144531 270.7090148925781 272.34100341796875 274.3789978027344 276.3919982910156 278.2969970703125 279.3810119628906 280.12799072265625 280.4909973144531 280.5450134277344 280.2510070800781 279.7439880371094 279.0570068359375 278.1830139160156 277.24700927734375 276.3039855957031 275.3210144042969 274.5 273.7510070800781 273.0450134277344 272.44000244140625 271.885986328125 271.2850036621094 270.7179870605469 270.0840148925781 269.4159851074219 268.6059875488281 267.7430114746094 267.02899169921875 266.3110046386719 265.614990234375 264.9849853515625 264.15399169921875 263.9389953613281 263.2070007324219 262.2950134277344 261.21099853515625 259.8169860839844 258.07598876953125 -9999
-9999 -9999 -9999 -9999 -9999 -9999 -9999 -9999 279.2950134277344 279.2099914550781 279.5710144042969 280.239013671875 280.2749938964844 280.4410095214844 280.3869934082031 280.0979919433594 279.8789978027344 279.5580139160156 279.32000732421875 279.05999755859375 278.83599853515625 278.5559997558594 277.9930114746094 278.1700134277344 278.2330017089844 278.1180114746094 278.0360107421875 277.9330139160156 277.8070068359375 277.6610107421875 277.54901123046875 277.510009765625 277.3240051269531 276.97698974609375 276.4949951171875 275.97698974609375 275.3450012207031 274.2460021972656 273.1340026855469 272.27398681640625 271.2049865722656 270.13800048828125 269.0010070800781 268.0249938964844 267.1319885253906 266.1940002441406 265.16900634765625 264.0530090332031 262.90301513671875 261.635009765625 260.4809875488281 259.38299560546875 258.3599853515625 257.6409912109375 257.052001953125 256.56201171875 256.1470031738281 255.8470001220703 256.16900634765625 256.6820068359375 257.3900146484375 258.031005859375 259.8940124511719 261.77801513671875 263.6289978027344 264.3789978027344 264.3999938964844 263.85699462890625 263.01800537109375 262.2130126953125 261.3659973144531 260.5299987792969 259.6600036621094 258.7969970703125 257.8810119628906 256.968994140625 256.03900146484375 254.9969940185547 254.2449951171875 253.5260009765625 252.58200073242188 251.71800231933594 250.69200134277344 249.79800415039062 249.05799865722656 248.26499938964844 247.39999389648438 246.57200622558594 245.70399475097656 244.92599487304688 244.093994140625 242.83299255371094 242.64500427246094 242.64100646972656 242.6540069580078 242.73199462890625 242.5279998779297 243.98500061035156 245.07000732421875 246.92799377441406 251.98800659179688 257.1400146484375 261.635009765625 265.9330139160156 268.2650146484375 270.78399658203125 272.6400146484375 274.27301025390625 275.4469909667969 275.1730041503906 274.1210021972656 273.239013671875 271.3599853515625 268.6889953613281 266.84698486328125 266.010009765625 265.7430114746094 266.8420104980469 269.3389892578125 271.3529968261719 273.15899658203125 275.2309875488281 277.0979919433594 278.6470031738281 279.72100830078125 280.3070068359375 280.5580139160156 280.38299560546875 280.0690002441406 279.5979919433594 278.8810119628906 278.0610046386719 277.1549987792969 276.3219909667969 275.4739990234375 274.697998046875 273.9330139160156 273.2250061035156 272.5400085449219 271.8160095214844 271.114990234375 270.41900634765625 269.6449890136719 268.864990234375 268.2640075683594 267.6340026855469 267.0719909667969 266.64801025390625 266.1600036621094 265.97198486328125 265.74798583984375 265.09100341796875 264.343994140625 263.34100341796875 261.97601318359375 260.09600830078125 -9999
-9999 -9999 -9999 -9999 -9999 -9999 -9999 -9999 278.7049865722656 279.0870056152344 279.4209899902344 279.9750061035156 280.2300109863281 280.2300109863281 280.1929931640625 280.0610046386719 279.8160095214844 279.55499267578125 279.27301025390625 278.9670104980469 278.739990234375 278.5409851074219 278.3489990234375 278.09100341796875 277.5119934082031 278.2040100097656 278.1449890136719 278.0989990234375 278.01800537109375 277.968994140625 277.8529968261719 277.8399963378906 277.60101318359375 277.5539855957031 276.98699951171875 276.5169982910156 275.59600830078125 274.635009765625 273.6180114746094 272.5069885253906 271.4570007324219 270.40899658203125 269.4339904785156 268.4840087890625 267.5400085449219 266.6910095214844 265.8330078125 264.8320007324219 263.677001953125 262.46099853515625 261.16900634765625 260.0010070800781 258.8169860839844 257.81201171875 257.0169982910156 256.3970031738281 255.91900634765625 255.4429931640625 255.2169952392578 255.57899475097656 256.0429992675781 256.8139953613281 257.5350036621094 259.3070068359375 261.1189880371094 262.38800048828125 262.88800048828125 262.5119934082031 261.927001953125 261.1780090332031 260.3789978027344 259.52301025390625 258.7359924316406 257.9179992675781 257.0530090332031 256.05999755859375 254.87100219726562 254.08599853515625 253.21200561523438 252.41099548339844 251.68299865722656 250.88600158691406 250.00100708007812 249.24000549316406 248.48300170898438 247.8159942626953 247.1300048828125 246.05599975585938 245.29200744628906 244.57200622558594 243.80599975585938 242.50599670410156 242.39300537109375 242.38999938964844 242.43499755859375 242.3939971923828 242.43099975585938 243.42999267578125 244.46499633789062 245.73699951171875 250.64599609375 254.99899291992188 260.3370056152344 263.4339904785156 266.2090148925781 269.1409912109375 271.42999267578125 273.0920104980469 273.7749938964844 273.4209899902344 270.94000244140625 268.9389953613281 267.1340026855469 265.68499755859375 264.2569885253906 263.38800048828125 263.61700439453125 265.1730041503906 267.0329895019531 270.3689880371094 272.0920104980469 274.2439880371094 276.260009765625 277.8030090332031 279.17999267578125 280.11199951171875 280.5090026855469 280.38299560546875 280.02398681640625 279.62200927734375 279.02398681640625 278.343994140625 277.6080017089844 276.7919921875 275.9930114746094 275.2170104980469 274.40899658203125 273.6419982910156 272.8429870605469 272.0799865722656 271.3269958496094 270.5899963378906 270.0190124511719 269.48699951171875 268.9960021972656 268.5530090332031 268.08599853515625 267.6730041503906 267.26800537109375 267.218994140625 267.2120056152344 266.85400390625 266.32501220703125 265.3580017089844 264.1319885253906 262.3919982910156 -9999
-9999 -9999 -9999 -9999 -9999 -9999 -9999 -9999 -9999 278.2919921875 279.14898681640625 279.656005859375 279.9779968261719 280.05999755859375 280.0459899902344 279.87298583984375 279.64300537109375 279.3609924316406 279.02301025390625 278.677001953125 278.4809875488281 278.3179931640625 278.2460021972656 278.18798828125 278.17401123046875 278.3550109863281 277.2070007324219 278.1650085449219 278.0539855957031 278.03399658203125 277.9209899902344 277.8699951171875 277.7720031738281 277.4859924316406 277.2550048828125 276.6470031738281 275.6820068359375 274.8179931640625 273.94500732421875 272.9800109863281 271.78900146484375 270.635009765625 269.6919860839844 268.7640075683594 267.94000244140625 267 266.13800048828125 265.2860107421875 264.2690124511719 263.08599853515625 261.822998046875 260.56500244140625 259.4119873046875 258.1719970703125 257.1579895019531 256.37701416015625 255.73699951171875 255.25799560546875 254.7469940185547 254.69000244140625 255.04100036621094 255.5019989013672 256.34600830078125 257.04400634765625 258.9110107421875 260.1679992675781 260.9649963378906 261.06500244140625 260.61199951171875 259.9540100097656 259.1830139160156 258.3739929199219 257.531005859375 256.6700134277344 255.75599670410156 254.71299743652344 253.9969940185547 252.96099853515625 251.9980010986328 251.2790069580078 250.60699462890625 249.92799377441406 249.28700256347656 248.62399291992188 247.96400451660156 247.4029998779297 246.23899841308594 245.54400634765625 244.9010009765625 244.20399475097656 243.50599670410156 242.302001953125 242.13400268554688 242.12399291992188 242.1479949951172 242.0850067138672 242.19900512695312 242.98699951171875 243.9759979248047 245.12100219726562 248.85899353027344 253.17999267578125 257.9639892578125 261.1289978027344 264.4209899902344 267.2439880371094 269.59100341796875 270.3269958496094 270.2669982910156 269.0820007324219 267.59100341796875 265.8190002441406 264.2449951171875 262.6839904785156 261.4570007324219 261.0069885253906 261.95599365234375 263.6300048828125 265.7340087890625 269.56298828125 271.3160095214844 273.406005859375 275.4280090332031 277.0320129394531 278.51300048828125 279.8590087890625 280.4630126953125 280.4070129394531 280.16900634765625 279.79901123046875 279.25201416015625 278.6310119628906 277.97698974609375 277.2229919433594 276.5 275.7980041503906 275.0400085449219 274.31500244140625 273.5299987792969 272.7760009765625 271.9800109863281 271.3320007324219 270.7340087890625 270.23699951171875 269.8450012207031 269.489990234375 269.1369934082031 268.6700134277344 268.4779968261719 268.3970031738281 268.2900085449219 267.9849853515625 267.4469909667969 266.6650085449219 265.7030029296875 264.135009765625 -9999
-9999 -9999 -9999 -9999 -9999 -9999 -9999 -9999 -9999 277.00201416015625 278.65301513671875 279.1990051269531 279.6600036621094 279.8330078125 279.7869873046875 279.5610046386719 279.2879943847656 278.96600341796875 278.6050109863281 278.2349853515625 277.95001220703125 277.9150085449219 277.97198486328125 277.9939880371094 278.0899963378906 278.05999755859375 277.9519958496094 276.7950134277344 278.0320129394531 277.9419860839844 277.8550109863281 277.72100830078125 277.6449890136719 277.5260009765625 277.10699462890625 276.4150085449219 275.67498779296875 274.9440002441406 274.08099365234375 273.1000061035156 272.1520080566406 271.072998046875 269.9230041503906 269.031005859375 268.093994140625 267.2550048828125 266.2919921875 265.40899658203125 264.57598876953125 263.4530029296875 262.29400634765625 261.12298583984375 259.8429870605469 258.6659851074219 257.47900390625 256.4530029296875 255.67100524902344 255.072998046875 254.67100524902344 254.33999633789062 254.3350067138672 254.59100341796875 255.11199951171875 255.6479949951172 256.29901123046875 256.7030029296875 258.99798583984375 259.197998046875 259.11199951171875 258.4989929199219 257.760009765625 256.8689880371094 255.97000122070312 255.1490020751953 254.4709930419922 253.64199829101562 252.72999572753906 251.81900024414062 251.02499389648438 250.29100036621094 249.68099975585938 249.13600158691406 248.57000732421875 248.00999450683594 247.40899658203125 246.91600036621094 245.85499572753906 245.14599609375 244.55499267578125 243.85400390625 243.3249969482422 242.17100524902344 241.98800659179688 241.98500061035156 241.9409942626953 241.8730010986328 241.87899780273438 242.5749969482422 243.42100524902344 244.63699340820312 247.16299438476562 251.2480010986328 255.7449951171875 259.1860046386719 262.18701171875 265.3609924316406 266.7590026855469 267.1400146484375 266.2659912109375 265.2869873046875 263.7640075683594 262.43798828125 261.1549987792969 259.9530029296875 259.0409851074219 258.97900390625 260.9159851074219 262.15399169921875 264.3269958496094 267.625 270.8900146484375 272.739990234375 274.77801513671875 276.5060119628906 278.2330017089844 279.5010070800781 280.2619934082031 280.3330078125 280.0950012207031 279.71099853515625 279.2040100097656 278.6510009765625 278.0369873046875 277.36700439453125 276.72698974609375 276.11700439453125 275.43798828125 274.7510070800781 274.1099853515625 273.44000244140625 272.7869873046875 272.27801513671875 271.7539978027344 271.2619934082031 270.8689880371094 270.4930114746094 270.1400146484375 269.6759948730469 269.4230041503906 269.2909851074219 269.05499267578125 268.6059875488281 267.9230041503906 267.0820007324219 266.27099609375 265.07000732421875 -9999
-9999 -9999 -9999 -9999 -9999 -9999 -9999 -9999 -9999 274.2170104980469 278.03900146484375 278.8609924316406 279.1340026855469 279.2760009765625 279.27099609375 279.07598876953125 278.7019958496094 278.2659912109375 277.88299560546875 277.5169982910156 277.2980041503906 277.2850036621094 277.3699951171875 277.5350036621094 277.7640075683594 277.8909912109375 277.989990234375 277.8940124511719 277.5369873046875 276.4309997558594 277.6369934082031 277.5039978027344 277.4570007324219 277.3800048828125 276.74200439453125 275.97198486328125 275.468994140625 274.9330139160156 274.1579895019531 273.3070068359375 272.31500244140625 271.3290100097656 270.3179931640625 269.18701171875 268.21099853515625 267.260009765625 266.3800048828125 265.4460144042969 264.55499267578125 263.6260070800781 262.5260009765625 261.47698974609375 260.2510070800781 259.0199890136719 257.7909851074219 256.552001953125 255.68800354003906 254.9040069580078 254.50999450683594 254.31900024414062 254.08099365234375 254.04299926757812 254.2449951171875 254.49099731445312 254.8000030517578 255.39999389648438 255.95599365234375 256.3949890136719 256.79400634765625 256.70599365234375 256.3429870605469 255.59300231933594 254.75100708007812 253.88900756835938 253.01199340820312 252.218994140625 251.4929962158203 250.78900146484375 250.12600708007812 249.53599548339844 249.02699279785156 248.48300170898438 247.9720001220703 247.3730010986328 246.95399475097656 246.67599487304688 245.47900390625 244.8300018310547 244.25799560546875 243.60899353027344 242.3939971923828 241.99000549316406 241.8260040283203 241.70399475097656 241.7449951171875 241.54800415039062 241.56399536132812 242.2220001220703 243.0260009765625 243.99400329589844 246.25 250.2030029296875 253.45399475097656 256.9280090332031 260.302001953125 262.5409851074219 263.4339904785156 263.57598876953125 262.3009948730469 261.13800048828125 260.0140075683594 259.0799865722656 258.10699462890625 257.5419921875 257.38800048828125 258.0679931640625 258.7760009765625 261.3240051269531 263.8999938964844 267.2139892578125 270.781005859375 272.38299560546875 274.2550048828125 276.65899658203125 277.9280090332031 279.114013671875 279.9570007324219 280.07501220703125 279.8699951171875 279.59100341796875 279.1239929199219 278.6319885253906 278.1409912109375 277.6090087890625 277.1000061035156 276.531005859375 275.9679870605469 275.3500061035156 274.69500732421875 274.1440124511719 273.59100341796875 272.99700927734375 272.43499755859375 272.0400085449219 271.6719970703125 271.1839904785156 270.7090148925781 270.3210144042969 269.9460144042969 269.6719970703125 269.25299072265625 268.6300048828125 267.8789978027344 267.2040100097656 266.2919921875 265.2229919433594 -9999
-9999 -9999 -9999 -9999 -9999 -9999 -9999 -9999 -9999 -9999 277.57000732421875 278.06500244140625 278.6080017089844 278.68499755859375 278.6610107421875 278.3399963378906 277.8949890136719 277.4070129394531 276.9219970703125 276.56201171875 276.5060119628906 276.6180114746094 276.77099609375 277.0190124511719 277.32000732421875 277.60699462890625 277.6820068359375 277.8219909667969 277.6839904785156 277.37701416015625 276.0450134277344 277.1679992675781 276.9209899902344 276.86199951171875 276.3190002441406 275.90399169921875 275.2699890136719 274.68798828125 274.1419982910156 273.406005859375 272.4639892578125 271.4679870605469 270.4739990234375 269.4670104980469 268.25299072265625 267.25799560546875 266.3139953613281 265.3819885253906 264.4490051269531 263.56201171875 262.5849914550781 261.5790100097656 260.4909973144531 259.2340087890625 257.9880065917969 256.7550048828125 255.72799682617188 254.96600341796875 254.41099548339844 254.197998046875 254.02499389648438 253.7689971923828 253.57699584960938 253.4550018310547 253.51499938964844 253.86900329589844 254.42599487304688 254.9510040283203 255.36199951171875 255.35400390625 254.9080047607422 254.0679931640625 253.2050018310547 252.3780059814453 251.6529998779297 250.9759979248047 250.35699462890625 249.8730010986328 249.39199829101562 248.88400268554688 248.40499877929688 247.83099365234375 247.177001953125 246.68299865722656 246.64100646972656 246.31500244140625 245.16400146484375 244.5030059814453 243.93299865722656 243.58999633789062 242.00399780273438 241.80499267578125 241.656005859375 241.63900756835938 241.531005859375 241.2030029296875 241.0919952392578 241.65199279785156 242.66400146484375 243.4029998779297 244.46299743652344 248.03199768066406 250.66799926757812 253.15199279785156 257.1090087890625 259.9100036621094 260.5889892578125 260.0740051269531 258.50799560546875 257.7430114746094 257.35101318359375 256.8089904785156 255.1269989013672 254.63999938964844 255.2760009765625 256.22900390625 257.7669982910156 260.6619873046875 263.2349853515625 266.406005859375 270.70599365234375 272.10101318359375 273.69500732421875 276.2539978027344 277.5660095214844 278.6579895019531 279.50799560546875 279.7309875488281 279.6369934082031 279.3940124511719 279.0559997558594 278.71600341796875 278.3609924316406 278.03399658203125 277.5790100097656 277.125 276.5610046386719 275.9440002441406 275.3479919433594 274.75 274.1919860839844 273.52099609375 273.0379943847656 272.6090087890625 272.0780029296875 271.5150146484375 271.00299072265625 270.4360046386719 270.0509948730469 269.5889892578125 268.9840087890625 268.2929992675781 267.73699951171875 266.9930114746094 266.1889953613281 265.1659851074219 -9999
-9999 -9999 -9999 -9999 -9999 -9999 -9999 -9999 -9999 -9999 276.6700134277344 277.8290100097656 277.989013671875 278.0050048828125 277.85198974609375 277.468994140625 276.8710021972656 276.260986328125 275.7860107421875 275.4339904785156 275.5379943847656 275.84698486328125 276.1520080566406 276.4809875488281 276.8280029296875 277.1029968261719 277.3760070800781 277.4989929199219 277.552001953125 277.5270080566406 277.2080078125 275.7099914550781 275.7349853515625 276.3429870605469 276.07000732421875 275.66400146484375 275.19500732421875 274.61199951171875 274.010009765625 273.38299560546875 272.59600830078125 271.6090087890625 270.5360107421875 269.4590148925781 268.31298828125 267.14801025390625 266.1709899902344 265.2380065917969 264.2409973144531 263.3819885253906 262.52099609375 261.5090026855469 260.5010070800781 259.3699951171875 258.04400634765625 256.9179992675781 255.8090057373047 255.02999877929688 254.54800415039062 254.1320037841797 253.7239990234375 253.2270050048828 252.8209991455078 252.47500610351562 252.50799560546875 252.6909942626953 252.968994140625 253.39999389648438 253.7779998779297 253.875 253.44400024414062 252.63499450683594 251.83900451660156 251.10400390625 250.47999572753906 249.92799377441406 249.41099548339844 248.98800659179688 248.51400756835938 248.01699829101562 247.49000549316406 246.87100219726562 246.41099548339844 246.23699951171875 246.572998046875 245.57200622558594 244.7729949951172 244.24600219726562 243.875 242.4239959716797 241.8350067138672 241.60800170898438 241.43499755859375 241.34500122070312 241.177001953125 240.88900756835938 240.8280029296875 241.13900756835938 242.2519989013672 242.9759979248047 243.80999755859375 246.22000122070312 248.5919952392578 250.5229949951172 253.99200439453125 255.73800659179688 256.2309875488281 256.37799072265625 254.64500427246094 254.2169952392578 253.94900512695312 253.4669952392578 253.21499633789062 253.0500030517578 254.05499267578125 255.19400024414062 257.12200927734375 259.3080139160156 263.15899658203125 266.2149963378906 269.58599853515625 271.96099853515625 273.2969970703125 275.7720031738281 276.9880065917969 278.06201171875 279.010986328125 279.4079895019531 279.4389953613281 279.3179931640625 279.13299560546875 278.947998046875 278.718994140625 278.37799072265625 278.05999755859375 277.57598876953125 277.0849914550781 276.51300048828125 275.88800048828125 275.2139892578125 274.3450012207031 273.6310119628906 273.1130065917969 272.6369934082031 272.0719909667969 271.42999267578125 270.7489929199219 270.1889953613281 269.6759948730469 269.1080017089844 268.4580078125 267.8489990234375 267.2799987792969 266.5299987792969 265.7510070800781 -9999 -9999
-9999 -9999 -9999 -9999 -9999 -9999 -9999 -9999 -9999 -9999 -9999 277.260986328125 277.4150085449219 277.2760009765625 276.9129943847656 276.4110107421875 275.71600341796875 275.0270080566406 274.45599365234375 274.1839904785156 274.31500244140625 274.7569885253906 275.3630065917969 275.8190002441406 276.1709899902344 276.4800109863281 276.802001953125 277.0169982910156 277.2669982910156 277.3110046386719 277.02899169921875 276.72698974609375 275.4259948730469 275.01800537109375 275.63299560546875 275.385009765625 275.04400634765625 274.5350036621094 273.9209899902344 273.2380065917969 272.5610046386719 271.6679992675781 270.5830078125 269.44000244140625 268.322998046875 267.10699462890625 265.9490051269531 265.0669860839844 264.135986328125 263.1990051269531 262.3869934082031 261.4339904785156 260.3810119628906 259.2619934082031 258.0979919433594 256.9859924316406 256.05999755859375 255.23599243164062 254.53199768066406 254.1009979248047 253.45399475097656 252.7740020751953 252.1840057373047 251.88900756835938 251.5469970703125 251.67100524902344 251.97799682617188 252.25599670410156 252.4239959716797 252.4250030517578 251.98199462890625 251.3159942626953 250.66900634765625 250.02699279785156 249.42300415039062 248.8470001220703 248.302001953125 247.79100036621094 247.35400390625 246.94700622558594 246.5260009765625 246.15699768066406 245.78599548339844 245.54200744628906 246.1009979248047 245.23199462890625 244.6840057373047 243.97900390625 242.89100646972656 241.9949951171875 241.63099670410156 241.27200317382812 241.08599853515625 241.01100158691406 240.91299438476562 240.5709991455078 240.57899475097656 240.73199462890625 241.68899536132812 242.49200439453125 243.1490020751953 244.30999755859375 246.85299682617188 248.51600646972656 250.73699951171875 251.40499877929688 252.91700744628906 253.20799255371094 252.69700622558594 251.906005859375 251.50799560546875 251.33700561523438 251.375 251.68800354003906 252.3699951171875 254.45899963378906 256.64599609375 259.1510009765625 263.2460021972656 266.14801025390625 269.03399658203125 271.7959899902344 272.885986328125 275.0660095214844 276.3070068359375 277.4110107421875 278.47900390625 279.1109924316406 279.3089904785156 279.2909851074219 279.1990051269531 279.0299987792969 278.864013671875 278.6440124511719 278.281005859375 277.9259948730469 277.4280090332031 276.8269958496094 275.9949951171875 275.1059875488281 274.239990234375 273.5769958496094 272.8810119628906 272.1659851074219 271.59600830078125 270.947998046875 270.3080139160156 269.70098876953125 269.0669860839844 268.45599365234375 267.8269958496094 267.24700927734375 266.5979919433594 265.92999267578125 265.1369934082031 -9999 -9999
-9999 -9999 -9999 -9999 -9999 -9999 -9999 -9999 -9999 -9999 -9999 276.427001953125 276.593994140625 276.2430114746094 275.6600036621094 274.88800048828125 274.15399169921875 273.59600830078125 273.14599609375 272.8949890136719 273.00201416015625 273.5419921875 274.2550048828125 274.9169921875 275.3919982910156 275.7650146484375 276.05999755859375 276.34100341796875 276.60198974609375 276.572998046875 276.53900146484375 276.32501220703125 275.95001220703125 275.6969909667969 274.6789855957031 274.90301513671875 274.7130126953125 274.28399658203125 273.7650146484375 273.1470031738281 272.3039855957031 271.5249938964844 270.5820007324219 269.4110107421875 268.24700927734375 267.114013671875 265.90399169921875 264.906005859375 264.12298583984375 263.2239990234375 262.31500244140625 261.4460144042969 260.3599853515625 259.1619873046875 258.0409851074219 257.1090087890625 256.2340087890625 255.25399780273438 254.5919952392578 253.8800048828125 253.17599487304688 252.7429962158203 252.25799560546875 251.8509979248047 251.3159942626953 250.9340057373047 250.66099548339844 250.88299560546875 251.51499938964844 251.31700134277344 250.82200622558594 250.29100036621094 249.69900512695312 249.09100341796875 248.45799255371094 247.89300537109375 247.36900329589844 246.95799255371094 246.58200073242188 246.33999633789062 245.8939971923828 245.59100341796875 245.30999755859375 245.15899658203125 245.5970001220703 245.42799377441406 244.35499572753906 243.47000122070312 242.5679931640625 241.95700073242188 241.3350067138672 241.21800231933594 241.23599243164062 241.031005859375 240.61599731445312 240.32200622558594 240.2310028076172 240.3419952392578 240.8979949951172 241.94700622558594 242.5260009765625 243.33399963378906 245.46099853515625 246.1199951171875 247.177001953125 248.99200439453125 250.02699279785156 250.56500244140625 250.39500427246094 250.00100708007812 249.66900634765625 249.54800415039062 249.87100219726562 250.5919952392578 251.593994140625 254.0749969482422 256.4070129394531 259.14801025390625 263.39300537109375 266.0840148925781 268.989990234375 271.6499938964844 272.531005859375 274.1839904785156 275.50201416015625 276.6189880371094 277.739990234375 278.5169982910156 278.98699951171875 279.1470031738281 279.1570129394531 279.0889892578125 278.8370056152344 278.7130126953125 278.4429931640625 278.02398681640625 277.5119934082031 276.67401123046875 275.7179870605469 274.8030090332031 273.989013671875 273.18499755859375 272.3739929199219 271.6960144042969 271.04901123046875 270.40899658203125 269.7669982910156 269.1199951171875 268.4200134277344 267.71099853515625 267.1679992675781 266.5190124511719 265.92401123046875 265.2170104980469 264.4259948730469 -9999 -9999
-9999 -9999 -9999 -9999 -9999 -9999 -9999 -9999 -9999 -9999 -9999 -9999 275.3819885253906 274.9289855957031 274.13299560546875 273.29901123046875 272.6080017089844 271.9410095214844 271.5379943847656 271.45098876953125 271.6310119628906 272.3179931640625 272.9840087890625 273.63800048828125 274.1570129394531 274.67401123046875 275.0639953613281 275.3059997558594 275.3699951171875 275.39300537109375 275.4599914550781 275.4049987792969 275.26300048828125 274.9580078125 274.6960144042969 274.0989990234375 274.56500244140625 274.06201171875 273.5509948730469 272.9440002441406 272.2330017089844 271.29901123046875 270.39801025390625 269.37701416015625 268.2799987792969 267.1210021972656 266.07501220703125 264.9590148925781 264.1839904785156 263.4119873046875 262.4389953613281 261.5060119628906 260.5469970703125 259.35699462890625 258.2909851074219 257.3909912109375 256.36199951171875 255.47900390625 254.7570037841797 253.8470001220703 253.07000732421875 252.6060028076172 252.36199951171875 251.94000244140625 251.5050048828125 250.92300415039062 249.82200622558594 249.89100646972656 249.41700744628906 249.24000549316406 248.72999572753906 248.64700317382812 248.51499938964844 248.1479949951172 247.41099548339844 246.78599548339844 246.62600708007812 246.42300415039062 246.03399658203125 245.75900268554688 245.56300354003906 245.2570037841797 245.0780029296875 245.01300048828125 244.94700622558594 245.9980010986328 244.0989990234375 243.4969940185547 242.8730010986328 242.13999938964844 241.76600646972656 241.4199981689453 241.21600341796875 240.6009979248047 240.77200317382812 240.3040008544922 240.10800170898438 240.02000427246094 240.31199645996094 241.4510040283203 242.1320037841797 242.70700073242188 243.6199951171875 244.6540069580078 245.71200561523438 246.65199279785156 247.43499755859375 248.16000366210938 248.42100524902344 248.3159942626953 248.18899536132812 248.26400756835938 248.70199584960938 249.48399353027344 250.9720001220703 252.656005859375 256.1619873046875 259.3080139160156 261.95098876953125 266.14599609375 268.4309997558594 271.2409973144531 272.0249938964844 273.260986328125 274.59100341796875 275.7099914550781 276.8869934082031 277.79400634765625 278.42401123046875 278.8210144042969 278.8949890136719 278.90399169921875 278.7950134277344 278.625 278.39801025390625 277.8659973144531 277.135009765625 276.239013671875 275.2720031738281 274.239013671875 273.39300537109375 272.53900146484375 271.8909912109375 271.11700439453125 270.48199462890625 269.8429870605469 269.20098876953125 268.4670104980469 267.6830139160156 267.1099853515625 266.49700927734375 265.8940124511719 265.2489929199219 264.46600341796875 263.6919860839844 -9999 -9999
-9999 -9999 -9999 -9999 -9999 -9999 -9999 -9999 -9999 -9999 -9999 -9999 273.8599853515625 273.2850036621094 272.52099609375 271.6940002441406 271.0610046386719 270.5740051269531 270.1839904785156 270.0719909667969 270.24700927734375 270.77899169921875 271.4859924316406 272.135986328125 272.7019958496094 273.07501220703125 273.4939880371094 273.7820129394531 273.71600341796875 273.88800048828125 273.97198486328125 273.9419860839844 273.97601318359375 274.1159973144531 274.0039978027344 273.9630126953125 273.5450134277344 274.114013671875 273.43701171875 272.7300109863281 272.1090087890625 271.2200012207031 270.2860107421875 269.3349914550781 268.3680114746094 267.3280029296875 266.3290100097656 265.3689880371094 264.39599609375 263.62701416015625 262.81500244140625 261.9079895019531 261.0530090332031 260.17498779296875 259.0820007324219 258.0360107421875 257.156005859375 256.2669982910156 255.23300170898438 254.281005859375 253.51499938964844 252.86700439453125 252.40699768066406 251.9949951171875 251.70700073242188 251.24400329589844 250.75100708007812 250.17799377441406 249.3820037841797 248.75100708007812 248.46099853515625 248.27200317382812 247.6230010986328 247.17100524902344 246.8560028076172 246.6479949951172 246.29600524902344 246.093994140625 245.8249969482422 245.6719970703125 245.36099243164062 245.0469970703125 245.2050018310547 245.09100341796875 243.99200439453125 245.9029998779297 243.59100341796875 243.2310028076172 242.83999633789062 242.41099548339844 241.96200561523438 241.6699981689453 240.93099975585938 240.80499267578125 240.6219940185547 240.1300048828125 240.04800415039062 239.61700439453125 240.18099975585938 241.33900451660156 241.64100646972656 242.06199645996094 242.7530059814453 243.53399658203125 244.281005859375 245.15199279785156 245.86900329589844 246.45199584960938 246.77499389648438 246.80499267578125 246.85299682617188 247.07400512695312 247.6230010986328 248.58700561523438 250.47799682617188 252.52999877929688 255.4720001220703 259.0660095214844 262.04998779296875 266.0589904785156 267.54901123046875 270.44000244140625 271.5299987792969 272.3009948730469 273.6260070800781 274.67401123046875 275.73699951171875 276.7340087890625 277.5679931640625 278.1960144042969 278.5220031738281 278.55499267578125 278.5090026855469 278.3429870605469 277.81500244140625 277.1669921875 276.4599914550781 275.5360107421875 274.49200439453125 273.47601318359375 272.6310119628906 271.8869934082031 271.3269958496094 270.6090087890625 269.9490051269531 269.20599365234375 268.4729919433594 267.6600036621094 267.1090087890625 266.489013671875 265.92401123046875 265.2720031738281 264.4930114746094 263.7449951171875 263.0660095214844 -9999 -9999
-9999 -9999 -9999 -9999 -9999 -9999 -9999 -9999 -9999 -9999 -9999 -9999 271.95599365234375 271.4549865722656 270.72100830078125 270.06298828125 269.5270080566406 269.1510009765625 268.8890075683594 268.822998046875 268.9169921875 269.3710021972656 269.8800048828125 270.43798828125 271.08599853515625 271.427001953125 271.7909851074219 271.8429870605469 271.85198974609375 272.0039978027344 272.125 272.22100830078125 272.4490051269531 272.79901123046875 273.1419982910156 273.2909851074219 273.4519958496094 273.0039978027344 273.4490051269531 272.78900146484375 271.9630126953125 271.2900085449219 270.3389892578125 269.4219970703125 268.54901123046875 267.6419982910156 266.6889953613281 265.8030090332031 264.86199951171875 264.10699462890625 263.37298583984375 262.69000244140625 261.9110107421875 261.09600830078125 260.0830078125 259.1159973144531 258.1830139160156 257.2300109863281 256.3949890136719 255.0709991455078 254.4219970703125 253.70700073242188 253.0659942626953 252.50799560546875 252.0279998779297 251.56300354003906 251.14999389648438 250.6199951171875 250.09100341796875 249.01400756835938 248.56100463867188 248.09300231933594 247.5399932861328 247.16700744628906 246.9040069580078 246.75 246.44500732421875 246.25399780273438 246.02099609375 245.7010040283203 245.43699645996094 245.2550048828125 245.20199584960938 245.0959930419922 245.02099609375 245.95799255371094 244.6739959716797 243.7220001220703 243.052001953125 242.6580047607422 242.0449981689453 241.7689971923828 241.46800231933594 241.0399932861328 240.49899291992188 240.0659942626953 239.75399780273438 239.5800018310547 239.55799865722656 239.86099243164062 240.98899841308594 241.40199279785156 241.91700744628906 242.5070037841797 243.11099243164062 243.6739959716797 244.25900268554688 244.83799743652344 245.22999572753906 245.4429931640625 245.65499877929688 246.0760040283203 246.75900268554688 247.7310028076172 248.77000427246094 252.66900634765625 255.10899353027344 258.91900634765625 261.5820007324219 265.07000732421875 266.2430114746094 269.4110107421875 270.77899169921875 271.2409973144531 272.2650146484375 273.3800048828125 274.5169982910156 275.5899963378906 276.4590148925781 277.1470031738281 277.5929870605469 277.75201416015625 277.65899658203125 277.4549865722656 276.9840087890625 276.3370056152344 275.55499267578125 274.6059875488281 273.6059875488281 272.70001220703125 271.8949890136719 271.3399963378906 270.7359924316406 270.0379943847656 269.25 268.4630126953125 267.69500732421875 267.0849914550781 266.5539855957031 266.00201416015625 265.40899658203125 264.64300537109375 263.87298583984375 263.13299560546875 262.3609924316406 -9999 -9999
-9999 -9999 -9999 -9999 -9999 -9999 -9999 -9999 -9999 -9999 -9999 -9999 -9999 269.4949951171875 268.87200927734375 268.4339904785156 268.0010070800781 267.67999267578125 267.5 267.4800109863281 267.6510009765625 267.9989929199219 268.4320068359375 268.85400390625 269.2130126953125 269.697998046875 270.0169982910156 269.8760070800781 270.04400634765625 270.0989990234375 270.2139892578125 270.4110107421875 270.8269958496094 271.3890075683594 271.8909912109375 272.44000244140625 272.7659912109375 272.9490051269531 272.3949890136719 272.5069885253906 271.97100830078125 271.2829895019531 270.57501220703125 269.7080078125 268.864990234375 268.0780029296875 267.20599365234375 266.31500244140625 265.5350036621094 264.7489929199219 264.1099853515625 263.5429992675781 262.8900146484375 262.0669860839844 261.2279968261719 260.3280029296875 259.3190002441406 258.41900634765625 257.6300048828125 256.9750061035156 255.843994140625 254.98500061035156 254.3459930419922 253.6790008544922 253.00100708007812 252.35400390625 251.69200134277344 251.13299560546875 250.63400268554688 250.2480010986328 249.93600463867188 248.43600463867188 247.91400146484375 247.8179931640625 247.052001953125 246.81399536132812 246.58999633789062 246.3260040283203 246.125 245.88499450683594 245.67999267578125 245.48899841308594 245.3459930419922 245.21400451660156 245.27699279785156 245.9759979248047 245.26100158691406 244.0290069580078 243.552001953125 243.12899780273438 242.71299743652344 242.2760009765625 241.80099487304688 241.52200317382812 240.99099731445312 240.08599853515625 239.64199829101562 239.3280029296875 239.57699584960938 239.24899291992188 239.7779998779297 240.81199645996094 241.17599487304688 241.625 242.12100219726562 242.5679931640625 242.96400451660156 243.42999267578125 243.89999389648438 244.33700561523438 244.70399475097656 245.25 246.03900146484375 247.0590057373047 248.25399780273438 251.82699584960938 255.29100036621094 257.5329895019531 260.531005859375 263.14801025390625 264.989990234375 267.37200927734375 268.6719970703125 269.7430114746094 270.61700439453125 271.9389953613281 273.2120056152344 274.38299560546875 275.23199462890625 275.84698486328125 276.2650146484375 276.4930114746094 276.5530090332031 276.3710021972656 275.94000244140625 275.27301025390625 274.4939880371094 273.61700439453125 272.6919860839844 271.8299865722656 271.18798828125 270.6050109863281 270.0480041503906 269.4219970703125 268.5260009765625 267.68499755859375 267.02301025390625 266.489013671875 266.0899963378906 265.5880126953125 264.87701416015625 264.2099914550781 263.4049987792969 262.5820007324219 261.6029968261719 -9999 -9999
-9999 -9999 -9999 -9999 -9999 -9999 -9999 -9999 -9999 -9999 -9999 -9999 -9999 267.85101318359375 267.4119873046875 266.9849853515625 266.62200927734375 266.4100036621094 266.2380065917969 266.1239929199219 266.16400146484375 266.5379943847656 266.989013671875 267.3290100097656 267.6679992675781 268.0360107421875 268.1860046386719 268.15301513671875 268.1579895019531 268.25201416015625 268.4150085449219 268.7049865722656 269.2300109863281 269.927001953125 270.71600341796875 271.40899658203125 272.0010070800781 272.28399658203125 272.46099853515625 271.8949890136719 271.7409973144531 271.2980041503906 270.72601318359375 270.0369873046875 269.2850036621094 268.51800537109375 267.8160095214844 267.0169982910156 266.31298828125 265.6820068359375 264.97900390625 264.44500732421875 263.8039855957031 263.1189880371094 262.2659912109375 261.2950134277344 260.489013671875 259.72698974609375 259.010986328125 258.3009948730469 257.718994140625 257.37799072265625 255.68099975585938 255.30599975585938 254.57899475097656 253.6840057373047 252.70799255371094 251.88499450683594 251.1790008544922 250.66799926757812 250.38499450683594 250.1439971923828 249.98500061035156 249.79800415039062 249.31300354003906 248.8209991455078 248.48599243164062 248.21600341796875 247.9969940185547 247.79800415039062 247.65699768066406 247.4720001220703 247.2449951171875 246.9320068359375 246.4709930419922 246.32200622558594 245.8520050048828 244.572998046875 244.093994140625 243.63800048828125 243.1649932861328 242.66299438476562 242.22500610351562 241.82400512695312 241.37600708007812 240.53500366210938 239.55099487304688 239.26300048828125 239.218994140625 239.29600524902344 238.92799377441406 239.23399353027344 240.6750030517578 240.89700317382812 241.302001953125 241.71800231933594 242.1020050048828 242.47500610351562 242.96299743652344 243.5590057373047 244.04100036621094 244.61000061035156 245.49400329589844 246.67300415039062 247.9949951171875 250.07400512695312 254.95599365234375 256.2829895019531 258.60400390625 260.5849914550781 263.4649963378906 264.7149963378906 267.6780090332031 268.1099853515625 269.2409973144531 270.6239929199219 271.74700927734375 272.9570007324219 273.8429870605469 274.5429992675781 275.0249938964844 275.3240051269531 275.3739929199219 275.2229919433594 274.77398681640625 274.1789855957031 273.489013671875 272.5820007324219 271.7799987792969 271.114013671875 270.4079895019531 269.73699951171875 268.9630126953125 268.27398681640625 267.56500244140625 266.822998046875 266.43798828125 266.0889892578125 265.739013671875 265.29998779296875 264.7449951171875 264.0679931640625 263.2659912109375 262.12200927734375 261.0610046386719 -9999 -9999
-9999 -9999 -9999 -9999 -9999 -9999 -9999 -9999 -9999 -9999 -9999 -9999 -9999 -9999 266.1080017089844 265.85699462890625 265.5589904785156 265.2929992675781 265.1239929199219 264.885009765625 264.760986328125 264.9800109863281 265.3689880371094 265.739013671875 266.1619873046875 266.4119873046875 266.55999755859375 266.6300048828125 266.5400085449219 266.510986328125 266.6700134277344 267.0480041503906 267.6719970703125 268.5559997558594 269.47698974609375 270.364990234375 271.0570068359375 271.6570129394531 271.8240051269531 272.06201171875 271.6759948730469 271.1669921875 270.8110046386719 270.39599609375 269.5870056152344 269.0199890136719 268.40899658203125 267.8269958496094 267.1440124511719 266.59100341796875 265.9909973144531 265.3160095214844 264.7170104980469 263.9909973144531 263.1159973144531 262.2879943847656 261.6050109863281 261.0060119628906 260.4219970703125 259.8370056152344 259.25299072265625 258.7120056152344 258.2430114746094 257.8599853515625 256.031005859375 255.33200073242188 254.27999877929688 253.1739959716797 252.22300720214844 251.49600219726562 251.01100158691406 250.77200317382812 250.64199829101562 250.38800048828125 249.88800048828125 249.4239959716797 249.0780029296875 248.8520050048828 248.70899963378906 248.57200622558594 248.42799377441406 248.22300720214844 248.00399780273438 247.6649932861328 247.17799377441406 246.81199645996094 246.36599731445312 245.2270050048828 244.67300415039062 244.04800415039062 243.47300720214844 242.94400024414062 242.4429931640625 241.97000122070312 241.56900024414062 241.14500427246094 239.39199829101562 239.1280059814453 239.04200744628906 238.53700256347656 238.84800720214844 238.71099853515625 239.02000427246094 240.3560028076172 240.64700317382812 241.03900146484375 241.48300170898438 241.91700744628906 242.40899658203125 242.9810028076172 243.6269989013672 244.23199462890625 245.14199829101562 246.33399963378906 247.71800231933594 249.29100036621094 253.90199279785156 255.08900451660156 256.52899169921875 259.1340026855469 261.8340148925781 263.22100830078125 266.5480041503906 266.9580078125 268.1260070800781 269.40899658203125 270.5469970703125 271.8080139160156 272.6390075683594 273.2829895019531 273.7510070800781 274.0979919433594 274.156005859375 274.031005859375 273.5929870605469 272.9729919433594 272.2090148925781 271.4809875488281 270.8070068359375 270.2340087890625 269.4159851074219 268.57000732421875 267.2590026855469 266.33599853515625 265.2900085449219 265.5710144042969 265.9070129394531 265.75201416015625 265.4830017089844 265.15301513671875 264.7569885253906 264.1960144042969 263.26300048828125 262.02301025390625 260.9930114746094 -9999 -9999
-9999 -9999 -9999 -9999 -9999 -9999 -9999 -9999 -9999 -9999 -9999 -9999 -9999 -9999 265.21600341796875 265.14300537109375 264.9570007324219 264.6059875488281 264.1679992675781 263.73199462890625 263.44000244140625 263.3299865722656 263.7380065917969 264.1659851074219 264.5509948730469 264.7640075683594 265.1719970703125 265.1499938964844 265.20001220703125 264.9679870605469 265.010009765625 265.385986328125 266.1619873046875 267.1440124511719 268.24200439453125 269.25799560546875 270.1889953613281 270.78399658203125 271.25 271.4129943847656 271.46099853515625 271.364013671875 270.69000244140625 270.427001953125 270.0950012207031 269.4289855957031 268.9100036621094 268.46099853515625 267.96099853515625 267.3349914550781 266.60198974609375 265.9639892578125 265.3680114746094 264.65899658203125 263.95599365234375 263.2179870605469 262.66900634765625 262.16400146484375 261.6860046386719 261.22698974609375 260.6619873046875 260.1860046386719 259.614990234375 259.06201171875 258.5669860839844 256.8580017089844 255.96600341796875 254.85499572753906 253.71200561523438 252.8000030517578 252.1060028076172 251.65199279785156 251.4029998779297 251.0679931640625 250.6479949951172 250.29299926757812 250.05799865722656 249.90899658203125 249.80799865722656 249.70799255371094 249.5590057373047 249.32400512695312 248.9739990234375 248.56700134277344 248.0659942626953 247.53900146484375 246.96099853515625 246.2169952392578 245.4409942626953 244.76600646972656 244.04800415039062 243.4949951171875 242.9010009765625 242.3419952392578 241.89199829101562 241.45799255371094 240.00799560546875 238.96200561523438 238.8719940185547 238.968994140625 238.77099609375 238.64599609375 238.70799255371094 239.0709991455078 240.14500427246094 240.60299682617188 241.0659942626953 241.5030059814453 242.0260009765625 242.66600036621094 243.40699768066406 244.24400329589844 245.13900756835938 246.2169952392578 247.5540008544922 248.90699768066406 252.93800354003906 254.0290069580078 255.36399841308594 257.8399963378906 260.2449951171875 261.7200012207031 264.37799072265625 265.8299865722656 267.1400146484375 268.385009765625 269.4639892578125 270.55499267578125 271.4049987792969 272.0480041503906 272.4519958496094 272.7980041503906 272.843994140625 272.65399169921875 272.1629943847656 271.51300048828125 270.9119873046875 270.27398681640625 269.83099365234375 268.8590087890625 268.07501220703125 266.5069885253906 265.35400390625 263.7590026855469 263.635986328125 263.9670104980469 265.2120056152344 265.3949890136719 265.28900146484375 265.07598876953125 264.8550109863281 264.281005859375 263.40899658203125 262.30499267578125 261.0060119628906 -9999 -9999
-9999 -9999 -9999 -9999 -9999 -9999 -9999 -9999 -9999 -9999 -9999 -9999 -9999 -9999 -9999 264.635009765625 264.50299072265625 264.1520080566406 263.5190124511719 262.8890075683594 262.1820068359375 261.8320007324219 262.06201171875 262.4830017089844 262.8340148925781 263.2330017089844 263.6289978027344 263.7640075683594 263.74798583984375 263.57501220703125 263.41400146484375 263.7049865722656 264.4880065917969 265.6600036621094 266.8819885253906 268.0840148925781 269.12200927734375 269.9159851074219 270.4939880371094 270.89599609375 271.1839904785156 270.9490051269531 270.7250061035156 270.3450012207031 270.1189880371094 269.8139953613281 269.29998779296875 268.93798828125 268.52301025390625 267.8349914550781 267.15399169921875 266.47198486328125 265.6579895019531 265.1889953613281 264.625 264.1369934082031 263.5820007324219 263.1239929199219 262.70098876953125 262.2590026855469 261.8450012207031 261.3529968261719 260.843994140625 260.2879943847656 259.6180114746094 258.8940124511719 258.3599853515625 256.4580078125 255.50399780273438 254.56100463867188 253.62399291992188 252.97300720214844 252.5489959716797 252.26800537109375 251.9669952392578 251.74200439453125 251.62100219726562 251.5050048828125 251.41200256347656 251.27200317382812 251.01499938964844 250.65699768066406 250.23599243164062 249.6580047607422 249.04800415039062 248.39199829101562 247.88299560546875 246.92300415039062 246.05799865722656 245.47300720214844 244.7550048828125 244.072998046875 243.447998046875 242.80999755859375 242.25999450683594 241.7310028076172 241.41099548339844 239.01300048828125 238.6510009765625 238.8300018310547 238.8300018310547 238.7550048828125 238.68099975585938 238.7899932861328 239.6929931640625 240.18099975585938 240.6959991455078 241.17100524902344 241.6909942626953 242.3560028076172 243.31399536132812 244.39199829101562 245.4759979248047 246.69400024414062 247.89999389648438 248.85899353027344 252.15699768066406 253.23399353027344 254.6320037841797 256.95001220703125 259.1579895019531 260.56500244140625 262.010009765625 265.0429992675781 266.4049987792969 267.54998779296875 268.5870056152344 269.5 270.3039855957031 270.81500244140625 271.1260070800781 271.2340087890625 271.2080078125 270.95001220703125 270.5580139160156 270.0840148925781 269.5539855957031 268.7640075683594 267.97900390625 267.3190002441406 265.7929992675781 264.5450134277344 262.27899169921875 261.85400390625 262.0799865722656 262.9360046386719 263.6099853515625 264.84100341796875 265.1780090332031 265.1189880371094 264.8739929199219 264.4289855957031 263.8349914550781 262.6820068359375 261.3269958496094 -9999 -9999
-9999 -9999 -9999 -9999 -9999 -9999 -9999 -9999 -9999 -9999 -9999 -9999 -9999 -9999 -9999 264.20001220703125 264.1839904785156 263.760009765625 263.0379943847656 262.1650085449219 261.2869873046875 260.5400085449219 260.45001220703125 260.6730041503906 261.0169982910156 261.7090148925781 262.1990051269531 262.3009948730469 262.3320007324219 262.1289978027344 261.9110107421875 261.9960021972656 262.86199951171875 263.9739990234375 265.35400390625 266.8070068359375 268.0119934082031 268.9599914550781 269.6579895019531 270.1400146484375 270.5429992675781 270.8760070800781 270.2959899902344 270.2120056152344 270.1080017089844 269.7640075683594 269.6130065917969 269.1109924316406 268.8080139160156 268.0270080566406 267.40301513671875 266.760009765625 266.2170104980469 265.552001953125 265.1789855957031 264.7080078125 264.3389892578125 263.8429870605469 263.48199462890625 263.0580139160156 262.6409912109375 262.23199462890625 261.74700927734375 261.218994140625 260.6759948730469 259.9309997558594 259.2200012207031 258.5530090332031 256.9469909667969 256.26300048828125 255.31300354003906 254.52000427246094 254.1009979248047 253.8820037841797 253.6999969482422 253.54400634765625 253.44000244140625 253.2830047607422 253.1020050048828 252.8159942626953 252.44900512695312 251.94900512695312 251.38499450683594 250.74899291992188 250.04299926757812 249.29800415039062 248.63800048828125 247.97000122070312 246.6510009765625 246.0330047607422 245.3280029296875 244.6529998779297 244.0399932861328 243.3070068359375 242.6490020751953 242.0659942626953 241.64100646972656 239.52499389648438 238.58200073242188 238.5260009765625 238.75999450683594 238.46800231933594 238.4459991455078 238.69700622558594 239.2220001220703 239.95799255371094 240.38099670410156 240.86900329589844 241.3939971923828 242.18600463867188 243.33099365234375 244.7790069580078 246.2519989013672 247.70899963378906 248.8419952392578 249.93800354003906 252.31500244140625 253.18899536132812 254.65899658203125 256.70098876953125 258.71099853515625 259.9320068359375 261.3529968261719 264.6189880371094 265.875 266.9469909667969 267.885986328125 268.67498779296875 269.2229919433594 269.4909973144531 269.5840148925781 269.5849914550781 269.45599365234375 269.2969970703125 268.9429931640625 268.6090087890625 267.5379943847656 266.81201171875 266.2330017089844 264.7909851074219 263.5329895019531 261.4880065917969 260.2309875488281 260.0979919433594 260.8760070800781 261.8609924316406 262.8179931640625 263.8009948730469 265.0169982910156 265.1109924316406 265.0329895019531 264.82000732421875 264.11700439453125 263.135009765625 262.00299072265625 -9999 -9999
-9999 -9999 -9999 -9999 -9999 -9999 -9999 -9999 -9999 -9999 -9999 -9999 -9999 -9999 -9999 264.05499267578125 263.8890075683594 263.2019958496094 262.4119873046875 261.50201416015625 260.5060119628906 259.5899963378906 258.9519958496094 258.9960021972656 259.36199951171875 259.8949890136719 260.33099365234375 260.6180114746094 260.6510009765625 260.41900634765625 260.1159973144531 260.17401123046875 260.93701171875 262.3890075683594 263.7550048828125 265.32000732421875 266.822998046875 267.9219970703125 268.72198486328125 269.2980041503906 269.6659851074219 269.9989929199219 270.17401123046875 269.9049987792969 269.78399658203125 269.69000244140625 269.7170104980469 269.4330139160156 268.84698486328125 268.2330017089844 267.5459899902344 267.02398681640625 266.49200439453125 266.0199890136719 265.4320068359375 265.1700134277344 264.79998779296875 264.43701171875 264.01800537109375 263.67498779296875 263.260009765625 262.8550109863281 262.4389953613281 261.9590148925781 261.4620056152344 260.92401123046875 260.3009948730469 259.5480041503906 258.8160095214844 257.8659973144531 256.8699951171875 256.1789855957031 255.85400390625 255.6999969482422 255.49200439453125 255.28199768066406 255.09100341796875 254.79200744628906 254.43899536132812 254.00999450683594 253.5019989013672 252.9290008544922 252.2830047607422 251.57899475097656 250.84500122070312 250.052001953125 249.30799865722656 248.55499267578125 246.7270050048828 246.4600067138672 245.76300048828125 245.05299377441406 244.47999572753906 243.76800537109375 243.08900451660156 242.44200134277344 241.88499450683594 241.5229949951172 238.66099548339844 238.4320068359375 238.11900329589844 238.0919952392578 238.27499389648438 238.57200622558594 238.8300018310547 239.4250030517578 240.10400390625 240.54299926757812 241.13600158691406 242.08099365234375 243.44000244140625 245.10699462890625 247.0919952392578 250.093994140625 250.95199584960938 251.52999877929688 253.1959991455078 253.9759979248047 255.09800720214844 257.1600036621094 258.82598876953125 259.9389953613281 261.3370056152344 264.47698974609375 265.4110107421875 266.385986328125 266.9440002441406 267.5719909667969 267.8810119628906 267.9110107421875 267.9219970703125 267.8039855957031 267.7040100097656 267.6820068359375 266.7760009765625 266.114990234375 265.4639892578125 264.9570007324219 263.5169982910156 262.43798828125 260.7489929199219 258.989990234375 258.40899658203125 258.7200012207031 259.7929992675781 260.77398681640625 261.24200439453125 263.3800048828125 264.75 265.12200927734375 265.1969909667969 264.83599853515625 264.2980041503906 263.60699462890625 262.6789855957031 -9999 -9999
-9999 -9999 -9999 -9999 -9999 -9999 -9999 -9999 -9999 -9999 -9999 -9999 -9999 -9999 -9999 -9999 264.0409851074219 263.2330017089844 262.05499267578125 260.79998779296875 259.6239929199219 258.7040100097656 257.9540100097656 257.510009765625 257.5669860839844 258.0169982910156 258.3800048828125 258.58099365234375 258.64801025390625 258.5 258.07598876953125 257.9150085449219 258.8630065917969 260.4989929199219 262.3999938964844 263.91900634765625 265.48199462890625 266.75799560546875 267.5740051269531 268.0840148925781 268.56500244140625 269.00299072265625 269.2929992675781 269.20599365234375 269.54901123046875 269.4429931640625 269.3070068359375 269.14300537109375 268.760009765625 268.22198486328125 267.7080078125 267.14898681640625 266.7070007324219 266.2820129394531 265.86700439453125 265.35101318359375 265.1659851074219 264.7980041503906 264.4750061035156 264.0589904785156 263.7669982910156 263.3909912109375 262.99200439453125 262.5950012207031 262.0769958496094 261.614990234375 261.156005859375 260.4729919433594 259.64801025390625 258.7669982910156 258.02398681640625 257.5639953613281 257.36199951171875 257.2019958496094 256.9649963378906 256.635986328125 256.281005859375 255.84300231933594 255.302001953125 254.80099487304688 254.2729949951172 253.65199279785156 252.97500610351562 252.22999572753906 251.4709930419922 250.63299560546875 249.86399841308594 249.06700134277344 247.4239959716797 246.83399963378906 246.08900451660156 245.33599853515625 244.71099853515625 244.02699279785156 243.36700439453125 242.6510009765625 242.0290069580078 241.66600036621094 239.23800659179688 238.27000427246094 237.94700622558594 238.06700134277344 238.13600158691406 238.3979949951172 238.57899475097656 239.0749969482422 239.9770050048828 240.49200439453125 241.14700317382812 242.2469940185547 243.82400512695312 245.9510040283203 251.82000732421875 252.9459991455078 253.35699462890625 254.51800537109375 254.7740020751953 255.48300170898438 256.2239990234375 257.9630126953125 259.39801025390625 260.5830078125 261.9700012207031 264.4930114746094 265.0360107421875 265.5570068359375 265.87200927734375 266.135986328125 266.2340087890625 266.1319885253906 266.0570068359375 265.93499755859375 265.1659851074219 264.7900085449219 264.3869934082031 263.87200927734375 263.1619873046875 262.20001220703125 261.1719970703125 259.85400390625 257.9649963378906 257.1180114746094 256.6520080566406 257.65301513671875 258.59698486328125 259.15301513671875 261.39599609375 263.1109924316406 264.47601318359375 265.0450134277344 265 264.8320007324219 264.4750061035156 263.9320068359375 263.1809997558594 -9999 -9999
-9999 -9999 -9999 -9999 -9999 -9999 -9999 -9999 -9999 -9999 -9999 -9999 -9999 -9999 -9999 -9999 264.2340087890625 263.2510070800781 261.97900390625 260.62701416015625 259.18701171875 257.8280029296875 257.0060119628906 256.1990051269531 255.90899658203125 255.50100708007812 256.2460021972656 256.46600341796875 256.4830017089844 256.2669982910156 255.99000549316406 255.95199584960938 256.6470031738281 257.72601318359375 260.18499755859375 262.8909912109375 264.22601318359375 265.42999267578125 266.1470031738281 266.6650085449219 267.1099853515625 267.6050109863281 268.0419921875 268.3949890136719 268.27099609375 268.9679870605469 268.6390075683594 268.7179870605469 268.510986328125 268.156005859375 267.7130126953125 267.3039855957031 266.7439880371094 266.3949890136719 266.0150146484375 265.67401123046875 265.20599365234375 265.04998779296875 264.7300109863281 264.49700927734375 264.0849914550781 263.822998046875 263.44500732421875 263.0379943847656 262.635986328125 262.14898681640625 261.6180114746094 261.02899169921875 260.2909851074219 259.4989929199219 258.8890075683594 258.4469909667969 258.0899963378906 257.7900085449219 257.4330139160156 257.01300048828125 256.5400085449219 255.95899963378906 255.3820037841797 254.77999877929688 254.1999969482422 253.58599853515625 252.93899536132812 252.2949981689453 251.64500427246094 250.87399291992188 250.09300231933594 249.34500122070312 247.81100463867188 247.0449981689453 246.2519989013672 245.4340057373047 244.7760009765625 244.0919952392578 243.39300537109375 242.7050018310547 242.0290069580078 241.6490020751953 240.48800659179688 238.28700256347656 238 237.8489990234375 237.95399475097656 238.21800231933594 238.37100219726562 238.64199829101562 239.2310028076172 239.7480010986328 240.80099487304688 242.7270050048828 244.75 250.1269989013672 253.64599609375 255.08700561523438 256.0050048828125 256.7040100097656 256.8580017089844 257.3680114746094 258.36700439453125 259.17498779296875 260.43499755859375 261.5270080566406 262.88800048828125 264.489013671875 264.4750061035156 264.44000244140625 264.5350036621094 264.4620056152344 264.385009765625 263.8810119628906 263.45098876953125 263.0419921875 262.5989990234375 262.3299865722656 262.1570129394531 260.9020080566406 260.58099365234375 259.7489929199219 258.6130065917969 256.9150085449219 256.010986328125 255.25 255.6790008544922 256.510986328125 257.27899169921875 259.2250061035156 260.95599365234375 262.98199462890625 264.3280029296875 264.8599853515625 264.87298583984375 264.7799987792969 264.427001953125 263.9419860839844 263.3429870605469 -9999 -9999
-9999 -9999 -9999 -9999 -9999 -9999 -9999 -9999 -9999 -9999 -9999 -9999 -9999 -9999 -9999 -9999 -9999 263.60400390625 262.0069885253906 260.55499267578125 259.15301513671875 257.802001953125 256.4670104980469 255.57400512695312 254.9810028076172 254.5449981689453 254.2169952392578 254.58200073242188 254.63800048828125 254.4409942626953 254.22000122070312 254.20199584960938 254.75999450683594 255.82400512695312 257.06500244140625 259.552001953125 262.42401123046875 264.0480041503906 264.56298828125 264.8970031738281 265.3949890136719 265.8760070800781 266.4620056152344 266.89898681640625 267.46099853515625 267.3080139160156 268.15301513671875 268.0710144042969 268.0329895019531 267.7749938964844 267.50799560546875 267.1570129394531 266.8529968261719 266.4339904785156 266.0769958496094 265.80999755859375 265.4729919433594 265.1109924316406 264.989013671875 264.7149963378906 264.5 264.0840148925781 263.7770080566406 263.385009765625 262.9530029296875 262.5010070800781 261.9540100097656 261.35101318359375 260.6910095214844 260.04901123046875 259.4729919433594 258.989990234375 258.50799560546875 258.0199890136719 257.51800537109375 256.99700927734375 256.43798828125 255.85000610351562 255.22900390625 254.61199951171875 253.99200439453125 253.34500122070312 252.6929931640625 252.06100463867188 251.39700317382812 250.718994140625 249.97799682617188 249.33299255371094 247.6529998779297 247.18099975585938 246.27999877929688 245.40899658203125 244.68699645996094 243.94400024414062 243.21800231933594 242.51600646972656 241.86599731445312 241.49400329589844 240.65699768066406 238.19200134277344 237.86500549316406 237.60499572753906 237.76499938964844 237.9739990234375 238.11300659179688 238.3459930419922 238.7550048828125 239.33399963378906 240.7779998779297 243.41700744628906 246.05799865722656 252.7100067138672 254.8040008544922 256.98199462890625 258.37200927734375 258.8590087890625 259.4989929199219 259.635986328125 260.1610107421875 260.718994140625 261.7380065917969 263.2309875488281 263.7770080566406 263.77398681640625 263.34698486328125 262.84698486328125 262.3659973144531 261.7919921875 261.3900146484375 261.1199951171875 260.6600036621094 260.3819885253906 260.1919860839844 260.1940002441406 259.17999267578125 258.7149963378906 258.2340087890625 257.1400146484375 255.67599487304688 254.86599731445312 254.03199768066406 253.79100036621094 254.54200744628906 255.33799743652344 255.69500732421875 258.5849914550781 260.86700439453125 262.78900146484375 264.4649963378906 264.6260070800781 264.7030029296875 264.5559997558594 264.25 263.7760009765625 263.2560119628906 -9999 -9999
-9999 -9999 -9999 -9999 -9999 -9999 -9999 -9999 -9999 -9999 -9999 -9999 -9999 -9999 -9999 -9999 -9999 264.3169860839844 262.5799865722656 260.6730041503906 259.0570068359375 257.7969970703125 256.53900146484375 255.3280029296875 254.37100219726562 253.76600646972656 253.44200134277344 253.08900451660156 252.90199279785156 253.0189971923828 252.843994140625 252.76300048828125 253.16799926757812 253.96200561523438 254.76400756835938 256.04400634765625 258.10400390625 263.0069885253906 262.8699951171875 262.9410095214844 263.3169860839844 263.8580017089844 264.385009765625 265.11700439453125 265.8240051269531 266.5220031738281 266.3450012207031 267.32598876953125 267.34100341796875 267.260009765625 267 266.8949890136719 266.6679992675781 266.5679931640625 266.0580139160156 265.7650146484375 265.5950012207031 265.2669982910156 264.9330139160156 264.8210144042969 264.5509948730469 264.3280029296875 263.8919982910156 263.51300048828125 263.0950012207031 262.57598876953125 262.1310119628906 261.5840148925781 260.947998046875 260.385009765625 259.7850036621094 259.1759948730469 258.5369873046875 257.9219970703125 257.29400634765625 256.6570129394531 256.0450134277344 255.447998046875 254.89999389648438 254.32400512695312 253.66700744628906 252.97999572753906 252.33900451660156 251.7030029296875 251.0489959716797 250.3719940185547 249.73599243164062 249.24899291992188 247.9709930419922 247.0780029296875 246.16000366210938 245.27499389648438 244.49200439453125 243.62600708007812 242.93099975585938 242.26100158691406 241.61500549316406 241.0570068359375 240.38699340820312 238.2100067138672 237.75 237.33700561523438 237.50100708007812 237.7570037841797 237.7729949951172 238.1540069580078 238.50999450683594 239.38299560546875 241.3990020751953 244.49200439453125 248.78399658203125 253.98399353027344 256.0880126953125 258.47100830078125 260.2200012207031 261.2460021972656 261.9570007324219 262.2279968261719 262.7749938964844 262.8429870605469 262.9949951171875 262.34600830078125 262.1709899902344 262.0199890136719 261.6669921875 260.96600341796875 260.0320129394531 259.447998046875 259.3110046386719 258.23199462890625 258.0169982910156 258.0459899902344 257.07501220703125 256.7820129394531 256.760009765625 256.3450012207031 255.3489990234375 254.38800048828125 253.55599975585938 252.83099365234375 252.2689971923828 252.5260009765625 253.33599853515625 252.8090057373047 256.22100830078125 258.6449890136719 260.79901123046875 263.3909912109375 264.01300048828125 264.3210144042969 264.4010009765625 264.2239990234375 263.8810119628906 263.44500732421875 262.9519958496094 -9999 -9999
-9999 -9999 -9999 -9999 -9999 -9999 -9999 -9999 -9999 -9999 -9999 -9999 -9999 -9999 -9999 -9999 -9999 -9999 263.0929870605469 261.2720031738281 259.39599609375 257.7539978027344 256.57000732421875 255.40899658203125 254.36900329589844 253.3509979248047 252.85899353027344 252.3939971923828 251.9759979248047 251.42100524902344 251.5970001220703 251.5749969482422 251.86199951171875 252.17300415039062 252.83599853515625 253.08299255371094 252.94000244140625 256.0719909667969 261.32501220703125 260.97601318359375 261.1520080566406 261.7380065917969 262.37701416015625 263.0820007324219 263.91900634765625 264.8689880371094 265.5920104980469 265.36199951171875 265.5400085449219 266.4100036621094 266.38800048828125 266.302001953125 266.31298828125 266.1719970703125 266.12799072265625 265.68499755859375 265.447998046875 265.2619934082031 264.95098876953125 264.6650085449219 264.5509948730469 264.2349853515625 263.90399169921875 263.37200927734375 262.8299865722656 262.4419860839844 262.0429992675781 261.59698486328125 260.98699951171875 260.34600830078125 259.7359924316406 259.1029968261719 258.3599853515625 257.59698486328125 256.90399169921875 256.2040100097656 255.5850067138672 255.0030059814453 254.4459991455078 253.87100219726562 253.2969970703125 252.63699340820312 251.9810028076172 251.3159942626953 250.5850067138672 249.93499755859375 249.4459991455078 248.30999755859375 247.5970001220703 246.70199584960938 245.7760009765625 244.9199981689453 244.0679931640625 243.16799926757812 242.4600067138672 241.8179931640625 241.36199951171875 240.75100708007812 240.11900329589844 238.0540008544922 237.53799438476562 236.91700744628906 237.2949981689453 237.47999572753906 237.58599853515625 238.031005859375 238.49400329589844 239.75100708007812 242.26199340820312 245.6840057373047 251.13499450683594 254.77699279785156 257.2380065917969 259.46099853515625 261.0979919433594 261.75 262.8900146484375 263.0790100097656 262.39300537109375 261.79901123046875 261.2380065917969 260.8179931640625 260.37298583984375 260.114990234375 259.8429870605469 259.1099853515625 256.73699951171875 256.0989990234375 255.56500244140625 255.52000427246094 254.3979949951172 254.50100708007812 254.4409942626953 254.13900756835938 254.16900634765625 253.2779998779297 252.78500366210938 252.18699645996094 251.51699829101562 250.75799560546875 250.60899353027344 251.2790069580078 251.94200134277344 253.61700439453125 255.51800537109375 258.0169982910156 260.2130126953125 262.90301513671875 263.52398681640625 263.9859924316406 263.9649963378906 263.7279968261719 263.4410095214844 262.8869934082031 262.1210021972656 -9999 -9999
-9999 -9999 -9999 -9999 -9999 -9999 -9999 -9999 -9999 -9999 -9999 -9999 -9999 -9999 -9999 -9999 -9999 -9999 263.3139953613281 261.760986328125 260.0299987792969 258.239013671875 256.6260070800781 255.52999877929688 254.47999572753906 253.5659942626953 252.56399536132812 251.9250030517578 251.43600463867188 250.94000244140625 250.66200256347656 250.56500244140625 250.0290069580078 251.0229949951172 251.93099975585938 252.64300537109375 252.85699462890625 252.80099487304688 254.36900329589844 259.18798828125 259.0880126953125 259.4119873046875 260.12701416015625 260.9169921875 261.85400390625 262.9429931640625 263.9079895019531 264.67999267578125 264.1000061035156 263.4830017089844 265.1629943847656 265.52398681640625 266.0379943847656 265.885009765625 265.7560119628906 265.6669921875 265.2179870605469 264.9989929199219 264.8009948730469 264.4280090332031 264.12701416015625 264 263.67999267578125 263.1300048828125 262.5419921875 262.08099365234375 261.6549987792969 261.0849914550781 260.5610046386719 260.0260009765625 259.3219909667969 258.6239929199219 257.96600341796875 257.2919921875 256.5559997558594 255.78900146484375 255.13900756835938 254.58900451660156 254.04600524902344 253.45899963378906 252.80499267578125 252.22300720214844 251.57200622558594 250.87399291992188 250.14999389648438 249.62899780273438 249.20399475097656 248.1009979248047 247.1219940185547 246.21400451660156 245.28799438476562 244.4669952392578 243.54400634765625 242.67599487304688 241.9499969482422 241.3800048828125 240.99600219726562 240.3489990234375 239.72900390625 237.9340057373047 237.33700561523438 236.82899475097656 237.04200744628906 237.0850067138672 237.1999969482422 237.906005859375 238.63800048828125 240.3719940185547 243.5959930419922 247.1510009765625 253.6909942626953 255.62899780273438 258.0669860839844 259.989013671875 260.34698486328125 264.10699462890625 263.93701171875 263.1210021972656 262.0679931640625 260.8330078125 259.8399963378906 259.2650146484375 258.3559875488281 257.4020080566406 256.822998046875 255.61500549316406 254.5540008544922 253.5399932861328 252.447998046875 251.89100646972656 251.8800048828125 251.86700439453125 251.49600219726562 251.61700439453125 250.1750030517578 250.6750030517578 250.73800659179688 250.26100158691406 249.67799377441406 249.36500549316406 249.59100341796875 250.48300170898438 250.49899291992188 252.90899658203125 255.3459930419922 257.5669860839844 261.70001220703125 262.39599609375 263.2380065917969 263.5710144042969 263.5429992675781 263.3580017089844 262.66900634765625 261.95001220703125 260.70098876953125 -9999 -9999
-9999 -9999 -9999 -9999 -9999 -9999 -9999 -9999 -9999 -9999 -9999 -9999 -9999 -9999 -9999 -9999 -9999 -9999 263.4360046386719 261.885009765625 260.3680114746094 258.8590087890625 257.239990234375 255.6959991455078 254.5749969482422 253.70599365234375 252.86300659179688 251.9499969482422 251.1959991455078 250.67100524902344 250.18499755859375 249.36300659179688 249.29400634765625 249.70700073242188 250.96499633789062 251.96099853515625 252.50799560546875 252.23699951171875 252.1540069580078 253.0229949951172 257.34100341796875 257.38800048828125 257.864013671875 258.68701171875 259.7720031738281 260.97900390625 262.07598876953125 262.99700927734375 263.6679992675781 262.6730041503906 261.5299987792969 264.1860046386719 265.0429992675781 265.614990234375 265.3299865722656 265.25 265.1809997558594 264.6390075683594 264.3699951171875 264.135986328125 263.8609924316406 263.5270080566406 263.25201416015625 262.00299072265625 261.6839904785156 261.36199951171875 260.9490051269531 260.39599609375 259.8139953613281 259.2619934082031 258.6319885253906 257.9469909667969 257.3190002441406 256.6820068359375 256.0159912109375 255.31700134277344 254.75799560546875 254.1699981689453 253.57200622558594 252.96600341796875 252.35400390625 251.7570037841797 251.03700256347656 250.322998046875 249.76400756835938 249.31500244140625 248.84300231933594 247.45399475097656 246.5469970703125 245.5989990234375 244.77099609375 243.875 243.0590057373047 242.24000549316406 241.4600067138672 240.8719940185547 240.5019989013672 239.89199829101562 239.2310028076172 237.58999633789062 237.04100036621094 236.8070068359375 236.7729949951172 236.76499938964844 236.95199584960938 237.9720001220703 239.05599975585938 241.25 244.59800720214844 248.85800170898438 254.39999389648438 256.4079895019531 258.6369934082031 258.8909912109375 262.61700439453125 264.5830078125 264.49700927734375 263.4200134277344 261.8160095214844 259.97601318359375 258.57000732421875 257.29901123046875 256.2099914550781 255.19900512695312 254.26199340820312 253.23199462890625 252.322998046875 251.43899536132812 250.4250030517578 249.92300415039062 249.45700073242188 249.36199951171875 248.84300231933594 248.35699462890625 248.37600708007812 248.36500549316406 248.43600463867188 248.8990020751953 248.5570068359375 248.18499755859375 248.4029998779297 247.1179962158203 250.59300231933594 252.68099975585938 255.10000610351562 257.4360046386719 260.88800048828125 262.14801025390625 263.0530090332031 263.3160095214844 263.1159973144531 262.5159912109375 261.4989929199219 260.0740051269531 258.77301025390625 -9999 -9999
-9999 -9999 -9999 -9999 -9999 -9999 -9999 -9999 -9999 -9999 -9999 -9999 -9999 -9999 -9999 -9999 -9999 -9999 -9999 262.06500244140625 260.5679931640625 259.18701171875 257.79998779296875 256.32598876953125 254.92999267578125 253.8459930419922 253.0749969482422 252.2449951171875 251.4219970703125 250.74099731445312 249.9669952392578 249.58700561523438 248.5989990234375 248.47300720214844 250.03799438476562 251.33700561523438 251.99200439453125 251.93099975585938 251.62399291992188 251.69400024414062 252.73399353027344 255.8459930419922 255.91799926757812 256.6719970703125 257.739013671875 258.9729919433594 260.1029968261719 261.2239990234375 262.12200927734375 263.010986328125 261.7200012207031 260.135009765625 260.6180114746094 264.73199462890625 265.1549987792969 264.843994140625 264.7080078125 264.4859924316406 264.0249938964844 263.6830139160156 263.135009765625 261.6600036621094 261.58099365234375 261.0830078125 260.2070007324219 260.125 259.77899169921875 259.44500732421875 258.9289855957031 258.3330078125 257.8070068359375 257.25799560546875 256.6130065917969 255.9250030517578 255.32699584960938 254.73699951171875 254.20599365234375 253.66299438476562 253.072998046875 252.52000427246094 251.8990020751953 251.26600646972656 250.5850067138672 249.88800048828125 249.4409942626953 249.01300048828125 247.6479949951172 246.76699829101562 245.89599609375 245.0070037841797 244.23899841308594 243.38299560546875 242.6529998779297 241.86599731445312 241.0800018310547 240.47300720214844 239.87899780273438 239.35000610351562 238.67100524902344 237.5749969482422 236.82400512695312 236.56199645996094 236.5279998779297 236.5189971923828 237.10699462890625 238.2050018310547 239.58399963378906 242.10800170898438 245.42799377441406 250.75100708007812 254.6300048828125 256.86199951171875 258.0570068359375 260.52398681640625 264.0530090332031 264.87298583984375 264.7279968261719 263.4010009765625 261.58099365234375 259.50201416015625 257.572998046875 256.22601318359375 254.947998046875 253.69200134277344 252.63600158691406 251.7550048828125 250.7729949951172 249.86000061035156 249.11300659179688 248.3509979248047 248.41900634765625 246.88600158691406 246.51699829101562 246.5489959716797 246.447998046875 246.44700622558594 246.46499633789062 246.3509979248047 246.74400329589844 247.1790008544922 246.88699340820312 248.2259979248047 250.1739959716797 252.31500244140625 254.38400268554688 257.6940002441406 259.9700012207031 261.3190002441406 262.0159912109375 262.239013671875 262.11700439453125 260.739990234375 259.4590148925781 257.7040100097656 256.25201416015625 -9999 -9999
-9999 -9999 -9999 -9999 -9999 -9999 -9999 -9999 -9999 -9999 -9999 -9999 -9999 -9999 -9999 -9999 -9999 -9999 -9999 262.32598876953125 260.9219970703125 259.5740051269531 258.2560119628906 256.9859924316406 255.64199829101562 254.41600036621094 253.34300231933594 252.49400329589844 251.73800659179688 250.90199279785156 249.97799682617188 250.322998046875 246.72500610351562 247.88299560546875 247.40699768066406 247.302001953125 249.9949951171875 249.4290008544922 247.9459991455078 250.1490020751953 252.16900634765625 252.16000366210938 254.55299377441406 254.86900329589844 255.84500122070312 257.0350036621094 258.2659912109375 259.4490051269531 260.5199890136719 261.1499938964844 262.0480041503906 260.864990234375 258.7799987792969 259.010986328125 264.260009765625 264.6700134277344 264.4159851074219 263.9159851074219 263.2749938964844 261.9159851074219 261.64599609375 261.2820129394531 260.8009948730469 260.2309875488281 259.593994140625 258.5610046386719 258.4070129394531 258.18798828125 257.9079895019531 257.40899658203125 256.9620056152344 256.4549865722656 255.91400146484375 255.23599243164062 254.6490020751953 254.10800170898438 253.61599731445312 253.072998046875 252.52699279785156 251.9949951171875 251.43600463867188 250.8090057373047 250.13699340820312 249.62399291992188 249.33900451660156 247.86399841308594 247.00900268554688 246.12600708007812 245.2209930419922 244.4550018310547 243.6510009765625 242.9340057373047 242.23899841308594 241.4929962158203 240.7429962158203 240.1840057373047 239.5590057373047 238.8560028076172 238.22500610351562 237.5050048828125 236.51199340820312 236.39700317382812 236.36399841308594 236.3769989013672 237.31399536132812 238.50100708007812 240.1999969482422 243.2259979248047 246.57899475097656 252.35000610351562 254.625 256.2019958496094 257.7850036621094 263.04901123046875 264.0369873046875 265.2030029296875 264.99700927734375 263.60699462890625 261.50799560546875 259.2030029296875 257.1910095214844 255.63999938964844 254.23199462890625 252.97500610351562 251.781005859375 250.7949981689453 249.83700561523438 248.88800048828125 247.88400268554688 247.07699584960938 245.76100158691406 245.26300048828125 244.89700317382812 244.6909942626953 244.59100341796875 244.59500122070312 244.68899536132812 244.7530059814453 244.7010040283203 245.11399841308594 244.5749969482422 247.9510040283203 249.7270050048828 251.75399780273438 255.07000732421875 257.54901123046875 258.843994140625 259.9010009765625 260.3970031738281 260.3659973144531 259.65899658203125 257.89801025390625 257.1050109863281 254.94400024414062 253.16600036621094 -9999 -9999
-9999 -9999 -9999 -9999 -9999 -9999 -9999 -9999 -9999 -9999 -9999 -9999 -9999 -9999 -9999 -9999 -9999 -9999 -9999 -9999 261.3590087890625 260.0169982910156 258.7430114746094 257.4949951171875 256.3389892578125 255.18499755859375 253.98699951171875 252.88699340820312 251.98300170898438 250.8979949951172 250.56399536132812 250.15499877929688 246.06100463867188 247.08799743652344 246.875 246.3070068359375 246.77999877929688 246.1649932861328 247.65899658203125 247.71800231933594 249.87600708007812 251.55799865722656 251.53599548339844 253.43600463867188 254.23899841308594 255.30599975585938 256.6260070800781 257.9129943847656 259.10699462890625 259.9620056152344 260.8269958496094 261.7149963378906 261.9800109863281 257.52099609375 258.62298583984375 263.18701171875 263.4750061035156 262.3009948730469 262.0220031738281 261.5539855957031 260.9540100097656 260.3689880371094 259.9079895019531 259.37200927734375 258.7560119628906 258.0010070800781 257.1369934082031 256.81298828125 256.8190002441406 256.614013671875 256.1830139160156 255.66200256347656 255.17599487304688 254.65199279785156 254.08700561523438 253.48399353027344 252.9340057373047 252.427001953125 251.93899536132812 251.4510040283203 250.93699645996094 250.32200622558594 249.78799438476562 249.3699951171875 249.05799865722656 247.39300537109375 246.44500732421875 245.51800537109375 244.67300415039062 243.906005859375 243.14599609375 242.52000427246094 241.8489990234375 241.0749969482422 240.44900512695312 239.95700073242188 239.12899780273438 238.44900512695312 237.88800048828125 237.10699462890625 236.27200317382812 236.14700317382812 236.1739959716797 236.14100646972656 237.5330047607422 238.8520050048828 240.9739990234375 244.0290069580078 246.6179962158203 252.8159942626953 254.29200744628906 255.3459930419922 261.3070068359375 262.572998046875 263.9939880371094 265.3030090332031 265.22100830078125 264.07000732421875 261.9880065917969 259.5260009765625 257.6600036621094 255.6959991455078 254.51199340820312 253.0800018310547 252.12100219726562 250.91600036621094 249.2449951171875 248.30999755859375 246.9709930419922 245.6820068359375 244.85499572753906 244.09800720214844 243.6020050048828 243.28799438476562 243.14599609375 243.1699981689453 243.11500549316406 243.1649932861328 242.99600219726562 242.58900451660156 245.63099670410156 247.63999938964844 249.57400512695312 251.1929931640625 255.36199951171875 256.57598876953125 257.4230041503906 257.8800048828125 258.07501220703125 257.9289855957031 257.4939880371094 254.99600219726562 253.9969940185547 253.1269989013672 250.2530059814453 -9999 -9999
-9999 -9999 -9999 -9999 -9999 -9999 -9999 -9999 -9999 -9999 -9999 -9999 -9999 -9999 -9999 -9999 -9999 -9999 -9999 -9999 261.9179992675781 260.5159912109375 259.239013671875 258.0710144042969 256.9259948730469 255.85800170898438 254.82699584960938 253.64300537109375 252.26400756835938 252.52499389648438 250.8800048828125 251.43099975585938 248.45599365234375 246.77000427246094 246.09500122070312 246.10899353027344 245.5659942626953 245.61099243164062 245.7519989013672 247.125 245.86000061035156 248.84300231933594 250.9810028076172 250.9739990234375 253.03900146484375 253.92599487304688 255.3209991455078 256.7239990234375 257.7359924316406 258.9150085449219 260.02099609375 261.06298828125 261.7300109863281 261.87298583984375 256.0559997558594 257.5010070800781 262.43701171875 261.5669860839844 261.1659851074219 260.6679992675781 260.2669982910156 259.7049865722656 259.1159973144531 258.6130065917969 258.0329895019531 257.37200927734375 256.5840148925781 255.75900268554688 255.7010040283203 255.70799255371094 255.40199279785156 254.968994140625 254.4600067138672 253.99899291992188 253.55499267578125 252.9969940185547 252.34300231933594 251.79200744628906 251.3280029296875 250.86900329589844 250.3719940185547 249.80499267578125 249.3699951171875 249.14500427246094 247.7899932861328 247.00599670410156 246.16099548339844 245.1820068359375 244.3350067138672 243.47999572753906 242.78700256347656 242.10800170898438 241.41200256347656 240.82400512695312 240.2570037841797 239.57699584960938 238.84100341796875 238.10000610351562 237.5919952392578 236.64300537109375 236.08399963378906 236.00399780273438 236.02999877929688 236.2310028076172 237.8179931640625 239.26600646972656 241.6479949951172 244.63900756835938 248.37600708007812 252.3800048828125 251.8419952392578 259.0840148925781 260.6830139160156 262.47198486328125 264.0690002441406 265.3030090332031 265.3609924316406 264.4639892578125 262.5379943847656 260.114990234375 258.2279968261719 255.5780029296875 254.3070068359375 253.06500244140625 252.26800537109375 250.88800048828125 249.6929931640625 248.3719940185547 247.08099365234375 245.5050048828125 244.26499938964844 243.36700439453125 242.66000366210938 242.26199340820312 242.0500030517578 242.19500732421875 242.156005859375 241.76199340820312 241.57400512695312 243.31100463867188 244.69700622558594 246.51199340820312 248.51400756835938 251.3179931640625 253.9949951171875 255.60899353027344 256.260986328125 255.8560028076172 255.28399658203125 254.81900024414062 254.302001953125 253.56100463867188 251.25100708007812 249.93899536132812 248.3820037841797 -9999 -9999
-9999 -9999 -9999 -9999 -9999 -9999 -9999 -9999 -9999 -9999 -9999 -9999 -9999 -9999 -9999 -9999 -9999 -9999 -9999 -9999 -9999 261.08099365234375 259.77398681640625 258.6210021972656 257.5799865722656 256.5270080566406 255.41400146484375 254.04100036621094 253.6540069580078 252.81100463867188 251.59300231933594 250.56900024414062 248.9250030517578 246.51699829101562 246.14300537109375 245.54100036621094 245.1219940185547 244.8939971923828 245.8179931640625 245.84300231933594 245.79299926757812 246.92599487304688 248.93299865722656 249.89599609375 251.73399353027344 252.97900390625 254.04400634765625 255.4340057373047 256.9679870605469 258.31298828125 259.64599609375 260.7659912109375 261.7090148925781 259.61199951171875 256.364013671875 254.75 257.51300048828125 260.52099609375 260.1210021972656 259.7690124511719 259.3599853515625 258.9849853515625 258.4389953613281 257.8810119628906 257.35198974609375 256.739013671875 256.04400634765625 255.33900451660156 254.62899780273438 254.64300537109375 254.64300537109375 254.30299377441406 253.78599548339844 253.33999633789062 252.94900512695312 252.4340057373047 251.8470001220703 251.31900024414062 250.78199768066406 250.3209991455078 249.78799438476562 249.2689971923828 249.00599670410156 247.8939971923828 247.29100036621094 246.62100219726562 245.8090057373047 244.9219970703125 244.11000061035156 243.23699951171875 242.4720001220703 241.77999877929688 241.0449981689453 240.5030059814453 240.00399780273438 239.22999572753906 238.43699645996094 237.76100158691406 237.15499877929688 236.15199279785156 235.8350067138672 235.8179931640625 235.8509979248047 237.02999877929688 238.468994140625 239.8300018310547 242.4219970703125 245.14599609375 249.84800720214844 251.81100463867188 253.4040069580078 259.0069885253906 260.5799865722656 262.3689880371094 263.9580078125 265.2669982910156 265.4779968261719 264.92498779296875 263.3580017089844 261.12701416015625 259.2929992675781 256.0299987792969 254.9739990234375 253.85400390625 252.85699462890625 251.67799377441406 250.34100341796875 248.85400390625 247.1280059814453 245.74000549316406 244.2779998779297 242.8820037841797 242.11599731445312 241.45899963378906 241.20700073242188 241.22999572753906 241.35899353027344 240.74899291992188 240.90199279785156 242.25999450683594 243.64700317382812 245.54600524902344 247.91200256347656 250.26800537109375 252.40699768066406 253.31199645996094 253.91700744628906 254.28900146484375 253.9010009765625 252.33999633789062 251.45799255371094 250.30799865722656 249.0760040283203 246.95799255371094 245.85499572753906 -9999 -9999
-9999 -9999 -9999 -9999 -9999 -9999 -9999 -9999 -9999 -9999 -9999 -9999 -9999 -9999 -9999 -9999 -9999 -9999 -9999 -9999 -9999 261.781005859375 260.3559875488281 259.1719970703125 258.1960144042969 257.2640075683594 255.9739990234375 254.70599365234375 254.6820068359375 253.91299438476562 252.531005859375 251.98800659179688 249.58700561523438 246.13600158691406 246.25799560546875 246.0050048828125 245.91400146484375 244.3939971923828 245.72300720214844 245.5449981689453 243.79400634765625 245.7449951171875 246.72900390625 248.92599487304688 249.22300720214844 252.6009979248047 253.54800415039062 255.0030059814453 256.5780029296875 258.260986328125 259.60400390625 260.87799072265625 261.80999755859375 261.2300109863281 257.8429870605469 255.43099975585938 253.64500427246094 257.6619873046875 258.9410095214844 258.7430114746094 258.3890075683594 258.1059875488281 257.69000244140625 257.14898681640625 256.6109924316406 256.0870056152344 255.4600067138672 254.8090057373047 254.10400390625 253.64300537109375 253.71600341796875 253.6230010986328 253.23500061035156 252.72900390625 252.27200317382812 251.8280029296875 251.343994140625 250.8459930419922 250.31100463867188 249.8209991455078 249.35000610351562 248.95899963378906 248.4810028076172 247.3780059814453 246.72500610351562 246.05799865722656 245.24400329589844 244.4949951171875 243.6699981689453 242.85800170898438 242.03700256347656 241.31700134277344 240.6060028076172 239.98300170898438 239.49400329589844 238.5540008544922 237.88499450683594 237.22300720214844 236.4510040283203 235.86900329589844 235.54299926757812 235.73300170898438 235.9600067138672 237.49000549316406 238.7989959716797 240.54800415039062 241.88099670410156 245.27099609375 250.92100524902344 249.96200561523438 255.85699462890625 258.7510070800781 260.4100036621094 262.46099853515625 264.4129943847656 265.2749938964844 265.47198486328125 265.2409973144531 264.1499938964844 262.2909851074219 260.3330078125 258.72100830078125 257.61199951171875 256.43701171875 255.52000427246094 254.33299255371094 252.47999572753906 249.87100219726562 247.91400146484375 246.08700561523438 244.39999389648438 242.98199462890625 241.59100341796875 240.93099975585938 240.447998046875 240.28700256347656 240.31700134277344 239.5469970703125 240.03900146484375 241.47300720214844 242.48399353027344 244.2169952392578 246.468994140625 248.83099365234375 250.18800354003906 250.94200134277344 251.18099975585938 251.0399932861328 250.44000244140625 249.8719940185547 248.34500122070312 247.13400268554688 246.08700561523438 244.84300231933594 243.24000549316406 -9999 -9999
-9999 -9999 -9999 -9999 -9999 -9999 -9999 -9999 -9999 -9999 -9999 -9999 -9999 -9999 -9999 -9999 -9999 -9999 -9999 -9999 -9999 262.4739990234375 261.09600830078125 259.82598876953125 258.7690124511719 257.760986328125 256.1929931640625 256.3139953613281 255.6439971923828 254.60800170898438 253.41099548339844 252.46400451660156 250.01199340820312 248.7270050048828 247.99099731445312 246.07000732421875 245.9980010986328 244.51400756835938 243.77200317382812 243.7449951171875 244.08200073242188 246.03700256347656 246.44900512695312 246.60299682617188 249.4980010986328 250.5800018310547 253.4709930419922 254.96499633789062 256.72198486328125 258.3909912109375 259.85101318359375 261.04998779296875 261.9540100097656 262.59698486328125 262.2619934082031 257.96600341796875 253.5679931640625 252.5030059814453 257.9289855957031 257.5840148925781 257.40899658203125 257.1180114746094 256.8399963378906 256.3789978027344 255.89500427246094 255.41299438476562 254.8939971923828 254.33099365234375 253.6959991455078 252.9320068359375 252.7790069580078 252.77099609375 252.5570068359375 252.16000366210938 251.64100646972656 251.19500732421875 250.77699279785156 250.33399963378906 249.8730010986328 249.4029998779297 248.98500061035156 248.82000732421875 247.3260040283203 246.73899841308594 246.1199951171875 245.37600708007812 244.70199584960938 243.9199981689453 243.072998046875 242.23199462890625 241.43899536132812 240.68699645996094 240.05599975585938 239.5489959716797 238.80799865722656 237.8300018310547 237.18499755859375 236.54299926757812 235.67799377441406 235.48199462890625 235.50100708007812 235.57000732421875 236.0500030517578 237.5290069580078 239.0240020751953 241.01300048828125 242.88699340820312 245.6529998779297 250.43800354003906 248.68299865722656 257.0589904785156 258.54400634765625 260.45599365234375 262.52099609375 264.4150085449219 265.1669921875 265.3739929199219 265.2640075683594 264.49700927734375 263.0580139160156 261.1409912109375 259.5509948730469 258.47698974609375 257.40899658203125 256.3659973144531 255.0489959716797 253.50799560546875 252.0469970703125 250.10299682617188 246.60000610351562 244.6649932861328 242.8000030517578 241.63499450683594 240.4969940185547 239.75900268554688 239.40699768066406 239.31700134277344 238.43699645996094 239.58200073242188 240.3719940185547 241.2949981689453 242.78399658203125 244.56500244140625 246.4759979248047 247.94200134277344 248.5749969482422 247.9550018310547 247.625 247.14199829101562 246.47500610351562 245.843994140625 244.52999877929688 243.14999389648438 241.74000549316406 240.53900146484375 -9999 -9999
-9999 -9999 -9999 -9999 -9999 -9999 -9999 -9999 -9999 -9999 -9999 -9999 -9999 -9999 -9999 -9999 -9999 -9999 -9999 -9999 -9999 -9999 261.7179870605469 260.49798583984375 259.322998046875 258.1570129394531 257.625 257.14599609375 256.17999267578125 255.08099365234375 253.947998046875 252.9290008544922 251.5800018310547 248.76199340820312 247.96600341796875 246.50999450683594 246.07200622558594 243.56900024414062 243.3800048828125 243.25999450683594 243.8520050048828 244.6580047607422 245.67300415039062 245.90499877929688 248.2989959716797 250.10499572753906 254.0749969482422 255.25100708007812 256.8559875488281 258.5379943847656 260.0429992675781 261.0840148925781 262.0369873046875 262.3789978027344 262.19500732421875 261.02899169921875 254.11900329589844 252.71099853515625 252.34100341796875 256.62799072265625 256.5429992675781 256.375 256.0509948730469 255.68899536132812 255.26400756835938 254.822998046875 254.35699462890625 253.75599670410156 253.1719970703125 252.6320037841797 251.9929962158203 251.81199645996094 251.72900390625 251.4409942626953 251.08700561523438 250.63900756835938 250.2259979248047 249.83999633789062 249.43099975585938 249.031005859375 248.6699981689453 247.32699584960938 246.71400451660156 246.0500030517578 245.39500427246094 244.69900512695312 244.02999877929688 243.2779998779297 242.45399475097656 241.5590057373047 240.822998046875 240.1230010986328 239.5229949951172 239.0709991455078 237.98800659179688 237.21600341796875 236.5760040283203 235.95199584960938 235.19000244140625 235.2949981689453 235.43299865722656 235.2969970703125 236.0709991455078 237.8489990234375 239.58099365234375 241.6490020751953 243.4320068359375 247.48500061035156 250.26699829101562 248.59300231933594 257.53399658203125 258.6809997558594 260.5979919433594 262.2019958496094 264.0299987792969 264.8190002441406 264.98699951171875 264.8450012207031 264.2380065917969 263.20098876953125 261.7720031738281 260.3819885253906 259.0400085449219 257.7699890136719 256.47900390625 255.12100219726562 253.56700134277344 251.94900512695312 250.2689971923828 248.53900146484375 245.12100219726562 242.98199462890625 241.37100219726562 240.3520050048828 239.40199279785156 238.65499877929688 238.4080047607422 237.5500030517578 238.71099853515625 239.33799743652344 239.90699768066406 241.01100158691406 242.6909942626953 243.947998046875 244.67999267578125 245.22999572753906 245.34300231933594 245.302001953125 244.5469970703125 243.4969940185547 242.7270050048828 241.17799377441406 239.58999633789062 237.7100067138672 237.03399658203125 -9999 -9999
-9999 -9999 -9999 -9999 -9999 -9999 -9999 -9999 -9999 -9999 -9999 -9999 -9999 -9999 -9999 -9999 -9999 -9999 -9999 -9999 -9999 -9999 262.3169860839844 260.989013671875 259.7340087890625 258.82000732421875 258.2330017089844 257.3630065917969 256.4389953613281 255.3520050048828 254.11399841308594 251.7239990234375 250.39700317382812 250.06700134277344 247.60299682617188 246.91099548339844 246.156005859375 243.64700317382812 243.3000030517578 243.3249969482422 243.17100524902344 244.21299743652344 245.36099243164062 246.0749969482422 246.91000366210938 249.47799682617188 252.08299255371094 255.66700744628906 256.99700927734375 258.4010009765625 259.8789978027344 260.81500244140625 261.4360046386719 261.6300048828125 261.28900146484375 260.89898681640625 253.66099548339844 252.63800048828125 251.16799926757812 253.88299560546875 255.68899536132812 255.73500061035156 255.41400146484375 255.01499938964844 254.62100219726562 254.1699981689453 253.74600219726562 253.28900146484375 252.7030029296875 252.19200134277344 251.6320037841797 250.9510040283203 250.7220001220703 250.68299865722656 250.49600219726562 250.16099548339844 249.71299743652344 249.29400634765625 249.01699829101562 248.54400634765625 247.69200134277344 246.68899536132812 245.9290008544922 245.2740020751953 244.55999755859375 243.92799377441406 243.26199340820312 242.5659942626953 241.73300170898438 240.95799255371094 240.1739959716797 239.5659942626953 239.04200744628906 238.23500061035156 237.31199645996094 236.6790008544922 236.08599853515625 235.38400268554688 234.88499450683594 234.94900512695312 234.9199981689453 235.322998046875 237.03500366210938 238.3040008544922 240.10000610351562 242.16200256347656 244.08299255371094 248.81500244140625 246.45899963378906 252.22300720214844 257.2799987792969 258.9490051269531 260.5350036621094 261.9410095214844 263.5849914550781 264.218994140625 264.3580017089844 264.0119934082031 263.24200439453125 262.2080078125 261.05999755859375 259.72698974609375 258.33599853515625 257.093994140625 255.84500122070312 254.49200439453125 253.0659942626953 251.50799560546875 249.66000366210938 247.77499389648438 246.43800354003906 243.18699645996094 241.26499938964844 239.6719970703125 238.9770050048828 238.2259979248047 237.6230010986328 236.81300354003906 237.54299926757812 238.18099975585938 238.96099853515625 239.8179931640625 241.0590057373047 241.31500244140625 241.76400756835938 242.43800354003906 242.4239959716797 241.85899353027344 240.98399353027344 239.98699951171875 238.17100524902344 237.48699951171875 236.9250030517578 236.1320037841797 235.4669952392578 -9999 -9999
-9999 -9999 -9999 -9999 -9999 -9999 -9999 -9999 -9999 -9999 -9999 -9999 -9999 -9999 -9999 -9999 -9999 -9999 -9999 -9999 -9999 -9999 -9999 261.56201171875 259.947998046875 259.2359924316406 258.14801025390625 257.1679992675781 256.1310119628906 255.25799560546875 253.56399536132812 251.7239990234375 250.07400512695312 249.16000366210938 246.8249969482422 246.2740020751953 244.3730010986328 243.1739959716797 242.78500366210938 242.8090057373047 242.39999389648438 242.26199340820312 242.58200073242188 244.35499572753906 245.05299377441406 248.80599975585938 250.0229949951172 255.8300018310547 256.8630065917969 258.0220031738281 259.0249938964844 260.0299987792969 260.5849914550781 260.64599609375 260.20098876953125 259.5740051269531 251.6649932861328 251.97999572753906 254.03500366210938 250.75399780273438 255.0240020751953 255.13999938964844 254.8000030517578 254.31100463867188 253.88299560546875 253.45700073242188 253.0919952392578 252.64599609375 252.24600219726562 251.79800415039062 251.25399780273438 250.6479949951172 249.97799682617188 249.91000366210938 249.92300415039062 249.6999969482422 249.3489990234375 248.9949951171875 248.66600036621094 248.5019989013672 246.95700073242188 246.10499572753906 245.2729949951172 244.42999267578125 243.7030029296875 243.03399658203125 242.3800048828125 241.69900512695312 240.9709930419922 240.26800537109375 239.625 239.02699279785156 238.7100067138672 237.593994140625 236.7530059814453 236.1320037841797 235.58799743652344 234.93299865722656 234.927001953125 235.01300048828125 235.00599670410156 235.48500061035156 237.23500061035156 238.74400329589844 240.63099670410156 242.53700256347656 244.3090057373047 245.8040008544922 247.84100341796875 255.21200561523438 257.1300048828125 258.8949890136719 260.3160095214844 261.79901123046875 262.5559997558594 262.9100036621094 262.8420104980469 262.4460144042969 261.6390075683594 260.7300109863281 259.55999755859375 258.4049987792969 257.2250061035156 256.00299072265625 254.6999969482422 253.2830047607422 251.99600219726562 250.7270050048828 248.91099548339844 247.24099731445312 245.50100708007812 244.2429962158203 241.40199279785156 239.6929931640625 238.2729949951172 237.64999389648438 237.031005859375 236.2790069580078 236.281005859375 236.93299865722656 237.36399841308594 238.3769989013672 238.2760009765625 238.18699645996094 239.093994140625 239.6909942626953 239.35000610351562 237.86500549316406 237.2100067138672 236.91600036621094 236.41400146484375 235.8300018310547 235.2310028076172 234.64700317382812 234.2239990234375 -9999 -9999
-9999 -9999 -9999 -9999 -9999 -9999 -9999 -9999 -9999 -9999 -9999 -9999 -9999 -9999 -9999 -9999 -9999 -9999 -9999 -9999 -9999 -9999 -9999 261.7309875488281 259.822998046875 258.89898681640625 257.72698974609375 256.6050109863281 255.47900390625 254.47500610351562 252.35699462890625 251.7259979248047 248.9499969482422 247.27499389648438 246.47799682617188 245.72799682617188 244.6540069580078 243.05599975585938 242.04200744628906 241.32000732421875 241.79600524902344 241.80499267578125 242.1840057373047 243.8470001220703 245.11700439453125 246.85000610351562 249.82200622558594 252.43299865722656 256.10101318359375 257.07501220703125 258.13299560546875 258.9070129394531 259.2179870605469 259.2090148925781 258.8479919433594 257.87200927734375 249.7259979248047 251.8780059814453 254.927001953125 249.71299743652344 254.3000030517578 254.34800720214844 254.08799743652344 253.64999389648438 253.2550048828125 252.76699829101562 252.4199981689453 252.04299926757812 251.64599609375 251.2830047607422 250.54400634765625 250.04600524902344 249.23800659179688 249.25999450683594 249.34500122070312 249.24099731445312 248.97000122070312 248.60899353027344 248.47900390625 247.1790008544922 246.33399963378906 245.55599975585938 244.71299743652344 243.81199645996094 242.99099731445312 242.22999572753906 241.47300720214844 240.78599548339844 240.19200134277344 239.56900024414062 238.99000549316406 238.5330047607422 237.75 236.91700744628906 236.22300720214844 235.66400146484375 235.23399353027344 234.63900756835938 234.77699279785156 234.79800415039062 234.85699462890625 235.69900512695312 237.45799255371094 239.14700317382812 240.99000549316406 242.65899658203125 243.9250030517578 244.61900329589844 253.2310028076172 255.093994140625 257.02801513671875 258.7120056152344 259.9169921875 261.2130126953125 261.37200927734375 261.3840026855469 261.04998779296875 260.49798583984375 259.8030090332031 258.90301513671875 257.8800048828125 256.7149963378906 255.73399353027344 254.66299438476562 252.22300720214844 250.8260040283203 249.3719940185547 247.9969940185547 247.052001953125 246.18600463867188 244.38299560546875 242.40199279785156 240.89599609375 239.5489959716797 238.21800231933594 237.22000122070312 236.63999938964844 235.9550018310547 234.9219970703125 235.33900451660156 235.802001953125 236.19200134277344 236.5330047607422 236.60899353027344 236.41099548339844 236.3419952392578 236.38999938964844 236.052001953125 235.6699981689453 235.2899932861328 234.89300537109375 234.5240020751953 233.56100463867188 232.67599487304688 232.62399291992188 -9999 -9999
-9999 -9999 -9999 -9999 -9999 -9999 -9999 -9999 -9999 -9999 -9999 -9999 -9999 -9999 -9999 -9999 -9999 -9999 -9999 -9999 -9999 -9999 -9999 -9999 260.0270080566406 258.3160095214844 257.2770080566406 255.5469970703125 254.6009979248047 253.48800659179688 252.4530029296875 251.37899780273438 249.08099365234375 247.53799438476562 246.82899475097656 245.59500122070312 244.02999877929688 242.92100524902344 241.677001953125 241.51100158691406 241.39500427246094 241.91299438476562 241.4010009765625 243.3560028076172 245.70599365234375 246.41000366210938 249.11399841308594 250.10699462890625 255.17599487304688 255.99899291992188 256.8900146484375 257.7040100097656 257.7969970703125 257.58599853515625 257.4909973144531 256.04901123046875 247.46299743652344 251.31100463867188 254.29600524902344 248.77000427246094 251.66299438476562 253.48599243164062 253.37600708007812 253.10299682617188 252.70799255371094 252.0959930419922 251.7550048828125 251.22999572753906 250.79100036621094 250.48199462890625 250.09100341796875 249.93099975585938 249.2519989013672 248.80299377441406 248.82899475097656 248.73500061035156 248.4709930419922 248.36500549316406 247.1230010986328 246.45700073242188 245.70399475097656 244.9739990234375 244.21400451660156 243.39199829101562 242.5050048828125 241.52999877929688 240.73399353027344 240.0679931640625 239.45899963378906 238.93499755859375 238.43499755859375 238.07000732421875 237.07699584960938 236.29299926757812 235.6959991455078 235.2740020751953 234.69400024414062 234.4720001220703 234.447998046875 234.55099487304688 234.9010009765625 236.25 237.75999450683594 239.4600067138672 241.1820068359375 242.61199951171875 243.66700744628906 246.6580047607422 252.85400390625 254.80299377441406 256.71099853515625 258.1549987792969 259.2850036621094 260.031005859375 259.9599914550781 259.69000244140625 259.18798828125 258.5840148925781 257.8590087890625 257.2099914550781 256.322998046875 253.6479949951172 252.531005859375 251.55599975585938 250.29200744628906 249.14199829101562 247.51199340820312 244.4969940185547 243.23500061035156 242.6320037841797 241.87100219726562 240.88499450683594 239.77200317382812 238.88800048828125 237.6269989013672 236.66799926757812 235.7010040283203 234.9510040283203 234.34100341796875 234.4239959716797 234.45899963378906 234.66600036621094 234.8520050048828 235.00599670410156 235.06399536132812 235.2050018310547 234.9080047607422 234.5679931640625 234.33799743652344 233.31900024414062 232.71299743652344 232.56900024414062 232.49200439453125 232.4010009765625 232.19400024414062 -9999 -9999
-9999 -9999 -9999 -9999 -9999 -9999 -9999 -9999 -9999 -9999 -9999 -9999 -9999 -9999 -9999 -9999 -9999 -9999 -9999 -9999 -9999 -9999 -9999 -9999 259.0190124511719 258.3030090332031 256.4070129394531 254.39500427246094 253.02999877929688 252.58399963378906 251.51600646972656 249.2779998779297 248.66600036621094 248.05099487304688 247.44000244140625 246.33999633789062 245.64199829101562 243.2740020751953 241.43499755859375 241.28900146484375 241.4040069580078 241.51499938964844 241.11300659179688 240.9409942626953 243.56900024414062 244.4770050048828 244.8249969482422 247.96800231933594 252.92100524902344 253.71800231933594 254.82699584960938 255.76800537109375 256.1300048828125 255.718994140625 255.18299865722656 253.4770050048828 246.3509979248047 249.7530059814453 253.49000549316406 249.5189971923828 250.29400634765625 252.61900329589844 252.7239990234375 252.3730010986328 252.0290069580078 251.47300720214844 251.0800018310547 250.53199768066406 250.35400390625 250.40199279785156 249.97999572753906 248.9739990234375 249.0189971923828 248.65899658203125 248.41299438476562 248.25100708007812 248.1999969482422 247.08900451660156 246.4600067138672 245.75999450683594 245.0330047607422 244.32400512695312 243.63499450683594 242.927001953125 242.11599731445312 241.19500732421875 240.281005859375 239.51100158691406 238.9320068359375 238.4409942626953 237.96600341796875 237.21499633789062 236.47500610351562 235.82400512695312 235.2790069580078 234.83799743652344 234.36000061035156 234.4250030517578 234.58200073242188 234.46600341796875 235.01699829101562 236.3520050048828 238.02200317382812 239.70399475097656 241.27099609375 242.51100158691406 243.49400329589844 250.3209991455078 252.30499267578125 254.25399780273438 255.99600219726562 257.2879943847656 258.5820007324219 258.6000061035156 258.4100036621094 257.9209899902344 257.5329895019531 256.84100341796875 254.7469940185547 253.8280029296875 252.54200744628906 251.50399780273438 250.85499572753906 248.43600463867188 246.73500061035156 245.46299743652344 243.51499938964844 242.1199951171875 241.2010040283203 240.69900512695312 239.97999572753906 239.05099487304688 237.79100036621094 237.11900329589844 236.28399658203125 235.48800659179688 234.7550048828125 234.14199829101562 233.73899841308594 233.67300415039062 233.5240020751953 233.4759979248047 233.56399536132812 233.70199584960938 233.91400146484375 234.1009979248047 232.8679962158203 232.76499938964844 232.55099487304688 232.4499969482422 232.27099609375 232.16400146484375 232.16900634765625 231.89999389648438 230.54800415039062 -9999 -9999
-9999 -9999 -9999 -9999 -9999 -9999 -9999 -9999 -9999 -9999 -9999 -9999 -9999 -9999 -9999 -9999 -9999 -9999 -9999 -9999 -9999 -9999 -9999 -9999 257.7869873046875 254.56300354003906 254.9770050048828 252.9980010986328 250.99400329589844 250.22000122070312 249.8990020751953 249.5229949951172 248.76499938964844 247.46800231933594 246.93600463867188 245.01699829101562 243.46499633789062 243.1479949951172 241.44900512695312 240.78900146484375 241.1439971923828 241.281005859375 241.11599731445312 240.57000732421875 241.54800415039062 243.6699981689453 244.72300720214844 247.73500061035156 249.67599487304688 251.27999877929688 252.5050048828125 253.63600158691406 254.052001953125 253.85699462890625 253.3509979248047 252.6009979248047 246.36199951171875 247.47500610351562 252.18800354003906 252.03199768066406 249.01600646972656 252.01499938964844 251.74600219726562 251.48699951171875 251.0989990234375 250.75799560546875 250.72999572753906 250.00399780273438 248.95700073242188 249.03399658203125 248.9770050048828 249.11399841308594 248.98899841308594 249.06900024414062 247.93499755859375 248.0050048828125 247.28500366210938 246.51699829101562 245.89599609375 245.1909942626953 244.3939971923828 243.61599731445312 242.927001953125 242.302001953125 241.5679931640625 240.7969970703125 239.98199462890625 239.16600036621094 238.5030059814453 237.93899536132812 237.6199951171875 236.62899780273438 235.9739990234375 235.38400268554688 235.01100158691406 234.50900268554688 234.30099487304688 234.3730010986328 234.40699768066406 234.42100524902344 235.1179962158203 236.64100646972656 238.2570037841797 239.81300354003906 241.2010040283203 242.16900634765625 245.7740020751953 249.5469970703125 251.5959930419922 253.2989959716797 254.83799743652344 256.1669921875 257.5660095214844 257.2439880371094 256.3290100097656 254.98300170898438 254.0590057373047 253.16000366210938 252.5260009765625 252 248.41900634765625 246.84300231933594 245.75999450683594 244.5540008544922 243.60899353027344 242.24099731445312 240.65199279785156 239.36599731445312 238.7050018310547 238.39199829101562 237.9929962158203 237.34300231933594 236.53199768066406 235.71600341796875 234.97500610351562 234.31700134277344 233.802001953125 233.42300415039062 233.218994140625 233.31399536132812 233.2949981689453 232.95399475097656 232.91700744628906 232.8719940185547 232.78900146484375 232.58900451660156 232.4770050048828 232.35499572753906 232.08200073242188 232.0030059814453 231.98300170898438 231.6540069580078 231.21600341796875 229.5590057373047 228.7480010986328 -9999 -9999
-9999 -9999 -9999 -9999 -9999 -9999 -9999 -9999 -9999 -9999 -9999 -9999 -9999 -9999 -9999 -9999 -9999 -9999 -9999 -9999 -9999 -9999 -9999 -9999 -9999 254.49000549316406 252.9709930419922 250.96800231933594 250.27499389648438 250.1510009765625 250.00999450683594 248.76199340820312 247.37399291992188 246.10299682617188 245.27000427246094 244.81900024414062 244.35699462890625 240.82200622558594 240.4669952392578 240.3560028076172 240.44000244140625 240.68299865722656 240.677001953125 240.48599243164062 240.3769989013672 242.32200622558594 244.0709991455078 245.31199645996094 246.0679931640625 249.7310028076172 250.60499572753906 251.64300537109375 252.09300231933594 252.06500244140625 251.68099975585938 251.19200134277344 247.02200317382812 244.10299682617188 251.6439971923828 251.54400634765625 246.9320068359375 250.59800720214844 250.8990020751953 250.4720001220703 250.03700256347656 249.56199645996094 249.1439971923828 249.0050048828125 248.88600158691406 249.07000732421875 248.9949951171875 248.0800018310547 247.2469940185547 248.93699645996094 247.68899536132812 247.61399841308594 246.3159942626953 245.85899353027344 245.322998046875 244.70199584960938 243.89300537109375 243.0229949951172 242.2469940185547 241.4510040283203 240.8800048828125 240.25599670410156 239.53700256347656 238.81500244140625 238.1280059814453 237.572998046875 236.9199981689453 236.16700744628906 235.56100463867188 235.07400512695312 234.67599487304688 234.19700622558594 234.2729949951172 233.86900329589844 234.25399780273438 234.36500549316406 235.29400634765625 236.85299682617188 238.4459991455078 239.7989959716797 240.9550018310547 241.63400268554688 246.00999450683594 249.1929931640625 250.7469940185547 252.2449951171875 253.7100067138672 255.0019989013672 255.26800537109375 254.36000061035156 253.572998046875 252.8459930419922 252.01300048828125 249.74200439453125 248.4340057373047 247.60400390625 245.6959991455078 243.81700134277344 242.90499877929688 241.6479949951172 239.78900146484375 239.15499877929688 238.42999267578125 237.81300354003906 237.37399291992188 236.92999267578125 236.35899353027344 235.83799743652344 235.11500549316406 234.427001953125 233.84500122070312 233.34100341796875 233.04400634765625 232.8699951171875 232.843994140625 232.93099975585938 232.99600219726562 232.8300018310547 232.61599731445312 232.50799560546875 232.2989959716797 231.73899841308594 231.80299377441406 231.7790069580078 231.5590057373047 231.406005859375 231.2239990234375 229.6300048828125 228.60699462890625 228.9429931640625 228.8470001220703 -9999 -9999
-9999 -9999 -9999 -9999 -9999 -9999 -9999 -9999 -9999 -9999 -9999 -9999 -9999 -9999 -9999 -9999 -9999 -9999 -9999 -9999 -9999 -9999 -9999 -9999 -9999 253.45399475097656 251.8040008544922 250.71099853515625 249.88499450683594 250.16000366210938 250.0760040283203 249.9949951171875 247.43699645996094 245.76699829101562 245.4290008544922 242.50399780273438 241.0279998779297 240.7830047607422 238.98899841308594 238.947998046875 238.89599609375 240.61199951171875 240.5469970703125 240.14300537109375 239.72500610351562 241.12399291992188 242.9810028076172 244.5189971923828 245.39100646972656 248.37100219726562 248.9499969482422 249.79200744628906 250.22500610351562 250.31700134277344 250.05799865722656 249.718994140625 246.0030059814453 243.08900451660156 250.7169952392578 250.83900451660156 249.2969970703125 246.07899475097656 249.56100463867188 249.093994140625 249.07899475097656 249.31300354003906 244.81100463867188 249 249.19900512695312 248.18800354003906 247.53199768066406 246.6479949951172 246.89500427246094 247.3070068359375 246.17799377441406 246.1790008544922 245.57200622558594 245.19400024414062 244.55499267578125 243.9759979248047 243.27000427246094 242.52499389648438 241.51199340820312 240.6529998779297 240.1280059814453 239.55999755859375 239.0070037841797 238.35499572753906 237.66299438476562 237.13600158691406 236.427001953125 235.68899536132812 235.25 234.83200073242188 234.34100341796875 234.0189971923828 234.06900024414062 234.18600463867188 234.10499572753906 234.5659942626953 235.427001953125 236.91700744628906 238.43099975585938 239.55999755859375 240.49099731445312 240.6219940185547 245.40199279785156 247.22500610351562 249.18899536132812 250.41900634765625 251.73199462890625 252.63900756835938 252.531005859375 252.4290008544922 249.86500549316406 248.81700134277344 247.45899963378906 245.8820037841797 245.3070068359375 244.40499877929688 242.31700134277344 240.51499938964844 239.93299865722656 239.28199768066406 238.59800720214844 237.77999877929688 237 236.4459991455078 235.9720001220703 235.49600219726562 234.9600067138672 234.4459991455078 233.8820037841797 233.47000122070312 233.1009979248047 232.83700561523438 232.75 232.8209991455078 232.92999267578125 232.7310028076172 232.6269989013672 232.49099731445312 232.0709991455078 231.26199340820312 231.21800231933594 231.1959991455078 231.1540069580078 231.0279998779297 230.531005859375 229.4720001220703 228.53900146484375 228.7519989013672 228.62100219726562 228.593994140625 228.73899841308594 -9999 -9999
-9999 -9999 -9999 -9999 -9999 -9999 -9999 -9999 -9999 -9999 -9999 -9999 -9999 -9999 -9999 -9999 -9999 -9999 -9999 -9999 -9999 -9999 -9999 -9999 -9999 -9999 250.4759979248047 249.5590057373047 249.62399291992188 249.53199768066406 248.9550018310547 247.67100524902344 247.4499969482422 244.35299682617188 242.52999877929688 242.46400451660156 239.43699645996094 239.33099365234375 236.2779998779297 237.4149932861328 238.6699981689453 240.5290069580078 240.3489990234375 239.76600646972656 239.3350067138672 240.80299377441406 242.0679931640625 243.26800537109375 243.81300354003906 246.3070068359375 248.07000732421875 248.96099853515625 249.9010009765625 249.98300170898438 248.08099365234375 247.1739959716797 243.05799865722656 241.51699829101562 249.78500366210938 249.0989990234375 249.73800659179688 248.7729949951172 245.22000122070312 246.427001953125 248.94000244140625 248.75599670410156 248.2259979248047 244.8419952392578 245.2989959716797 245.69000244140625 246.10000610351562 246.42599487304688 247.11099243164062 246.46200561523438 246.31300354003906 246.18299865722656 244.85499572753906 244.34800720214844 243.7779998779297 243.10000610351562 242.55999755859375 241.87100219726562 240.93899536132812 240.1020050048828 239.3800048828125 238.88699340820312 238.3990020751953 237.82699584960938 237.17999267578125 236.322998046875 235.71499633789062 235.3979949951172 235.03700256347656 234.60299682617188 234.16400146484375 233.8820037841797 234.0260009765625 233.9149932861328 233.96800231933594 234.43299865722656 235.45399475097656 236.843994140625 238.21099853515625 239.14700317382812 239.92999267578125 239.9219970703125 243.88099670410156 245.8769989013672 247.41799926757812 248.2760009765625 249.20599365234375 248.24200439453125 247.58799743652344 247.1269989013672 245.69700622558594 245.11399841308594 243.68099975585938 242.1479949951172 241.1649932861328 240.7449951171875 240.0260009765625 239.16799926757812 238.39700317382812 237.7100067138672 237.02699279785156 236.4080047607422 235.86500549316406 235.35400390625 234.83700561523438 234.32000732421875 233.93899536132812 233.50399780273438 233.20599365234375 232.9949951171875 232.9320068359375 232.9429931640625 232.77200317382812 232.67999267578125 232.1510009765625 231.1540069580078 231.3520050048828 231.47500610351562 231.4530029296875 231.0679931640625 230.72799682617188 230.51499938964844 230.33200073242188 229.38900756835938 228.4720001220703 228.69000244140625 228.44000244140625 228.25900268554688 228.39100646972656 228.3000030517578 228.34300231933594 -9999 -9999
-9999 -9999 -9999 -9999 -9999 -9999 -9999 -9999 -9999 -9999 -9999 -9999 -9999 -9999 -9999 -9999 -9999 -9999 -9999 -9999 -9999 -9999 -9999 -9999 -9999 -9999 249.23500061035156 248.5800018310547 248.5279998779297 248.2689971923828 248.33099365234375 246.88299560546875 243.52699279785156 243.53700256347656 242.48399353027344 241.13900756835938 239.48300170898438 239.4770050048828 238.3679962158203 238.61500549316406 238.43600463867188 239.656005859375 239.88600158691406 239.83799743652344 239.14999389648438 240.73699951171875 240.81100463867188 242.8470001220703 243.93499755859375 246.14199829101562 247.26100158691406 247.7779998779297 248.79600524902344 247.90499877929688 247.26199340820312 247.25 244.6840057373047 240.76100158691406 248.5590057373047 249.16000366210938 249.15199279785156 248.7689971923828 248.54299926757812 247.58200073242188 244.427001953125 247.3300018310547 244.75900268554688 244.8780059814453 244.83599853515625 245.69000244140625 245.7480010986328 245.80099487304688 245.28599548339844 244.70799255371094 246.15899658203125 245.9320068359375 244.17799377441406 243.7989959716797 242.90499877929688 242.24000549316406 241.66400146484375 241.04400634765625 240.29800415039062 239.61099243164062 238.89599609375 238.33700561523438 237.85699462890625 237.33700561523438 236.76400756835938 235.8260040283203 235.36500549316406 235.00599670410156 234.75 234.36300659179688 233.97900390625 233.76600646972656 233.51400756835938 233.66099548339844 233.78399658203125 234.36599731445312 235.33200073242188 236.73399353027344 237.8719940185547 238.60000610351562 239.33099365234375 239.28500366210938 241.59100341796875 243.8000030517578 245.08200073242188 245.91799926757812 246.00900268554688 245.24200439453125 243.95700073242188 243.21099853515625 241.60800170898438 241.093994140625 240.72900390625 240.23599243164062 239.64500427246094 238.99000549316406 238.31900024414062 237.59100341796875 236.93800354003906 236.3800048828125 235.802001953125 235.23599243164062 234.72999572753906 234.37399291992188 234.03399658203125 233.66299438476562 233.41099548339844 232.99200439453125 233.0469970703125 232.88099670410156 232.74200439453125 231.91900634765625 230.50599670410156 230.66900634765625 230.78700256347656 230.82000732421875 230.90199279785156 230.9669952392578 231.1540069580078 230.89999389648438 230.35699462890625 229.65899658203125 228.39700317382812 228.5260009765625 228.39100646972656 228.34500122070312 228.28599548339844 228.1840057373047 228.31399536132812 228.46200561523438 228.47500610351562 -9999 -9999
-9999 -9999 -9999 -9999 -9999 -9999 -9999 -9999 -9999 -9999 -9999 -9999 -9999 -9999 -9999 -9999 -9999 -9999 -9999 -9999 -9999 -9999 -9999 -9999 -9999 -9999 -9999 247.94900512695312 247.60299682617188 247.26499938964844 246.2469940185547 245.11500549316406 243.66799926757812 243.1199951171875 240.63999938964844 239.59300231933594 239.0659942626953 238.302001953125 237.84500122070312 237.63400268554688 237.72000122070312 237.69000244140625 238.0800018310547 238.61199951171875 239.0229949951172 239.96800231933594 241.0260009765625 242.21299743652344 243.50799560546875 245.6510009765625 246.66799926757812 246.92799377441406 247.01199340820312 247.20799255371094 247.0330047607422 245.3350067138672 243.22999572753906 240.08599853515625 245.02000427246094 247.13999938964844 247.3179931640625 247.5590057373047 246.1300048828125 246.8780059814453 246.2050018310547 244.06300354003906 243.74200439453125 244.06500244140625 245.4320068359375 245.44500732421875 245.4429931640625 245.2949981689453 244.91000366210938 244.531005859375 245.48899841308594 244.0070037841797 243.8300018310547 243.8090057373047 243.69000244140625 241.38800048828125 240.78900146484375 240.2030029296875 239.68800354003906 239.03399658203125 238.45599365234375 237.85400390625 237.33900451660156 236.83700561523438 236.01199340820312 235.29200744628906 234.75799560546875 234.54400634765625 234.50799560546875 234.0709991455078 233.83599853515625 233.61000061035156 233.58099365234375 233.6199951171875 233.70599365234375 234.34500122070312 235.23500061035156 236.43099975585938 237.3260040283203 238.07699584960938 238.79200744628906 239.37100219726562 240.60699462890625 241.98199462890625 243.06399536132812 242.83299255371094 242.4770050048828 242.1179962158203 241.5189971923828 240.83599853515625 240.16700744628906 239.52000427246094 238.9429931640625 238.3699951171875 237.8419952392578 237.33099365234375 236.78599548339844 236.18299865722656 235.61099243164062 235.11900329589844 234.68899536132812 234.26300048828125 233.97999572753906 233.84500122070312 233.3040008544922 233.1300048828125 233.01400756835938 232.85899353027344 231.93699645996094 230.39999389648438 230.3730010986328 230.3090057373047 230.2899932861328 230.25900268554688 230.33599853515625 230.43899536132812 230.51400756835938 230.84500122070312 230.91900634765625 230.9550018310547 230.25799560546875 228.5260009765625 228.47999572753906 228.26800537109375 228.2010040283203 228.1750030517578 228.33799743652344 228.30299377441406 228.156005859375 228.26300048828125 228.3509979248047 -9999 -9999
-9999 -9999 -9999 -9999 -9999 -9999 -9999 -9999 -9999 -9999 -9999 -9999 -9999 -9999 -9999 -9999 -9999 -9999 -9999 -9999 -9999 -9999 -9999 -9999 -9999 -9999 -9999 247.13800048828125 247.31700134277344 246.12399291992188 244.6179962158203 243.69700622558594 243.2779998779297 242.64500427246094 240.2030029296875 239.4709930419922 238.88699340820312 238.3090057373047 238.02499389648438 238.00799560546875 237.6280059814453 238.25799560546875 238.58700561523438 238.51300048828125 239.51499938964844 240.6219940185547 242.05799865722656 242.04200744628906 244.29600524902344 244.5800018310547 246.80299377441406 247.16400146484375 247.1510009765625 247.09500122070312 246.41400146484375 243.9320068359375 241.5540008544922 239.35699462890625 242.67599487304688 245.3249969482422 245.45799255371094 245.00999450683594 245.05099487304688 244.50100708007812 244.50799560546875 244.0399932861328 243.76199340820312 243.4320068359375 245.37100219726562 245.33099365234375 245.38299560546875 245.197998046875 244.8090057373047 244.4010009765625 244.0780029296875 243.875 243.64199829101562 243.7259979248047 242.04600524902344 240.71800231933594 240.07699584960938 239.5189971923828 239.02699279785156 238.54800415039062 238.00100708007812 237.41200256347656 236.8800048828125 236.26199340820312 235.3979949951172 234.91000366210938 234.41600036621094 234.3070068359375 234.11500549316406 233.63999938964844 233.52499389648438 233.66200256347656 234.12600708007812 233.76600646972656 233.70799255371094 234.2480010986328 234.9759979248047 236.0679931640625 236.95599365234375 237.76499938964844 237.7239990234375 238.7969970703125 239.66900634765625 240.56500244140625 241.14999389648438 241.29200744628906 241.05299377441406 240.5050048828125 239.79400634765625 239.0959930419922 238.39599609375 237.8719940185547 237.31700134277344 236.8209991455078 236.31900024414062 235.8350067138672 235.32400512695312 234.927001953125 234.60000610351562 234.3489990234375 234.0749969482422 233.4340057373047 233.25599670410156 233.13999938964844 233.01600646972656 232.16600036621094 230.91299438476562 230.73800659179688 230.48300170898438 230.1750030517578 230.02999877929688 229.9149932861328 229.88900756835938 229.98399353027344 230.13900756835938 229.81700134277344 229.8979949951172 230.26199340820312 230.31900024414062 230.30499267578125 228.41600036621094 228.29400634765625 228.2100067138672 228.2689971923828 228.26800537109375 228.10000610351562 228.1529998779297 228.20599365234375 228.27200317382812 228.2740020751953 228.3780059814453 -9999 -9999
-9999 -9999 -9999 -9999 -9999 -9999 -9999 -9999 -9999 -9999 -9999 -9999 -9999 -9999 -9999 -9999 -9999 -9999 -9999 -9999 -9999 -9999 -9999 -9999 -9999 -9999 -9999 246.4459991455078 246.55099487304688 247.79299926757812 244.156005859375 242.6529998779297 241.88600158691406 241.32000732421875 240.52699279785156 239.47300720214844 239.41400146484375 238.1820068359375 237.6649932861328 237.47500610351562 236.21800231933594 236.90199279785156 238.14700317382812 238.0469970703125 240.51400756835938 242.22999572753906 242.06199645996094 244.0260009765625 245.28799438476562 245.94400024414062 246.19400024414062 247.16400146484375 247.2689971923828 247.13499450683594 245.67300415039062 244.23199462890625 241.3939971923828 238.9409942626953 240.9029998779297 243.11399841308594 243.1320037841797 243.09100341796875 243.46099853515625 243.71400451660156 243.8209991455078 243.73399353027344 244.3090057373047 243.09800720214844 244.74899291992188 245.39500427246094 245.4499969482422 245.23300170898438 244.8560028076172 244.52200317382812 244.35000610351562 244.01400756835938 242.21600341796875 241.25399780273438 241.0279998779297 240.906005859375 239.42100524902344 239.05999755859375 238.51300048828125 238.0229949951172 237.47000122070312 236.86500549316406 236.23199462890625 235.5919952392578 235.03199768066406 234.58900451660156 234.31500244140625 234.1269989013672 233.7740020751953 233.40899658203125 233.41799926757812 233.0800018310547 235.62600708007812 234.0659942626953 233.63299560546875 234.0959930419922 234.7530059814453 235.69700622558594 236.6490020751953 237.39100646972656 237.56199645996094 238.2169952392578 238.8560028076172 239.40199279785156 239.72300720214844 239.67799377441406 239.3699951171875 238.86500549316406 238.24200439453125 237.6020050048828 236.97900390625 236.4669952392578 235.90899658203125 235.4510040283203 235.052001953125 234.72300720214844 234.4290008544922 234.25399780273438 233.6179962158203 233.44500732421875 233.3300018310547 233.17599487304688 232.3800048828125 231.47900390625 231.38800048828125 231.0780029296875 230.6820068359375 230.34100341796875 230.0659942626953 229.89700317382812 229.7729949951172 229.49000549316406 229.5659942626953 229.343994140625 229.33799743652344 229.51300048828125 229.60400390625 229.91200256347656 229.6540069580078 228.75599670410156 228.7169952392578 228.34500122070312 228.20199584960938 228.1439971923828 228.2779998779297 228.27499389648438 228.26400756835938 228.1909942626953 228.1699981689453 228.17599487304688 228.4739990234375 -9999 -9999
-9999 -9999 -9999 -9999 -9999 -9999 -9999 -9999 -9999 -9999 -9999 -9999 -9999 -9999 -9999 -9999 -9999 -9999 -9999 -9999 -9999 -9999 -9999 -9999 -9999 -9999 -9999 -9999 245.281005859375 244.53199768066406 243.7310028076172 242.89700317382812 242.38999938964844 240.7740020751953 240.03199768066406 238.1439971923828 239.08700561523438 237.66000366210938 237.44200134277344 237.4669952392578 237.3509979248047 237.47000122070312 237.5659942626953 238.38800048828125 241.75999450683594 241.68499755859375 242.10499572753906 245.61500549316406 245.7429962158203 247.81500244140625 246.44700622558594 247.0659942626953 247.13499450683594 247.00900268554688 245.27000427246094 243.08900451660156 241.18699645996094 239.83799743652344 239.08599853515625 242.4290008544922 242.77099609375 241.75999450683594 242.33799743652344 242.57000732421875 243.0070037841797 242.75999450683594 244.29299926757812 244.6269989013672 242.3679962158203 244.63900756835938 244.89700317382812 244.44400024414062 244.1199951171875 244.02699279785156 242.86000061035156 241.85299682617188 241.8489990234375 242.09500122070312 240.2530059814453 239.43800354003906 239.16400146484375 238.4720001220703 238.05299377441406 237.57000732421875 236.95199584960938 236.343994140625 235.63099670410156 234.93099975585938 234.6300048828125 234.3090057373047 234.14199829101562 234.031005859375 233.39999389648438 233.32699584960938 233.31900024414062 233.79600524902344 234.44000244140625 234.5500030517578 233.6649932861328 234.04400634765625 234.66600036621094 235.5970001220703 236.42999267578125 236.6179962158203 237.01100158691406 237.51600646972656 237.98699951171875 238.3260040283203 238.42100524902344 238.22500610351562 237.8560028076172 237.3249969482422 236.65199279785156 236.08099365234375 235.66600036621094 235.32200622558594 234.9550018310547 234.62399291992188 234.41799926757812 233.80599975585938 233.61700439453125 233.48500061035156 233.3489990234375 232.39199829101562 231.52499389648438 231.38800048828125 231.11099243164062 230.93299865722656 230.8040008544922 230.65699768066406 230.3990020751953 229.7550048828125 229.58299255371094 229.3090057373047 229.10800170898438 229.08399963378906 229.0800018310547 229.14500427246094 229.2429962158203 229.33700561523438 229.39500427246094 229.1510009765625 228.9029998779297 228.51300048828125 228.42799377441406 228.3209991455078 228.3780059814453 228.4459991455078 228.3820037841797 228.3300018310547 228.32400512695312 228.33399963378906 228.4199981689453 228.4459991455078 228.51699829101562 -9999 -9999
-9999 -9999 -9999 -9999 -9999 -9999 -9999 -9999 -9999 -9999 -9999 -9999 -9999 -9999 -9999 -9999 -9999 -9999 -9999 -9999 -9999 -9999 -9999 -9999 -9999 -9999 -9999 -9999 245.18499755859375 244.6909942626953 243.66099548339844 242.4429931640625 240.6199951171875 238.7729949951172 238.45700073242188 238.61399841308594 238.77699279785156 237.32400512695312 237.5229949951172 237.46400451660156 237.39999389648438 237.2969970703125 237.3560028076172 239.03799438476562 241.6820068359375 241.73699951171875 243.81900024414062 246.97999572753906 248.0469970703125 247.9290008544922 247.4510040283203 247.92300415039062 248.8459930419922 246.79200744628906 243.91400146484375 242.2530059814453 240.4409942626953 237.7830047607422 237.4080047607422 240.01199340820312 240.52099609375 240.51100158691406 240.53500366210938 241.0919952392578 242.3719940185547 242.8730010986328 243.4759979248047 244.2480010986328 243.66200256347656 241.63600158691406 244.08099365234375 243.9499969482422 242.90199279785156 243.677001953125 242.1479949951172 241.4340057373047 240.17799377441406 240.4810028076172 239.48300170898438 239.38999938964844 238.67999267578125 238.88499450683594 237.51699829101562 237.0500030517578 236.44400024414062 235.78199768066406 235.07200622558594 234.58900451660156 234.39199829101562 234.13999938964844 234.00900268554688 233.87600708007812 233.3820037841797 233.22000122070312 233.3040008544922 234.1959991455078 234.1510009765625 234.0469970703125 233.85000610351562 234.12100219726562 234.88699340820312 235.65899658203125 235.68299865722656 235.968994140625 236.33900451660156 236.677001953125 236.92999267578125 237.00399780273438 236.8939971923828 236.59800720214844 236.23199462890625 235.77200317382812 235.32000732421875 235.05099487304688 234.94700622558594 234.77499389648438 233.9499969482422 233.7969970703125 233.66400146484375 233.552001953125 232.34500122070312 231.67799377441406 231.5760040283203 231.28900146484375 230.9709930419922 230.72999572753906 230.55599975585938 229.78900146484375 229.4739990234375 229.6649932861328 229.5469970703125 229.42300415039062 228.93899536132812 229.01300048828125 228.86199951171875 228.90199279785156 229.03599548339844 229.06900024414062 229.0679931640625 229.07699584960938 229.28700256347656 228.38400268554688 228.23699951171875 228.44400024414062 228.47300720214844 228.16700744628906 228.24000549316406 228.3280029296875 228.2790069580078 227.61099243164062 228.53799438476562 228.81399536132812 228.72000122070312 228.84500122070312 228.8730010986328 -9999 -9999
-9999 -9999 -9999 -9999 -9999 -9999 -9999 -9999 -9999 -9999 -9999 -9999 -9999 -9999 -9999 -9999 -9999 -9999 -9999 -9999 -9999 -9999 -9999 -9999 -9999 -9999 -9999 -9999 -9999 243.1529998779297 241.53799438476562 240.38600158691406 240.30099487304688 238.70399475097656 238.45599365234375 237.08799743652344 236.56500244140625 236.42300415039062 236.38499450683594 236.41400146484375 236.72000122070312 236.875 237.21099853515625 239.26300048828125 241.36599731445312 242.79800415039062 245.97900390625 247.1699981689453 247.91700744628906 248.43600463867188 248.052001953125 248.86099243164062 249.4510040283203 246.86700439453125 243.21600341796875 242.2949981689453 240.46099853515625 237.60299682617188 236.41200256347656 239.281005859375 239.65199279785156 239.46400451660156 239.84500122070312 240.20599365234375 241.0449981689453 242.15499877929688 242.92999267578125 243.80799865722656 243.87100219726562 242.29800415039062 240.90199279785156 240.9550018310547 241.00900268554688 240.7100067138672 240.15499877929688 239.06500244140625 239.10699462890625 239.89199829101562 238.15199279785156 237.8990020751953 237.73399353027344 237.802001953125 237.73800659179688 236.56500244140625 236.0030059814453 235.4429931640625 234.7570037841797 234.48599243164062 234.19700622558594 234.05799865722656 234.09500122070312 233.70399475097656 233.34100341796875 233.21200561523438 233.16700744628906 235.73399353027344 234.33700561523438 233.66200256347656 234.16000366210938 234.6060028076172 235.12399291992188 234.99000549316406 235.1510009765625 235.31300354003906 235.51600646972656 235.71200561523438 235.75599670410156 235.73199462890625 235.59800720214844 235.44400024414062 235.2100067138672 234.9739990234375 234.00900268554688 234.0590057373047 233.93600463867188 233.9600067138672 233.82000732421875 232.73300170898438 231.93600463867188 231.79400634765625 231.53700256347656 231.21499633789062 231.10899353027344 230.7030029296875 229.66700744628906 229.37399291992188 229.28199768066406 229.1510009765625 229.3280029296875 229.15899658203125 228.9459991455078 228.69000244140625 228.9239959716797 228.97799682617188 228.92100524902344 228.93499755859375 228.82699584960938 228.84300231933594 228.72000122070312 227.61000061035156 228.1219940185547 228.01800537109375 227.99899291992188 227.83799743652344 227.80099487304688 227.77999877929688 227.927001953125 227.94200134277344 228.0189971923828 228.0919952392578 228.28599548339844 228.35499572753906 228.50399780273438 228.45599365234375 228.44200134277344 -9999 -9999
-9999 -9999 -9999 -9999 -9999 -9999 -9999 -9999 -9999 -9999 -9999 -9999 -9999 -9999 -9999 -9999 -9999 -9999 -9999 -9999 -9999 -9999 -9999 -9999 -9999 -9999 -9999 -9999 -9999 241.39500427246094 240.31199645996094 240.1300048828125 240.00399780273438 238.06700134277344 236.50999450683594 236.08099365234375 236.11199951171875 235.7530059814453 236.20799255371094 236.35499572753906 236.48800659179688 236.48899841308594 238.343994140625 240.3260040283203 242.052001953125 244.52200317382812 247.48199462890625 248.8820037841797 248.50399780273438 249.5970001220703 248.53500366210938 249.18800354003906 249.79400634765625 248.6199951171875 242.6320037841797 241.74000549316406 238.63499450683594 237.6540069580078 235.73599243164062 237.92999267578125 238.38600158691406 238.8070068359375 239.11700439453125 239.6230010986328 240.42599487304688 241.6719970703125 242.2220001220703 242.8040008544922 243.093994140625 243.27699279785156 240.95599365234375 240.29299926757812 241.02499389648438 239.46200561523438 238.30799865722656 237.9550018310547 237.82400512695312 237.6580047607422 237.78399658203125 237.75 237.625 237.7169952392578 237.70899963378906 236.2449951171875 235.78900146484375 235.07699584960938 234.697998046875 234.47999572753906 234.35899353027344 234.22900390625 234.4949951171875 234.32000732421875 234.03900146484375 233.718994140625 233.46600341796875 233.54600524902344 234.4239959716797 234.28799438476562 234.54400634765625 234.72799682617188 234.69000244140625 234.70899963378906 234.73800659179688 234.85400390625 235.0260009765625 235.1199951171875 235.16900634765625 234.48300170898438 234.12100219726562 234.1510009765625 234.03399658203125 234.11700439453125 234.18299865722656 233.9759979248047 232.83900451660156 232.33799743652344 232.22900390625 231.9340057373047 231.67300415039062 231.48599243164062 230.71600341796875 229.63800048828125 229.49899291992188 229.55299377441406 229.58799743652344 229.3699951171875 229.2480010986328 229.22500610351562 229.08399963378906 228.79400634765625 228.3000030517578 228.3090057373047 228.64500427246094 228.50399780273438 228.48199462890625 228.63499450683594 228.1909942626953 227.37899780273438 227.8979949951172 227.71299743652344 227.72799682617188 227.77499389648438 227.2220001220703 227.78900146484375 227.86599731445312 227.9250030517578 227.7169952392578 227.87899780273438 227.9510040283203 227.802001953125 227.97300720214844 227.95799255371094 227.98399353027344 228.08999633789062 228.11500549316406 -9999 -9999
-9999 -9999 -9999 -9999 -9999 -9999 -9999 -9999 -9999 -9999 -9999 -9999 -9999 -9999 -9999 -9999 -9999 -9999 -9999 -9999 -9999 -9999 -9999 -9999 -9999 -9999 -9999 -9999 -9999 -9999 240.13699340820312 238.47300720214844 236.58099365234375 236.59500122070312 236.32000732421875 235.9810028076172 235.56399536132812 235.5240020751953 235.66400146484375 235.78500366210938 236.11900329589844 236.94500732421875 239.42300415039062 243.197998046875 243.5229949951172 246.22500610351562 247.8159942626953 248.5780029296875 249.3699951171875 248.9720001220703 249.2310028076172 249.41900634765625 249.4510040283203 248.49899291992188 241.88499450683594 241.03399658203125 237.79100036621094 236.80999755859375 234.96499633789062 237.43099975585938 237.9040069580078 238.2209930419922 238.69200134277344 239.25599670410156 240.5469970703125 241.13299560546875 241.77999877929688 240.97900390625 241.23800659179688 242.87600708007812 242.406005859375 239.94500732421875 239.48800659179688 238.78199768066406 238.5189971923828 238.1649932861328 238.03399658203125 238.02000427246094 237.91900634765625 237.85299682617188 237.74400329589844 237.7220001220703 237.5749969482422 235.86500549316406 235.46200561523438 235.16200256347656 234.7239990234375 234.50999450683594 234.29100036621094 234.15199279785156 234.1750030517578 234.19000244140625 234.16200256347656 234.1529998779297 234.1840057373047 234.1909942626953 234.22900390625 234.25799560546875 234.26499938964844 234.22799682617188 234.22799682617188 234.18600463867188 234.2030029296875 234.23199462890625 234.25399780273438 234.2949981689453 234.34300231933594 234.4040069580078 234.4239959716797 234.2030029296875 233.23500061035156 232.1060028076172 232.0850067138672 232.0489959716797 232.0489959716797 232.1490020751953 232.0590057373047 230.552001953125 229.8419952392578 229.55299377441406 229.5659942626953 229.2969970703125 229.45799255371094 229.49400329589844 229.7100067138672 229.44700622558594 229.38400268554688 229.2779998779297 228.1790008544922 228.16600036621094 228.09500122070312 226.7969970703125 226.80999755859375 227.36500549316406 227.77699279785156 227.8719940185547 227.73800659179688 227.5540008544922 227.53399658203125 227.56399536132812 227.6300048828125 227.38900756835938 227.9510040283203 227.33399963378906 227.71600341796875 227.8179931640625 227.8070068359375 227.71200561523438 227.85400390625 227.86099243164062 227.85400390625 227.90199279785156 228.02699279785156 227.86099243164062 227.97500610351562 -9999 -9999
-9999 -9999 -9999 -9999 -9999 -9999 -9999 -9999 -9999 -9999 -9999 -9999 -9999 -9999 -9999 -9999 -9999 -9999 -9999 -9999 -9999 -9999 -9999 -9999 -9999 -9999 -9999 -9999 -9999 -9999 238.96299743652344 237.82899475097656 237.2729949951172 236.4530029296875 235.95899963378906 235.51300048828125 235.5229949951172 235.44900512695312 235.6719970703125 235.83999633789062 235.6580047607422 236.51400756835938 240.86000061035156 243.68299865722656 243.63699340820312 247.82000732421875 249.74400329589844 249.63699340820312 249.81399536132812 249.1719970703125 249.302001953125 249.42599487304688 249.13499450683594 247.8350067138672 241.17599487304688 240.2989959716797 236.74200439453125 235.71800231933594 234.23399353027344 234.85800170898438 235.17599487304688 236.17799377441406 238.70399475097656 239.08900451660156 239.74099731445312 240.31900024414062 241.0050048828125 241.32200622558594 241.24000549316406 242.3000030517578 241.98699951171875 241.59800720214844 239.26499938964844 238.8300018310547 238.45599365234375 238.10899353027344 237.83799743652344 238.05799865722656 238.0500030517578 238.03399658203125 237.9149932861328 237.6820068359375 236.41600036621094 235.11099243164062 234.90499877929688 234.86500549316406 234.2790069580078 233.89599609375 233.46200561523438 233.10400390625 232.92300415039062 233.875 233.87100219726562 233.0489959716797 232.7310028076172 232.63499450683594 233.4669952392578 233.48899841308594 233.28900146484375 233.14599609375 233.1020050048828 233.18600463867188 233.2949981689453 233.32699584960938 233.281005859375 233.08599853515625 232.8699951171875 232.68699645996094 232.47000122070312 232.3419952392578 232.1790008544922 232.05999755859375 231.81300354003906 230.21499633789062 229.76600646972656 229.66000366210938 229.64700317382812 229.52099609375 229.41900634765625 229.27999877929688 229.28500366210938 229.36399841308594 229.41900634765625 229.60499572753906 229.4029998779297 229.3040008544922 229.23899841308594 229.03199768066406 227.49600219726562 227.12899780273438 227.572998046875 227.5970001220703 227.43899536132812 227.3800048828125 227.41700744628906 227.50900268554688 227.42599487304688 227.56700134277344 227.43699645996094 227.45199584960938 227.2729949951172 227.7570037841797 227.6750030517578 227.7969970703125 227.72999572753906 227.86000061035156 227.85800170898438 227.91799926757812 227.86300659179688 227.8679962158203 227.86000061035156 227.89300537109375 227.9409942626953 227.9080047607422 228.12399291992188 -9999 -9999
-9999 -9999 -9999 -9999 -9999 -9999 -9999 -9999 -9999 -9999 -9999 -9999 -9999 -9999 -9999 -9999 -9999 -9999 -9999 -9999 -9999 -9999 -9999 -9999 -9999 -9999 -9999 -9999 -9999 -9999 238.80799865722656 237.16600036621094 237.16700744628906 236.2239990234375 235.67300415039062 235.39599609375 235.13900756835938 235.10400390625 235.71499633789062 235.80999755859375 235.38800048828125 237.74200439453125 240.67999267578125 243.06700134277344 243.78900146484375 249.7949981689453 249.88400268554688 249.88099670410156 249.6179962158203 249.58700561523438 250.0229949951172 249.5590057373047 249.35899353027344 246.20799255371094 240.44500732421875 239.74099731445312 235.76300048828125 234.39599609375 233.5500030517578 233.78500366210938 234.63299560546875 236.07699584960938 236.76199340820312 237.46800231933594 239.47799682617188 240.44500732421875 241.0399932861328 241.22999572753906 241.25999450683594 241.218994140625 240.86300659179688 240.19000244140625 239.41600036621094 238.48500061035156 238.3679962158203 237.98699951171875 238.0229949951172 238.09100341796875 237.9739990234375 237.97900390625 237.39199829101562 235.39700317382812 235.1320037841797 234.63099670410156 234.3090057373047 233.64700317382812 232.83700561523438 232.65199279785156 232.57000732421875 232.29100036621094 232.49899291992188 232.1529998779297 232.4409942626953 232.58999633789062 232.09100341796875 231.77699279785156 231.6280059814453 231.45599365234375 232.6510009765625 232.656005859375 232.55299377441406 233.08299255371094 233.1219940185547 233.0659942626953 233.00999450683594 232.83700561523438 232.5679931640625 232.2220001220703 230.8509979248047 230.63600158691406 230.6840057373047 229.45199584960938 229.1699981689453 229.1719970703125 229.41799926757812 229.26499938964844 229.4239959716797 229.39500427246094 229.58999633789062 229.44000244140625 229.25799560546875 229.2480010986328 229.14599609375 229.14700317382812 229.0679931640625 227.83200073242188 226.91700744628906 227.54200744628906 227.36500549316406 227.25900268554688 227.11500549316406 227.2100067138672 227.21200561523438 227.2740020751953 227.21600341796875 227.15499877929688 227.6060028076172 227.572998046875 227.33200073242188 227.30599975585938 227.57000732421875 227.56900024414062 227.66099548339844 227.77499389648438 227.7310028076172 227.70799255371094 228.12399291992188 227.87600708007812 227.8939971923828 227.86099243164062 227.86900329589844 228.12100219726562 228.18699645996094 228.21499633789062 228.33599853515625 -9999 -9999
-9999 -9999 -9999 -9999 -9999 -9999 -9999 -9999 -9999 -9999 -9999 -9999 -9999 -9999 -9999 -9999 -9999 -9999 -9999 -9999 -9999 -9999 -9999 -9999 -9999 -9999 -9999 -9999 -9999 -9999 -9999 236.90499877929688 236.05799865722656 235.30799865722656 235.447998046875 235.50999450683594 235.46600341796875 235.10000610351562 235.01400756835938 234.7239990234375 236.89100646972656 240.13299560546875 240.95700073242188 242.90699768066406 246.12399291992188 249.8769989013672 249.99099731445312 249.86900329589844 249.4239959716797 249.41700744628906 249.4149932861328 249.0659942626953 248.08299255371094 244.64100646972656 239.49099731445312 238.69000244140625 234.9219970703125 233.7949981689453 232.88600158691406 233.2830047607422 234.52699279785156 235.50100708007812 236.57400512695312 236.6909942626953 238.08399963378906 239.14599609375 241.53500366210938 241.3990020751953 241.6959991455078 241.25799560546875 241.0989990234375 240.7779998779297 240.41700744628906 238.06199645996094 237.6020050048828 237.98300170898438 237.89999389648438 237.89199829101562 237.99000549316406 236.322998046875 235.48500061035156 235.2530059814453 233.51800537109375 233.06399536132812 233.32200622558594 233.11000061035156 232.30099487304688 232.2729949951172 232.41200256347656 232.2449951171875 232.34500122070312 231.8209991455078 232.3040008544922 232.01100158691406 231.50999450683594 231.17999267578125 231.07899475097656 230.8800048828125 232.38099670410156 232.0030059814453 232.01300048828125 232.09500122070312 232.30499267578125 232.0679931640625 230.98599243164062 230.39300537109375 229.98300170898438 229.6060028076172 229.48199462890625 229.5030059814453 230.5290069580078 230.35800170898438 229.24000549316406 229.12899780273438 229.2689971923828 229.3459930419922 229.18699645996094 229.01699829101562 229.21600341796875 229.11599731445312 229.04800415039062 229.16000366210938 227.0749969482422 227.4409942626953 227.13400268554688 227.1999969482422 227.07200622558594 227.052001953125 226.9409942626953 226.86399841308594 227.0260009765625 226.95199584960938 227.13099670410156 227.0760040283203 227.16400146484375 227.26100158691406 227.43899536132812 226.97900390625 227.38800048828125 227.1750030517578 227.4429931640625 227.6179962158203 227.7050018310547 227.7010040283203 227.76400756835938 227.51800537109375 227.6999969482422 228.13600158691406 228.13499450683594 228.10299682617188 228.24600219726562 228.31300354003906 228.4739990234375 228.49000549316406 228.4929962158203 -9999 -9999
-9999 -9999 -9999 -9999 -9999 -9999 -9999 -9999 -9999 -9999 -9999 -9999 -9999 -9999 -9999 -9999 -9999 -9999 -9999 -9999 -9999 -9999 -9999 -9999 -9999 -9999 -9999 -9999 -9999 -9999 -9999 235.8470001220703 235.26699829101562 235.3300018310547 234.85699462890625 235.25399780273438 235.3800048828125 234.44200134277344 234.3769989013672 234.19400024414062 238.13600158691406 241.38099670410156 241.99000549316406 244.16400146484375 246.51800537109375 247.7570037841797 248.98500061035156 249.50100708007812 249.52999877929688 249.52999877929688 248.55499267578125 247.0989990234375 246.5749969482422 242.1479949951172 238.59800720214844 236.23500061035156 232.63099670410156 232.08399963378906 232.19700622558594 233.03500366210938 233.97999572753906 234.95899963378906 235.9029998779297 236.1479949951172 237.60299682617188 238.92999267578125 241.28700256347656 241.34800720214844 241.43899536132812 241.24000549316406 241.31300354003906 240.46200561523438 239.88800048828125 239.0399932861328 238.02699279785156 236.7030029296875 237.7760009765625 237.1540069580078 235.69500732421875 235.68499755859375 235.56100463867188 234.13600158691406 232.74600219726562 232.1269989013672 232.97999572753906 232.3280029296875 231.75100708007812 231.5030059814453 231.72999572753906 231.9459991455078 232.03399658203125 231.4320068359375 231.74099731445312 231.50900268554688 231.07000732421875 230.72900390625 230.49600219726562 230.38699340820312 232.25100708007812 231.48300170898438 231.83599853515625 231.7689971923828 231.78900146484375 230.52499389648438 229.7729949951172 229.52999877929688 229.1649932861328 228.86900329589844 229.0709991455078 229.20799255371094 228.95899963378906 228.89500427246094 228.95700073242188 228.78599548339844 228.94900512695312 230.26400756835938 229.07000732421875 229.0500030517578 229.11000061035156 228.7530059814453 226.4409942626953 226.9149932861328 226.7519989013672 226.89199829101562 226.9010009765625 226.91799926757812 226.93600463867188 226.7969970703125 226.8780059814453 226.92999267578125 226.98899841308594 226.99099731445312 227.05599975585938 226.9810028076172 227.20599365234375 227.2550048828125 226.79299926757812 227.28900146484375 227.3560028076172 227.43099975585938 227.5229949951172 227.41099548339844 227.63299560546875 227.74099731445312 227.7480010986328 227.75999450683594 227.86500549316406 227.97500610351562 228.0030059814453 228.2259979248047 228.5260009765625 228.7899932861328 229.11300659179688 229.42799377441406 229.5019989013672 -9999 -9999
-9999 -9999 -9999 -9999 -9999 -9999 -9999 -9999 -9999 -9999 -9999 -9999 -9999 -9999 -9999 -9999 -9999 -9999 -9999 -9999 -9999 -9999 -9999 -9999 -9999 -9999 -9999 -9999 -9999 -9999 -9999 -9999 234.58999633789062 234.22300720214844 233.27200317382812 233.36300659179688 233.38499450683594 233.4010009765625 233.35800170898438 233.66400146484375 238.68800354003906 242.06100463867188 242.33700561523438 245.0500030517578 246.35899353027344 247.3209991455078 248.47500610351562 248.33999633789062 248.7480010986328 248.5449981689453 247.68499755859375 246.7830047607422 246.48599243164062 239.9239959716797 237.7899932861328 237.1790008544922 232.19700622558594 231.80999755859375 231.86900329589844 233.01300048828125 232.18600463867188 233.79400634765625 234.17799377441406 233.8800048828125 235.4149932861328 236.82200622558594 237.8990020751953 240.4669952392578 240.68699645996094 240.66299438476562 240.36000061035156 240.09500122070312 239.6230010986328 238.60000610351562 235.86300659179688 235.78399658203125 235.625 235.48199462890625 235.4510040283203 234.6060028076172 233.69400024414062 232.7310028076172 232.00599670410156 231.52699279785156 231.74899291992188 231.8800048828125 231.55099487304688 231.1820068359375 231.38499450683594 231.4929962158203 231.27099609375 231.343994140625 231.30599975585938 230.85699462890625 230.52099609375 230.22999572753906 230.06900024414062 229.87899780273438 229.6840057373047 229.56399536132812 229.69500732421875 230.8489990234375 230.06900024414062 229.53399658203125 228.93499755859375 228.64599609375 228.36500549316406 228.0989990234375 227.9199981689453 227.75900268554688 227.7100067138672 228.1179962158203 228.22500610351562 228.3990020751953 228.7050018310547 228.63299560546875 228.6300048828125 228.08399963378906 226.5709991455078 227.06199645996094 226.8260040283203 226.66600036621094 226.70199584960938 226.68499755859375 226.76199340820312 226.72500610351562 226.84500122070312 226.73300170898438 226.84500122070312 226.88400268554688 226.87399291992188 226.9720001220703 226.89300537109375 227.14599609375 227.16400146484375 226.9199981689453 227.17799377441406 227.17999267578125 227.48300170898438 227.4409942626953 227.3249969482422 227.2989959716797 227.61199951171875 227.6060028076172 227.74099731445312 227.7519989013672 227.88999938964844 228.16600036621094 228.39100646972656 228.6230010986328 229.04400634765625 229.3459930419922 229.77699279785156 230.13900756835938 230.64599609375 -9999 -9999
-9999 -9999 -9999 -9999 -9999 -9999 -9999 -9999 -9999 -9999 -9999 -9999 -9999 -9999 -9999 -9999 -9999 -9999 -9999 -9999 -9999 -9999 -9999 -9999 -9999 -9999 -9999 -9999 -9999 -9999 -9999 -9999 233.7830047607422 233.6540069580078 233.45799255371094 232.8260040283203 232.9199981689453 233.16299438476562 232.94700622558594 233.0189971923828 238.55799865722656 240.8979949951172 241.20599365234375 244.05599975585938 245.9290008544922 246.41799926757812 246.9080047607422 247.00599670410156 246.50399780273438 246.4669952392578 246.75799560546875 245.28199768066406 244.31399536132812 237.6320037841797 237.10699462890625 232.4199981689453 231.4429931640625 231.2760009765625 231.42300415039062 231.6529998779297 231.83299255371094 232.31399536132812 232.86099243164062 233.22000122070312 234.6719970703125 236.843994140625 237.61000061035156 240.5 240.4929962158203 240.28900146484375 240.08999633789062 239.40899658203125 238.94900512695312 235.5540008544922 235.531005859375 234.97799682617188 235.10000610351562 234.63900756835938 234.18600463867188 233.30499267578125 232.49600219726562 231.74200439453125 231.1540069580078 231.0229949951172 231.125 231.4010009765625 231.13800048828125 230.9709930419922 231.06700134277344 231.1840057373047 230.91000366210938 230.8260040283203 230.7790069580078 230.375 230.04800415039062 229.81700134277344 229.60299682617188 229.5 229.2740020751953 229.09500122070312 228.89100646972656 228.72500610351562 228.5399932861328 228.36900329589844 228.13099670410156 227.95700073242188 227.8489990234375 227.77200317382812 227.75799560546875 227.59500122070312 227.43699645996094 227.41200256347656 227.67100524902344 228.08200073242188 226.8979949951172 225.8300018310547 227.0189971923828 226.7729949951172 226.47799682617188 226.50100708007812 226.61700439453125 226.49200439453125 226.50799560546875 226.56199645996094 226.67100524902344 226.6999969482422 226.6739959716797 226.70199584960938 226.802001953125 226.78500366210938 226.85400390625 227.05999755859375 227.05299377441406 226.6439971923828 227.0760040283203 227.11900329589844 227.16799926757812 227.2239990234375 227.4429931640625 227.3209991455078 227.4320068359375 227.28799438476562 227.6699981689453 227.64999389648438 227.77699279785156 227.7779998779297 227.9759979248047 228.09500122070312 228.98599243164062 229.39599609375 229.63299560546875 229.8699951171875 230.76400756835938 231.55299377441406 232.0850067138672 -9999 -9999
-9999 -9999 -9999 -9999 -9999 -9999 -9999 -9999 -9999 -9999 -9999 -9999 -9999 -9999 -9999 -9999 -9999 -9999 -9999 -9999 -9999 -9999 -9999 -9999 -9999 -9999 -9999 -9999 -9999 -9999 -9999 -9999 -9999 233.51499938964844 232.9770050048828 232.63699340820312 232.7969970703125 231.8000030517578 232.03199768066406 233.1320037841797 239.29600524902344 240.84100341796875 241.6719970703125 242.87899780273438 244.3179931640625 245.04200744628906 246.6699981689453 245.31900024414062 244.76100158691406 244.57400512695312 244.0260009765625 244.08900451660156 238.33200073242188 236.8730010986328 235.7969970703125 231.30499267578125 231.17300415039062 230.88699340820312 231.14100646972656 231.67599487304688 231.82699584960938 231.8939971923828 231.86099243164062 232.9759979248047 234.55799865722656 236.16200256347656 236.9320068359375 236.46600341796875 238.09500122070312 238.93899536132812 238.98500061035156 238.68600463867188 236.57200622558594 234.46200561523438 234.3459930419922 234.572998046875 234.0850067138672 234.11900329589844 233.00900268554688 232.75 231.7740020751953 231.1999969482422 230.70899963378906 230.572998046875 230.62399291992188 230.37600708007812 230.64100646972656 230.74200439453125 230.77099609375 230.8070068359375 230.7550048828125 230.88999938964844 230.47900390625 229.9810028076172 229.6300048828125 229.3979949951172 229.22999572753906 229.093994140625 228.88400268554688 228.6479949951172 228.53799438476562 228.3090057373047 228.27000427246094 228.03199768066406 227.8070068359375 227.71299743652344 227.6230010986328 227.64599609375 227.6009979248047 227.38800048828125 227.23199462890625 227.19900512695312 227.16700744628906 226.1580047607422 226.69500732421875 226.48699951171875 226.51800537109375 226.281005859375 226.3350067138672 226.26199340820312 226.35400390625 226.38600158691406 226.50900268554688 226.55299377441406 226.44700622558594 226.51600646972656 226.48399353027344 226.58399963378906 226.54200744628906 226.87899780273438 226.8979949951172 227.05499267578125 226.9720001220703 227.0780029296875 227.08099365234375 227.1820068359375 227.11700439453125 227.22500610351562 227.2729949951172 227.406005859375 227.2530059814453 227.35699462890625 227.427001953125 227.88900756835938 227.66099548339844 227.83599853515625 228.10899353027344 229.4669952392578 229.75900268554688 230.01499938964844 231.08099365234375 232.39199829101562 232.53500366210938 232.14500427246094 232.218994140625 -9999 -9999
-9999 -9999 -9999 -9999 -9999 -9999 -9999 -9999 -9999 -9999 -9999 -9999 -9999 -9999 -9999 -9999 -9999 -9999 -9999 -9999 -9999 -9999 -9999 -9999 -9999 -9999 -9999 -9999 -9999 -9999 -9999 -9999 -9999 232.14199829101562 231.1230010986328 231.21099853515625 231.13699340820312 231.1219940185547 230.90899658203125 233.19700622558594 239.82899475097656 240.7169952392578 241.13600158691406 242.1959991455078 242.99899291992188 243.76699829101562 243.72900390625 244.12600708007812 244.41799926757812 243.093994140625 241.43299865722656 238.2550048828125 236.8939971923828 235.73699951171875 233.5959930419922 230.98899841308594 230.60000610351562 230.656005859375 230.36900329589844 230.6529998779297 231.1739959716797 231.69200134277344 231.5800018310547 231.7050018310547 232.1750030517578 234.2429962158203 235.58099365234375 235.4499969482422 235.6230010986328 237.40899658203125 237.93099975585938 235.22999572753906 233.9040069580078 233.77200317382812 234.1269989013672 233.35800170898438 232.7220001220703 232.60299682617188 232.10299682617188 231.6529998779297 230.89300537109375 230.27699279785156 230.36599731445312 230.3090057373047 230.29299926757812 230.3470001220703 230.43099975585938 230.51800537109375 230.5570068359375 230.572998046875 230.58099365234375 230.38499450683594 229.8800048828125 229.40899658203125 229.16000366210938 228.9739990234375 228.81700134277344 228.63099670410156 228.43099975585938 228.26499938964844 228.12399291992188 227.6699981689453 227.052001953125 226.9810028076172 227.56399536132812 227.55599975585938 227.5279998779297 227.38099670410156 227.30099487304688 227.23599243164062 227.02999877929688 225.9669952392578 226.6300048828125 226.20399475097656 226.1320037841797 226.25999450683594 226.35299682617188 226.1529998779297 226.08999633789062 226.2570037841797 226.2760009765625 226.44700622558594 226.46099853515625 226.4499969482422 226.4040069580078 226.44900512695312 226.55299377441406 226.50399780273438 226.70399475097656 226.8820037841797 226.8040008544922 226.9429931640625 226.99000549316406 227.10699462890625 227.08999633789062 227.12399291992188 227.09800720214844 227.26699829101562 227.4239959716797 227.41600036621094 227.25999450683594 227.36500549316406 227.36900329589844 227.59800720214844 227.67300415039062 227.88800048828125 230.0659942626953 231.96800231933594 232.1020050048828 231.88099670410156 231.4499969482422 231.99000549316406 231.9980010986328 232.22300720214844 232.5330047607422 -9999 -9999
-9999 -9999 -9999 -9999 -9999 -9999 -9999 -9999 -9999 -9999 -9999 -9999 -9999 -9999 -9999 -9999 -9999 -9999 -9999 -9999 -9999 -9999 -9999 -9999 -9999 -9999 -9999 -9999 -9999 -9999 -9999 -9999 -9999 230.26499938964844 229.68899536132812 229.06100463867188 228.95700073242188 229.05499267578125 229.92599487304688 232.2949981689453 237.9929962158203 239.8489990234375 240.45899963378906 240.8780059814453 241.8489990234375 242.4739990234375 242.03700256347656 240.19500732421875 238.22000122070312 237.69000244140625 236.4770050048828 235.85000610351562 235.36399841308594 233.61099243164062 230.572998046875 230.26400756835938 229.96200561523438 229.9029998779297 229.2830047607422 229.66000366210938 230.22000122070312 230.78799438476562 230.76699829101562 230.97500610351562 231.16700744628906 231.40899658203125 231.54600524902344 233.1909942626953 233.58599853515625 233.83200073242188 234.0500030517578 233.30599975585938 233.1959991455078 233.38999938964844 232.9340057373047 232.63400268554688 232.4530029296875 232.0760040283203 231.31300354003906 230.75399780273438 230.01300048828125 229.99099731445312 229.87899780273438 230.02999877929688 230.03700256347656 230.18499755859375 230.2239990234375 230.31100463867188 230.3249969482422 230.1959991455078 229.6320037841797 229.29800415039062 229.00399780273438 228.72000122070312 228.56700134277344 228.41400146484375 228.2239990234375 228.06300354003906 227.9409942626953 227.8350067138672 227.64599609375 227.29200744628906 226.80099487304688 226.31100463867188 227.10899353027344 227.4199981689453 227.28199768066406 227.1300048828125 227.14500427246094 226.41799926757812 226.47000122070312 225.9949951171875 225.91000366210938 226.03900146484375 226.0449981689453 226.0959930419922 226.11700439453125 226.2480010986328 226.125 225.97300720214844 226.28199768066406 226.33399963378906 226.3679962158203 226.48500061035156 226.4759979248047 226.39599609375 226.4530029296875 226.50900268554688 226.69900512695312 226.61300659179688 227.0030059814453 226.95700073242188 227.04600524902344 227.00399780273438 227.0469970703125 227.2030029296875 227.27200317382812 227.36000061035156 227.67599487304688 228.052001953125 228.6790008544922 229.1269989013672 229.29200744628906 231.06100463867188 231.5050048828125 231.54100036621094 231.58200073242188 232.19700622558594 232.1479949951172 231.822998046875 231.83200073242188 232.156005859375 232.3419952392578 232.73500061035156 233.156005859375 -9999 -9999
-9999 -9999 -9999 -9999 -9999 -9999 -9999 -9999 -9999 -9999 -9999 -9999 -9999 -9999 -9999 -9999 -9999 -9999 -9999 -9999 -9999 -9999 -9999 -9999 -9999 -9999 -9999 -9999 -9999 -9999 -9999 -9999 -9999 -9999 229.11000061035156 229.01100158691406 228.76300048828125 229.0260009765625 229.2779998779297 230.15499877929688 234.9149932861328 239.39599609375 239.31700134277344 237.51600646972656 236.40499877929688 236.4600067138672 235.7729949951172 235.48399353027344 235.12100219726562 234.99600219726562 233.3249969482422 233.60400390625 233.10499572753906 230.00599670410156 229.906005859375 229.47799682617188 229.69400024414062 228.56500244140625 228.14500427246094 228.50100708007812 228.8419952392578 229.60499572753906 229.6739959716797 230.43899536132812 230.46499633789062 230.64700317382812 230.86099243164062 231.1179962158203 231.6269989013672 231.88099670410156 232.1750030517578 232.66900634765625 232.82000732421875 232.24899291992188 231.63800048828125 231.7969970703125 232.10699462890625 231.46400451660156 230.51300048828125 230.0590057373047 229.94000244140625 229.88900756835938 229.37600708007812 229.43800354003906 229.70399475097656 229.875 229.97500610351562 230.09800720214844 229.9499969482422 229.40899658203125 228.9459991455078 228.6790008544922 228.5 228.3090057373047 228.11500549316406 227.96499633789062 227.80299377441406 227.6320037841797 227.5 227.33599853515625 227.15899658203125 226.96800231933594 226.5800018310547 226.07400512695312 226.18299865722656 227.27000427246094 227.22500610351562 227.26300048828125 225.7550048828125 226.2169952392578 225.781005859375 225.88800048828125 225.92999267578125 225.86099243164062 225.8800048828125 226.03799438476562 226.0449981689453 226.03199768066406 226.04100036621094 226.07899475097656 226.06500244140625 226.17100524902344 226.50599670410156 226.33099365234375 226.4739990234375 226.38099670410156 226.49400329589844 226.48300170898438 226.59300231933594 226.73199462890625 227.0050048828125 227.03599548339844 226.95700073242188 227.13900756835938 227.19500732421875 227.28199768066406 227.41299438476562 228.07899475097656 228.86399841308594 230.4550018310547 231.5050048828125 231.56100463867188 232.78399658203125 234.61500549316406 235.6790008544922 235.22500610351562 234.25399780273438 233.4320068359375 232.9550018310547 232.66000366210938 232.5399932861328 232.60499572753906 232.781005859375 233.11900329589844 -9999 -9999 -9999
-9999 -9999 -9999 -9999 -9999 -9999 -9999 -9999 -9999 -9999 -9999 -9999 -9999 -9999 -9999 -9999 -9999 -9999 -9999 -9999 -9999 -9999 -9999 -9999 -9999 -9999 -9999 -9999 -9999 -9999 -9999 -9999 -9999 -9999 229.16400146484375 229.1540069580078 229.0760040283203 229.10800170898438 228.5760040283203 228.656005859375 231.42100524902344 230.8719940185547 229.14500427246094 233.67300415039062 233.9720001220703 234.51199340820312 234.18800354003906 233.84300231933594 228.76499938964844 227.78799438476562 228.16799926757812 230.07899475097656 229.45199584960938 229.4969940185547 228.8820037841797 229.07400512695312 229.5570068359375 228.31300354003906 228.322998046875 228.25799560546875 228.43299865722656 229.1840057373047 229.26699829101562 229.64300537109375 229.88900756835938 230.13099670410156 230.3990020751953 230.81500244140625 231.29200744628906 231.86300659179688 232.09800720214844 231.83599853515625 231.052001953125 231.88600158691406 231.47999572753906 231.00599670410156 230.7790069580078 230.75999450683594 230.12399291992188 230.281005859375 229.8990020751953 229.83399963378906 229.6909942626953 229.1230010986328 229.33599853515625 229.49099731445312 229.68299865722656 229.8209991455078 229.2270050048828 228.85000610351562 228.53399658203125 228.19400024414062 227.96600341796875 227.88099670410156 227.8090057373047 227.6840057373047 227.58599853515625 227.42300415039062 227.25599670410156 227.08700561523438 226.88499450683594 226.69200134277344 226.38999938964844 226.13999938964844 226.1219940185547 226.7259979248047 227.05599975585938 225.77000427246094 226.31100463867188 225.75999450683594 225.74000549316406 225.71400451660156 225.71299743652344 225.92799377441406 225.91099548339844 225.91299438476562 225.9669952392578 226.0290069580078 226.24400329589844 226.16900634765625 226.2550048828125 226.1790008544922 225.78900146484375 225.81100463867188 225.82000732421875 225.947998046875 226.44700622558594 226.5780029296875 226.63999938964844 226.83599853515625 227.04800415039062 227.093994140625 227.031005859375 227.343994140625 227.49600219726562 228.9669952392578 230.7050018310547 230.86500549316406 230.98199462890625 233.3070068359375 235.84100341796875 238.0290069580078 238.08900451660156 237.67300415039062 236.9530029296875 236.0030059814453 235.06300354003906 234.26499938964844 233.68299865722656 233.41700744628906 233.2949981689453 233.03599548339844 233.24600219726562 233.7689971923828 -9999 -9999 -9999
-9999 -9999 -9999 -9999 -9999 -9999 -9999 -9999 -9999 -9999 -9999 -9999 -9999 -9999 -9999 -9999 -9999 -9999 -9999 -9999 -9999 -9999 -9999 -9999 -9999 -9999 -9999 -9999 -9999 -9999 -9999 -9999 -9999 -9999 -9999 229.02499389648438 228.79299926757812 228.78199768066406 228.03700256347656 227.66700744628906 228.83599853515625 228.88099670410156 228.81700134277344 230.3090057373047 229.53900146484375 227.08900451660156 229.1739959716797 228.05999755859375 227.06199645996094 227.23899841308594 227.8260040283203 227.73899841308594 228.2469940185547 228.6739959716797 228.43499755859375 228.8179931640625 228.7949981689453 228.0989990234375 228.18699645996094 228.26600646972656 228.48899841308594 228.61199951171875 228.9600067138672 229.23800659179688 229.7239990234375 229.7100067138672 230.156005859375 229.86500549316406 230.36000061035156 229.94700622558594 231.1230010986328 230.51300048828125 229.50999450683594 230.00900268554688 229.82200622558594 230.28799438476562 230.01600646972656 230.07400512695312 230.02099609375 229.9010009765625 229.8350067138672 229.7469940185547 229.6219940185547 228.65699768066406 228.85499572753906 229.38699340820312 229.43899536132812 229.15199279785156 228.84100341796875 228.6219940185547 228.3509979248047 228.0679931640625 227.7989959716797 227.5659942626953 227.6060028076172 227.43600463867188 227.30999755859375 227.18600463867188 226.9969940185547 226.75799560546875 226.61099243164062 226.3820037841797 226.1909942626953 226.09100341796875 226.05499267578125 226.2010040283203 226.5489959716797 225.86199951171875 225.7209930419922 225.72500610351562 225.57200622558594 225.7989959716797 225.802001953125 225.7310028076172 225.85800170898438 225.88600158691406 225.93699645996094 226.072998046875 226.11700439453125 225.61599731445312 226.38400268554688 226.7270050048828 226.94700622558594 227.13800048828125 227.1820068359375 227.18099975585938 227.3179931640625 227.3260040283203 227.2969970703125 227.5540008544922 227.95599365234375 229.06199645996094 230.2530059814453 230.4810028076172 230.2480010986328 229.9459991455078 231.94400024414062 234.1529998779297 236.8560028076172 238.92599487304688 238.97000122070312 238.8990020751953 238.68099975585938 238.30799865722656 237.52699279785156 236.44200134277344 235.5050048828125 234.85400390625 234.47500610351562 234.3470001220703 234.0959930419922 234.13299560546875 234.3520050048828 -9999 -9999 -9999 -9999
-9999 -9999 -9999 -9999 -9999 -9999 -9999 -9999 -9999 -9999 -9999 -9999 -9999 -9999 -9999 -9999 -9999 -9999 -9999 -9999 -9999 -9999 -9999 -9999 -9999 -9999 -9999 -9999 -9999 -9999 -9999 -9999 -9999 -9999 -9999 228.89300537109375 229.18800354003906 228.79200744628906 227.88499450683594 227.00599670410156 227.82000732421875 228.02699279785156 227.6820068359375 227.51800537109375 227.1739959716797 226.7270050048828 226.64300537109375 226.39199829101562 226.41700744628906 226.71099853515625 226.97500610351562 227.13900756835938 227.5070037841797 227.78799438476562 227.93800354003906 227.9669952392578 227.89999389648438 227.9459991455078 227.9969940185547 228.14599609375 228.33799743652344 228.71499633789062 228.83399963378906 228.9459991455078 228.63400268554688 228.8300018310547 228.9459991455078 229.12600708007812 229.01100158691406 228.76600646972656 229.5989990234375 229.68099975585938 228.9040069580078 228.68600463867188 228.99200439453125 229.06399536132812 229.8769989013672 230.0489959716797 229.96099853515625 229.8489990234375 229.82699584960938 228.3179931640625 228.36599731445312 228.427001953125 228.6750030517578 228.64999389648438 228.45199584960938 228.2209930419922 228.0850067138672 227.86399841308594 227.91799926757812 227.40499877929688 227.43099975585938 227.40899658203125 227.45199584960938 227.4739990234375 227.2899932861328 227.1300048828125 226.90499877929688 226.4499969482422 226.22000122070312 226.08799743652344 225.8939971923828 225.08299255371094 226.48899841308594 226.51600646972656 225.72300720214844 225.66000366210938 225.51400756835938 225.67300415039062 225.7209930419922 225.68899536132812 225.73800659179688 225.90499877929688 225.74600219726562 225.77699279785156 226.20799255371094 225.47000122070312 226.3780059814453 226.6529998779297 227.02699279785156 227.27699279785156 227.4739990234375 227.76699829101562 228.1750030517578 228.60699462890625 229.03700256347656 229.61000061035156 229.86099243164062 230.41400146484375 230.46800231933594 230.92599487304688 232.34500122070312 233.2790069580078 234.41000366210938 236.53799438476562 238.76199340820312 239.40499877929688 239.572998046875 239.66799926757812 239.7519989013672 239.70700073242188 239.40699768066406 238.92999267578125 237.97000122070312 236.9149932861328 236.09800720214844 235.45799255371094 234.82699584960938 234.51800537109375 234.34100341796875 233.98699951171875 -9999 -9999 -9999 -9999 -9999
-9999 -9999 -9999 -9999 -9999 -9999 -9999 -9999 -9999 -9999 -9999 -9999 -9999 -9999 -9999 -9999 -9999 -9999 -9999 -9999 -9999 -9999 -9999 -9999 -9999 -9999 -9999 -9999 -9999 -9999 -9999 -9999 -9999 -9999 -9999 -9999 228.75100708007812 227.88099670410156 226.38400268554688 226.50399780273438 226.60899353027344 226.697998046875 226.73599243164062 226.73300170898438 226.58299255371094 224.97900390625 224.81500244140625 225.30999755859375 226.21499633789062 226.38600158691406 226.62600708007812 226.9739990234375 227.31500244140625 227.6300048828125 227.86500549316406 227.9250030517578 228.0290069580078 227.7449951171875 227.6840057373047 227.6820068359375 226.84800720214844 227.6300048828125 227.86099243164062 227.50999450683594 228.2220001220703 228.69500732421875 228.22799682617188 228.16700744628906 228.4510040283203 228.45599365234375 228.19900512695312 228.0800018310547 228.0919952392578 228.11500549316406 228.36599731445312 228.6009979248047 229.53799438476562 229.70399475097656 229.6959991455078 229.6929931640625 229.69400024414062 228.11399841308594 227.7239990234375 227.60800170898438 227.77099609375 227.99000549316406 227.77099609375 227.67100524902344 227.5800018310547 227.40699768066406 227.41000366210938 226.98199462890625 226.8679962158203 226.83399963378906 226.7310028076172 226.66200256347656 226.64599609375 226.38400268554688 226.19700622558594 226.08799743652344 225.86700439453125 225.78399658203125 226.38400268554688 226.0279998779297 225.53399658203125 225.58700561523438 225.35899353027344 225.50100708007812 225.60499572753906 225.6479949951172 225.63499450683594 225.8040008544922 225.4739990234375 225.73199462890625 225.7209930419922 225.97500610351562 226.13600158691406 226.4149932861328 226.8070068359375 227.18899536132812 227.447998046875 227.76800537109375 228.18299865722656 228.63400268554688 229.4040069580078 230.07000732421875 230.39300537109375 230.7519989013672 232.80099487304688 234.24099731445312 235.27099609375 236.23899841308594 237.27999877929688 238.1529998779297 239.08299255371094 239.62100219726562 240.02099609375 240.33599853515625 240.5050048828125 240.55099487304688 240.1320037841797 241.56500244140625 240.6510009765625 239.9080047607422 238.7530059814453 237.375 236.16900634765625 235.29100036621094 234.72300720214844 234.2469940185547 234.24899291992188 234.07200622558594 -9999 -9999 -9999 -9999 -9999
-9999 -9999 -9999 -9999 -9999 -9999 -9999 -9999 -9999 -9999 -9999 -9999 -9999 -9999 -9999 -9999 -9999 -9999 -9999 -9999 -9999 -9999 -9999 -9999 -9999 -9999 -9999 -9999 -9999 -9999 -9999 -9999 -9999 -9999 -9999 -9999 225.9530029296875 226.05099487304688 226.20199584960938 226.281005859375 226.37899780273438 226.47500610351562 226.218994140625 223.86700439453125 222.0570068359375 223.35899353027344 224.14500427246094 224.81300354003906 225.7030029296875 226.14599609375 226.4029998779297 226.6479949951172 227.31300354003906 227.7519989013672 227.88299560546875 228.19400024414062 228.2530059814453 227.2270050048828 226.5659942626953 226.64100646972656 226.34300231933594 226.468994140625 226.79100036621094 226.9510040283203 227.29400634765625 227.5540008544922 227.70799255371094 227.68099975585938 227.4550018310547 227.22799682617188 227.14999389648438 227.5970001220703 227.30999755859375 227.43499755859375 227.89999389648438 227.98800659179688 229.00599670410156 229.65199279785156 229.50100708007812 229.4250030517578 229.51600646972656 227.8699951171875 227.08599853515625 227.03599548339844 227.0399932861328 227.38999938964844 227.3070068359375 227.2010040283203 227.23899841308594 226.9969940185547 226.87600708007812 226.6199951171875 226.48300170898438 226.39599609375 226.49000549316406 226.39500427246094 226.14999389648438 226.1300048828125 226.08200073242188 225.8699951171875 225.36399841308594 225.91900634765625 225.51100158691406 225.6580047607422 225.28599548339844 225.46299743652344 225.54800415039062 225.57000732421875 225.6009979248047 225.7270050048828 225.677001953125 225.6999969482422 225.51199340820312 225.80999755859375 225.3000030517578 226.13999938964844 226.5070037841797 226.89700317382812 227.28900146484375 227.80499267578125 228.22500610351562 228.6280059814453 229.14199829101562 230.15499877929688 230.5749969482422 231.9709930419922 232.68499755859375 233.80999755859375 235.10000610351562 236.156005859375 237.1510009765625 238.10000610351562 239.17300415039062 239.79100036621094 240.27000427246094 240.76400756835938 241.21200561523438 241.1320037841797 242.6909942626953 242.62899780273438 242.32200622558594 241.9709930419922 241.56500244140625 240.6179962158203 239.0800018310547 237.5489959716797 236.13800048828125 235.25399780273438 234.7899932861328 234.3679962158203 234.29299926757812 -9999 -9999 -9999 -9999 -9999 -9999
-9999 -9999 -9999 -9999 -9999 -9999 -9999 -9999 -9999 -9999 -9999 -9999 -9999 -9999 -9999 -9999 -9999 -9999 -9999 -9999 -9999 -9999 -9999 -9999 -9999 -9999 -9999 -9999 -9999 -9999 -9999 -9999 -9999 -9999 -9999 -9999 225.822998046875 225.99099731445312 225.9770050048828 226.2760009765625 225.8719940185547 224.99099731445312 223.96099853515625 223.59800720214844 223.8509979248047 224.02999877929688 223.85699462890625 224.49099731445312 225.5070037841797 226.06700134277344 226.3350067138672 226.49600219726562 227.43299865722656 227.79400634765625 227.82400512695312 227.52000427246094 227.0279998779297 226.3520050048828 226.11700439453125 226.01600646972656 226.1790008544922 226.10400390625 226.16799926757812 226.4770050048828 226.5 226.85499572753906 227.1909942626953 227.13499450683594 226.92599487304688 226.80099487304688 226.63299560546875 226.57000732421875 226.6929931640625 226.76400756835938 227.40199279785156 227.41200256347656 227.9739990234375 229.50399780273438 229.31700134277344 229.0970001220703 229.1699981689453 227.86099243164062 226.7740020751953 226.71499633789062 226.6020050048828 226.822998046875 226.9290008544922 226.7830047607422 226.83900451660156 226.58099365234375 226.44700622558594 226.3489990234375 226.1739959716797 226.1840057373047 226.23399353027344 226.22000122070312 226.06500244140625 225.86300659179688 226.125 224.69400024414062 225.7790069580078 225.5850067138672 225.24899291992188 225.37899780273438 225.45599365234375 225.4739990234375 225.36399841308594 225.6840057373047 225.68499755859375 225.73599243164062 225.71299743652344 225.63699340820312 225.78500366210938 225.5959930419922 226.26199340820312 226.69700622558594 227.04100036621094 227.68800354003906 228.1790008544922 228.62899780273438 229.50599670410156 230.0959930419922 231.2169952392578 231.92799377441406 233.00599670410156 234.08799743652344 235.21800231933594 236.41600036621094 237.61199951171875 238.6699981689453 239.8280029296875 240.33700561523438 240.84300231933594 241.33099365234375 241.65699768066406 243.41099548339844 243.68299865722656 243.50100708007812 243.46499633789062 243.41200256347656 243.2449951171875 242.96200561523438 242.35400390625 241.17300415039062 239.41799926757812 237.65699768066406 236.2530059814453 235.54600524902344 234.77699279785156 234.81100463867188 -9999 -9999 -9999 -9999 -9999 -9999 -9999
-9999 -9999 -9999 -9999 -9999 -9999 -9999 -9999 -9999 -9999 -9999 -9999 -9999 -9999 -9999 -9999 -9999 -9999 -9999 -9999 -9999 -9999 -9999 -9999 -9999 -9999 -9999 -9999 -9999 -9999 -9999 -9999 -9999 -9999 -9999 -9999 -9999 224.25399780273438 224.26699829101562 224.58200073242188 224.5709991455078 224.13900756835938 223.73800659179688 223.7899932861328 223.875 223.98899841308594 223.87399291992188 224.71099853515625 225.4739990234375 225.66799926757812 226.48800659179688 226.44700622558594 226.86900329589844 227.75399780273438 227.68800354003906 226.35000610351562 225.75999450683594 226.00900268554688 226.031005859375 225.947998046875 226.1300048828125 225.85699462890625 225.97000122070312 226.0919952392578 226.1300048828125 226.35499572753906 226.73199462890625 226.72500610351562 226.3090057373047 226.17999267578125 226.18699645996094 226.2169952392578 226.39199829101562 226.4510040283203 226.91000366210938 226.97999572753906 227.02000427246094 229.19500732421875 229.14999389648438 229.03500366210938 228.9320068359375 228.35800170898438 226.52200317382812 226.36000061035156 226.33700561523438 226.40699768066406 226.56399536132812 226.3679962158203 226.28500366210938 226.23500061035156 226.15499877929688 226.11199951171875 226.072998046875 225.69200134277344 225.61500549316406 225.58299255371094 226.05599975585938 226.2480010986328 226.01600646972656 225.58200073242188 225.51800537109375 225.3209991455078 225.25100708007812 225.34800720214844 225.16299438476562 225.52099609375 225.6009979248047 225.3979949951172 225.7010040283203 225.5780029296875 225.78599548339844 225.55599975585938 225.98500061035156 226.41799926757812 226.85800170898438 227.46600341796875 228.01499938964844 228.48699951171875 229.45799255371094 230.05499267578125 231.19400024414062 232.0679931640625 233.16000366210938 234.41000366210938 235.6790008544922 236.88900756835938 237.98300170898438 239.09300231933594 240.21400451660156 240.8719940185547 241.50999450683594 242.08700561523438 243.06900024414062 244.0330047607422 244.11599731445312 244.29200744628906 244.43499755859375 244.6179962158203 244.63699340820312 244.53799438476562 244.37600708007812 244.10800170898438 243.18899536132812 241.62600708007812 239.39199829101562 237.6219940185547 236.25100708007812 235.60000610351562 234.90899658203125 -9999 -9999 -9999 -9999 -9999 -9999 -9999 -9999
-9999 -9999 -9999 -9999 -9999 -9999 -9999 -9999 -9999 -9999 -9999 -9999 -9999 -9999 -9999 -9999 -9999 -9999 -9999 -9999 -9999 -9999 -9999 -9999 -9999 -9999 -9999 -9999 -9999 -9999 -9999 -9999 -9999 -9999 -9999 -9999 -9999 223.38499450683594 223.0449981689453 222.83099365234375 224 223.50900268554688 223.6479949951172 223.74000549316406 223.8769989013672 224.07899475097656 224.27200317382812 225.13900756835938 225.39500427246094 225.5070037841797 225.6840057373047 226.3070068359375 226.97999572753906 227.70199584960938 227.61099243164062 225.9459991455078 225.69000244140625 226.02200317382812 225.9669952392578 225.97300720214844 226.0240020751953 225.64700317382812 225.6540069580078 225.9550018310547 226.0570068359375 225.9340057373047 226.15699768066406 225.52200317382812 225.60699462890625 225.84800720214844 225.84300231933594 225.66600036621094 226.10899353027344 226.33299255371094 226.57000732421875 226.92100524902344 226.84800720214844 228.91299438476562 228.0469970703125 228.04200744628906 228.24600219726562 227.8040008544922 226.19000244140625 226.0919952392578 225.95399475097656 225.96499633789062 225.64599609375 225.6179962158203 226.13600158691406 226.08399963378906 225.9459991455078 225.88499450683594 225.86599731445312 225.75599670410156 225.64199829101562 225.68600463867188 225.5290069580078 225.4199981689453 225.49200439453125 224.4029998779297 225.0240020751953 224.88299560546875 225.08399963378906 225.41000366210938 225.5019989013672 225.20599365234375 225.53199768066406 225.6510009765625 225.6219940185547 225.78599548339844 225.2469940185547 226.24099731445312 226.66299438476562 227.1300048828125 227.94000244140625 228.4929962158203 229.07899475097656 229.89500427246094 231.17100524902344 232.13099670410156 233.3470001220703 234.58099365234375 235.77999877929688 237.1269989013672 238.42100524902344 239.58200073242188 240.6060028076172 241.1280059814453 241.7010040283203 242.4409942626953 243.79200744628906 244.40199279785156 244.6009979248047 244.93299865722656 245.24899291992188 245.51699829101562 245.7790069580078 245.9459991455078 245.9290008544922 245.71800231933594 245.43800354003906 244.65699768066406 243.35000610351562 241.23800659179688 239.04200744628906 237.3990020751953 236.46800231933594 235.73800659179688 235.53399658203125 -9999 -9999 -9999 -9999 -9999 -9999 -9999 -9999
-9999 -9999 -9999 -9999 -9999 -9999 -9999 -9999 -9999 -9999 -9999 -9999 -9999 -9999 -9999 -9999 -9999 -9999 -9999 -9999 -9999 -9999 -9999 -9999 -9999 -9999 -9999 -9999 -9999 -9999 -9999 -9999 -9999 -9999 -9999 -9999 -9999 -9999 222.3470001220703 222.0780029296875 221.94500732421875 221.68099975585938 222.80099487304688 223.52499389648438 223.8280029296875 224.16400146484375 224.531005859375 225.27499389648438 225.3040008544922 224.9340057373047 225.0240020751953 225.27099609375 225.39500427246094 226.0070037841797 226.14100646972656 226.16400146484375 226.197998046875 226.20399475097656 226.197998046875 226.15699768066406 226.17999267578125 226.13999938964844 226.1020050048828 226.0189971923828 225.90499877929688 225.7729949951172 225.68099975585938 225.72500610351562 225.89599609375 226.0449981689453 226.1540069580078 226.197998046875 226.21800231933594 226.08399963378906 226.23699951171875 226.26300048828125 226.25399780273438 226.30799865722656 226.32699584960938 226.2989959716797 226.27200317382812 226.3000030517578 226.16400146484375 226.0070037841797 225.92300415039062 225.86500549316406 225.86399841308594 225.7519989013672 225.59800720214844 225.468994140625 225.27999877929688 225.23599243164062 225.29200744628906 225.32200622558594 225.22000122070312 225.15499877929688 225.2989959716797 225.322998046875 224.30299377441406 225.08700561523438 224.91200256347656 225.1490020751953 225.24600219726562 225.38299560546875 225.2530059814453 224.88800048828125 225.06199645996094 225.76699829101562 225.44500732421875 225.83200073242188 226.48699951171875 226.9010009765625 227.61300659179688 228.3159942626953 229.5260009765625 229.76699829101562 230.19700622558594 231.49899291992188 232.93800354003906 234.4250030517578 235.8280029296875 237.1840057373047 238.4340057373047 239.677001953125 240.85899353027344 241.44400024414062 241.79299926757812 242.32699584960938 242.85899353027344 244.06399536132812 244.42300415039062 244.99200439453125 245.4759979248047 246.08399963378906 246.50999450683594 246.81199645996094 247.13499450683594 247.22900390625 247.1719970703125 246.0540008544922 245.68099975585938 244.6739959716797 242.69500732421875 240.63099670410156 238.5709991455078 237.12899780273438 236.51300048828125 235.72300720214844 -9999 -9999 -9999 -9999 -9999 -9999 -9999 -9999 -9999
-9999 -9999 -9999 -9999 -9999 -9999 -9999 -9999 -9999 -9999 -9999 -9999 -9999 -9999 -9999 -9999 -9999 -9999 -9999 -9999 -9999 -9999 -9999 -9999 -9999 -9999 -9999 -9999 -9999 -9999 -9999 -9999 -9999 -9999 -9999 -9999 -9999 -9999 221.96499633789062 221.822998046875 223.11599731445312 223.64999389648438 223.7010040283203 223.47799682617188 223.7570037841797 224.10899353027344 224.4459991455078 225.13699340820312 225.23800659179688 224.97500610351562 225.2760009765625 225.48500061035156 225.0070037841797 225.197998046875 225.5500030517578 225.7740020751953 226.05099487304688 226.16200256347656 226.16900634765625 226.04600524902344 226.0749969482422 225.97000122070312 225.822998046875 225.8040008544922 225.65899658203125 225.58200073242188 225.67100524902344 225.72000122070312 225.85899353027344 225.9530029296875 225.92300415039062 225.99099731445312 226.04600524902344 226.07200622558594 226.0500030517578 226.08999633789062 226.09500122070312 226.0489959716797 226.10899353027344 226.0240020751953 225.9969940185547 226.0030059814453 225.80299377441406 225.51300048828125 225.23899841308594 225.2469940185547 225.17999267578125 225.23899841308594 225.18699645996094 225.04800415039062 225.1840057373047 225.06500244140625 225.03500366210938 224.96400451660156 224.86700439453125 224.9810028076172 224.2429962158203 224.73699951171875 225.0590057373047 225.11700439453125 225.09500122070312 225.1929931640625 225.2790069580078 225.3800048828125 225.4409942626953 225.4199981689453 225.54400634765625 225.55799865722656 226.01300048828125 226.56399536132812 227.0760040283203 227.8990020751953 228.53799438476562 229.71299743652344 229.32200622558594 230.1529998779297 231.45899963378906 232.97300720214844 234.60299682617188 236.29800415039062 237.98800659179688 239.46600341796875 240.7779998779297 241.54800415039062 242.09100341796875 242.53700256347656 242.82400512695312 243.91099548339844 244.2209930419922 244.83900451660156 245.4320068359375 245.9250030517578 246.48699951171875 246.93600463867188 245.93499755859375 246.11199951171875 245.18699645996094 245.39300537109375 246.1320037841797 246.83200073242188 246.60299682617188 244.1269989013672 241.82400512695312 239.63999938964844 238.0399932861328 236.94900512695312 236.46600341796875 -9999 -9999 -9999 -9999 -9999 -9999 -9999 -9999 -9999 -9999
-9999 -9999 -9999 -9999 -9999 -9999 -9999 -9999 -9999 -9999 -9999 -9999 -9999 -9999 -9999 -9999 -9999 -9999 -9999 -9999 -9999 -9999 -9999 -9999 -9999 -9999 -9999 -9999 -9999 -9999 -9999 -9999 -9999 -9999 -9999 -9999 -9999 -9999 -9999 223.11399841308594 223.27099609375 223.3260040283203 223.3489990234375 223.29400634765625 223.5780029296875 223.88499450683594 224.32200622558594 224.656005859375 225.22300720214844 224.75900268554688 224.58200073242188 224.38699340820312 224.2989959716797 224.25599670410156 225.03799438476562 225.58099365234375 226.20599365234375 226.4709930419922 226.24200439453125 226.1199951171875 225.9669952392578 225.75900268554688 225.6580047607422 225.76699829101562 225.55499267578125 225.45199584960938 225.6479949951172 225.69000244140625 225.8249969482422 225.95599365234375 225.9720001220703 226.00100708007812 226.10000610351562 226.06199645996094 226.0709991455078 226.04400634765625 226.09800720214844 226.14300537109375 226.1009979248047 226.0030059814453 225.95199584960938 225.843994140625 225.5570068359375 225.3159942626953 225.1699981689453 225.0760040283203 225.13699340820312 225.0030059814453 224.96099853515625 224.9770050048828 224.91600036621094 224.88400268554688 224.75 224.822998046875 224.04299926757812 224.9499969482422 224.58799743652344 225.15699768066406 224.82699584960938 225.1199951171875 225.2779998779297 225.47999572753906 225.57899475097656 225.5330047607422 225.67300415039062 225.677001953125 225.79600524902344 226.4010009765625 226.80599975585938 227.4040069580078 228.16299438476562 229.1840057373047 229.447998046875 229.68099975585938 230.07000732421875 231.04800415039062 232.39599609375 233.93800354003906 235.7449951171875 237.7519989013672 239.56500244140625 240.86500549316406 241.78700256347656 242.46099853515625 242.94200134277344 243.12100219726562 244.25 244.63800048828125 245.3560028076172 246.08999633789062 246.5240020751953 246.9669952392578 246.24400329589844 246.26300048828125 246.3560028076172 246.63699340820312 247.21400451660156 247.41799926757812 247.70799255371094 248.21600341796875 246.7570037841797 243.61599731445312 241.07200622558594 239.02099609375 237.843994140625 237.07200622558594 236.56900024414062 -9999 -9999 -9999 -9999 -9999 -9999 -9999 -9999 -9999 -9999
-9999 -9999 -9999 -9999 -9999 -9999 -9999 -9999 -9999 -9999 -9999 -9999 -9999 -9999 -9999 -9999 -9999 -9999 -9999 -9999 -9999 -9999 -9999 -9999 -9999 -9999 -9999 -9999 -9999 -9999 -9999 -9999 -9999 -9999 -9999 -9999 -9999 -9999 -9999 222.91700744628906 223.2779998779297 223.36599731445312 223.33700561523438 222.94700622558594 223.33299255371094 223.79800415039062 224.1179962158203 224.88299560546875 225.2570037841797 224.43499755859375 223.98399353027344 223.85000610351562 223.80299377441406 223.7469940185547 223.9409942626953 225.49099731445312 226.01600646972656 226.16900634765625 226.27200317382812 226.1540069580078 225.88099670410156 225.67799377441406 225.50399780273438 225.49099731445312 225.51400756835938 225.38600158691406 225.531005859375 225.54200744628906 225.62600708007812 225.85899353027344 225.98399353027344 225.95599365234375 226.03199768066406 226.0399932861328 226.0030059814453 226.06100463867188 226.1529998779297 226.08599853515625 226.08900451660156 225.947998046875 225.97500610351562 225.91700744628906 224.86399841308594 225.0959930419922 225.01100158691406 224.89300537109375 224.80499267578125 224.8459930419922 224.8489990234375 224.8300018310547 224.74600219726562 224.8800048828125 224.56300354003906 224.86000061035156 224.95899963378906 224.68099975585938 225.03199768066406 225.13299560546875 225.18699645996094 225.2989959716797 225.43699645996094 225.59100341796875 225.7010040283203 225.74000549316406 225.6269989013672 226.18499755859375 226.6649932861328 227.17999267578125 227.9250030517578 228.7030029296875 229.4739990234375 229.43099975585938 229.76699829101562 230.04299926757812 230.58399963378906 231.6699981689453 233.031005859375 234.64599609375 236.63600158691406 238.76699829101562 240.16400146484375 241.23500061035156 242.1179962158203 242.65499877929688 242.5570068359375 244.43600463867188 244.9739990234375 245.7209930419922 246.59300231933594 247.19000244140625 247.69400024414062 247.59800720214844 248.19900512695312 249.0959930419922 249.04100036621094 249.04400634765625 249.37899780273438 249.75399780273438 249.37899780273438 248.64700317382812 245.19900512695312 242.0500030517578 239.7899932861328 237.99899291992188 237.15499877929688 236.91900634765625 -9999 -9999 -9999 -9999 -9999 -9999 -9999 -9999 -9999 -9999 -9999
-9999 -9999 -9999 -9999 -9999 -9999 -9999 -9999 -9999 -9999 -9999 -9999 -9999 -9999 -9999 -9999 -9999 -9999 -9999 -9999 -9999 -9999 -9999 -9999 -9999 -9999 -9999 -9999 -9999 -9999 -9999 -9999 -9999 -9999 -9999 -9999 -9999 -9999 -9999 222.2010040283203 222.8179931640625 222.75900268554688 223.20700073242188 223.0590057373047 223.2790069580078 223.5959930419922 224.02200317382812 224.71400451660156 225.37899780273438 225.2899932861328 223.5449981689453 223.4530029296875 223.4219970703125 223.3520050048828 223.3979949951172 224.2480010986328 225.8070068359375 225.99200439453125 225.9250030517578 225.96800231933594 225.77000427246094 225.62600708007812 225.3800048828125 225.35000610351562 225.2530059814453 225.31399536132812 225.32400512695312 225.3730010986328 225.48800659179688 225.63999938964844 225.85899353027344 225.9080047607422 225.90499877929688 225.947998046875 226.0030059814453 226.08999633789062 226.12100219726562 226.10400390625 226.01400756835938 226.01600646972656 225.97999572753906 225.84500122070312 224.77499389648438 224.92799377441406 224.75900268554688 224.7220001220703 224.6699981689453 224.69700622558594 224.71099853515625 224.70399475097656 224.59800720214844 224.17599487304688 225.15499877929688 225.8730010986328 226.02000427246094 225.46400451660156 225.11500549316406 224.9720001220703 225.34800720214844 225.39999389648438 225.53399658203125 225.6479949951172 225.67999267578125 225.93899536132812 226.4010009765625 226.8300018310547 227.68699645996094 228.4969940185547 229.50100708007812 230.0229949951172 229.8159942626953 230.00599670410156 230.26300048828125 230.48699951171875 231.0749969482422 232.02999877929688 233.49200439453125 235.27499389648438 237.0019989013672 238.54800415039062 239.93299865722656 241.10400390625 241.85699462890625 241.87100219726562 244.1009979248047 244.7969970703125 245.718994140625 246.61500549316406 247.4709930419922 248.70199584960938 249.39700317382812 249.9759979248047 250.41400146484375 250.8249969482422 251.5800018310547 251.83999633789062 251.56900024414062 251.13299560546875 250.26699829101562 247.08099365234375 243.66400146484375 241.04200744628906 238.843994140625 237.62100219726562 237.61199951171875 -9999 -9999 -9999 -9999 -9999 -9999 -9999 -9999 -9999 -9999 -9999 -9999
-9999 -9999 -9999 -9999 -9999 -9999 -9999 -9999 -9999 -9999 -9999 -9999 -9999 -9999 -9999 -9999 -9999 -9999 -9999 -9999 -9999 -9999 -9999 -9999 -9999 -9999 -9999 -9999 -9999 -9999 -9999 -9999 -9999 -9999 -9999 -9999 -9999 -9999 -9999 -9999 222.37600708007812 223.35499572753906 223.2239990234375 222.906005859375 223.2310028076172 223.70700073242188 224.91099548339844 225.40499877929688 225.5 225.43099975585938 222.96499633789062 223.28700256347656 223.20899963378906 223.18800354003906 223.24099731445312 223.46200561523438 224.66700744628906 225.66700744628906 225.5489959716797 225.5500030517578 225.51600646972656 225.54200744628906 225.46099853515625 225.40199279785156 225.39999389648438 225.41900634765625 225.34800720214844 225.44500732421875 225.52200317382812 225.64300537109375 225.76699829101562 225.91700744628906 225.96400451660156 225.97500610351562 226.0399932861328 226.04400634765625 226.02699279785156 225.99099731445312 225.98699951171875 225.9739990234375 225.92999267578125 225.78700256347656 224.30999755859375 224.718994140625 224.61700439453125 224.67999267578125 224.59500122070312 224.57699584960938 224.51400756835938 223.80999755859375 224.78399658203125 225.57899475097656 226.2010040283203 226.23899841308594 226.23800659179688 226.2100067138672 225.07400512695312 225.11399841308594 225.27000427246094 225.5489959716797 225.76300048828125 225.9459991455078 226.4250030517578 226.7310028076172 227.3040008544922 228.11500549316406 229.04400634765625 229.53399658203125 230.73399353027344 230.875 230.94500732421875 231.05499267578125 231.20899963378906 231.36399841308594 231.71200561523438 232.65499877929688 234.05599975585938 235.35299682617188 236.7310028076172 238.1479949951172 239.50999450683594 240.51800537109375 241.38499450683594 242.93600463867188 243.906005859375 245.0959930419922 246.2550048828125 247.69700622558594 248.8040008544922 249.61900329589844 250.5570068359375 251.62899780273438 252.7830047607422 253.44200134277344 253.74899291992188 253.61000061035156 252.7010040283203 251.63800048828125 248.9219970703125 245.48300170898438 242.56399536132812 240.24600219726562 238.59500122070312 237.6009979248047 237.26199340820312 -9999 -9999 -9999 -9999 -9999 -9999 -9999 -9999 -9999 -9999 -9999 -9999
-9999 -9999 -9999 -9999 -9999 -9999 -9999 -9999 -9999 -9999 -9999 -9999 -9999 -9999 -9999 -9999 -9999 -9999 -9999 -9999 -9999 -9999 -9999 -9999 -9999 -9999 -9999 -9999 -9999 -9999 -9999 -9999 -9999 -9999 -9999 -9999 -9999 -9999 -9999 -9999 222.29200744628906 222.35299682617188 222.48199462890625 222.4149932861328 221.94200134277344 221.98199462890625 222.17300415039062 222.6490020751953 222.6999969482422 223.7469940185547 222.7550048828125 223.1820068359375 223.1699981689453 223.2030029296875 223.3159942626953 222.76100158691406 223.2969970703125 224.01300048828125 223.70899963378906 224.26100158691406 224.92999267578125 224.91600036621094 225.13999938964844 225.36900329589844 225.58700561523438 225.64500427246094 225.5970001220703 225.61099243164062 225.55499267578125 225.61199951171875 225.65499877929688 225.6699981689453 225.7429962158203 225.85000610351562 225.75799560546875 225.65199279785156 225.6320037841797 225.75599670410156 225.7570037841797 225.74899291992188 225.55999755859375 225.50100708007812 223.843994140625 224.48699951171875 224.52000427246094 224.29800415039062 223.53399658203125 224.38800048828125 224.97500610351562 225.58700561523438 226.17799377441406 226.1269989013672 226.32699584960938 226.35299682617188 226.41000366210938 226.50399780273438 225.96400451660156 225.41400146484375 225.06500244140625 225.3990020751953 226.3179931640625 226.64199829101562 227.1300048828125 227.81199645996094 228.69000244140625 229.3000030517578 230.76199340820312 232.15699768066406 232.4600067138672 232.52000427246094 232.41200256347656 232.35299682617188 232.4409942626953 232.52000427246094 232.80099487304688 233.36399841308594 234.3280029296875 235.406005859375 236.49000549316406 237.72900390625 238.9320068359375 239.9429931640625 241.3679962158203 242.34100341796875 243.77499389648438 245.10800170898438 247.1959991455078 248.4980010986328 249.656005859375 251.0679931640625 252.1699981689453 253.2830047607422 253.95599365234375 254.52099609375 254.68899536132812 254.15899658203125 252.3719940185547 250.4759979248047 247.36199951171875 243.92999267578125 241.6719970703125 239.75100708007812 238.35400390625 237.79400634765625 -9999 -9999 -9999 -9999 -9999 -9999 -9999 -9999 -9999 -9999 -9999 -9999 -9999
-9999 -9999 -9999 -9999 -9999 -9999 -9999 -9999 -9999 -9999 -9999 -9999 -9999 -9999 -9999 -9999 -9999 -9999 -9999 -9999 -9999 -9999 -9999 -9999 -9999 -9999 -9999 -9999 -9999 -9999 -9999 -9999 -9999 -9999 -9999 -9999 -9999 -9999 -9999 -9999 -9999 222.83599853515625 224.093994140625 224.625 224.81700134277344 224.99200439453125 225.19000244140625 225.4250030517578 225.5489959716797 225.44700622558594 225.17300415039062 224.91099548339844 223.88800048828125 223.7310028076172 223.11700439453125 224.197998046875 224.0919952392578 223.7949981689453 223.947998046875 223.9600067138672 224.10299682617188 223.77699279785156 223.6699981689453 223.62600708007812 223.6529998779297 223.625 223.73300170898438 223.68499755859375 223.60499572753906 223.77099609375 223.85400390625 223.86500549316406 223.9340057373047 223.822998046875 223.9219970703125 224.00799560546875 223.9459991455078 223.9290008544922 223.42599487304688 223.9770050048828 224.1060028076172 223.94000244140625 224.16400146484375 224.41000366210938 224.5709991455078 224.82000732421875 225.04100036621094 225.46299743652344 225.9770050048828 226.31700134277344 226.54400634765625 226.51499938964844 226.52200317382812 226.5290069580078 226.60000610351562 226.58799743652344 226.6699981689453 225.5469970703125 226.1959991455078 226.54100036621094 226.91000366210938 227.6009979248047 228.28700256347656 229.10499572753906 229.4219970703125 232.5189971923828 233.53599548339844 234.0800018310547 234.34100341796875 234.31500244140625 234.20799255371094 234.15199279785156 234.10299682617188 234.07000732421875 233.9429931640625 234.29800415039062 234.9510040283203 235.6300048828125 236.54400634765625 237.5919952392578 238.60000610351562 239.67300415039062 240.91799926757812 242.07899475097656 243.5500030517578 245.8090057373047 247.6529998779297 249.61599731445312 251.13499450683594 252.5330047607422 253.5449981689453 254.56300354003906 254.99000549316406 255.29299926757812 254.7949981689453 254.16099548339844 251.7790069580078 249.0469970703125 245.9290008544922 242.81399536132812 240.86300659179688 239.43800354003906 238.26199340820312 -9999 -9999 -9999 -9999 -9999 -9999 -9999 -9999 -9999 -9999 -9999 -9999 -9999 -9999
-9999 -9999 -9999 -9999 -9999 -9999 -9999 -9999 -9999 -9999 -9999 -9999 -9999 -9999 -9999 -9999 -9999 -9999 -9999 -9999 -9999 -9999 -9999 -9999 -9999 -9999 -9999 -9999 -9999 -9999 -9999 -9999 -9999 -9999 -9999 -9999 -9999 -9999 -9999 -9999 -9999 224.1439971923828 224.42999267578125 224.69700622558594 224.91600036621094 225.1199951171875 225.18099975585938 225.41700744628906 225.5 225.5030059814453 224.78700256347656 224.73300170898438 224.75999450683594 224.88600158691406 224.95599365234375 224.58999633789062 224.53500366210938 224.58799743652344 224.74000549316406 224.88400268554688 225.0399932861328 225.10899353027344 225.0189971923828 225.093994140625 225.28399658203125 225.43800354003906 225.63999938964844 225.65899658203125 225.78599548339844 225.65199279785156 225.63999938964844 225.6820068359375 225.86599731445312 225.85299682617188 225.88999938964844 225.8520050048828 225.91700744628906 225.9739990234375 225.8209991455078 225.6199951171875 225.60400390625 225.49600219726562 225.28599548339844 225.67599487304688 225.76600646972656 225.91900634765625 226.08599853515625 226.13600158691406 226.45199584960938 226.5659942626953 226.67599487304688 226.67100524902344 226.781005859375 226.85499572753906 226.92799377441406 226.93099975585938 226.97999572753906 226.73599243164062 226.89100646972656 227.3979949951172 227.89100646972656 228.8300018310547 229.08099365234375 230.00399780273438 234.12600708007812 234.7519989013672 235.57699584960938 236.197998046875 236.4219970703125 236.39599609375 236.28399658203125 236.18299865722656 235.6320037841797 235.28500366210938 235.1300048828125 235.19000244140625 235.51300048828125 236.18299865722656 236.875 237.7259979248047 239.10400390625 240.01499938964844 240.84500122070312 242.2740020751953 244.16200256347656 246.0290069580078 248.625 250.6020050048828 252.2969970703125 253.7169952392578 254.6300048828125 255.13900756835938 255.4010009765625 255.31500244140625 254.968994140625 253.9340057373047 251.0189971923828 248.43899536132812 244.93299865722656 242.21099853515625 240.40499877929688 239.19700622558594 238.32400512695312 -9999 -9999 -9999 -9999 -9999 -9999 -9999 -9999 -9999 -9999 -9999 -9999 -9999 -9999
-9999 -9999 -9999 -9999 -9999 -9999 -9999 -9999 -9999 -9999 -9999 -9999 -9999 -9999 -9999 -9999 -9999 -9999 -9999 -9999 -9999 -9999 -9999 -9999 -9999 -9999 -9999 -9999 -9999 -9999 -9999 -9999 -9999 -9999 -9999 -9999 -9999 -9999 -9999 -9999 -9999 -9999 224.4239959716797 224.79299926757812 225.0050048828125 225.27099609375 225.29800415039062 225.4239959716797 225.531005859375 225.51800537109375 224.63099670410156 224.74899291992188 225.01400756835938 224.37899780273438 224.6490020751953 224.6649932861328 224.7729949951172 224.50599670410156 224.8939971923828 224.97500610351562 225.10899353027344 225.23500061035156 225.37100219726562 225.30799865722656 225.33700561523438 225.58299255371094 225.75999450683594 225.99400329589844 225.96499633789062 225.83399963378906 225.8419952392578 225.95399475097656 225.92999267578125 226.0959930419922 226.1269989013672 226.16600036621094 226.18699645996094 226.05099487304688 225.93699645996094 225.87399291992188 226.04600524902344 226.15199279785156 226.19000244140625 226.27699279785156 226.2259979248047 226.31900024414062 226.32899475097656 226.45399475097656 226.55599975585938 226.5970001220703 226.66099548339844 226.76600646972656 226.95399475097656 227.11399841308594 227.2899932861328 227.42599487304688 227.34100341796875 227.08399963378906 227.6179962158203 228.36000061035156 228.95199584960938 229.50399780273438 231.7899932861328 235.1300048828125 235.92599487304688 236.968994140625 237.88099670410156 238.38299560546875 238.50100708007812 238.39300537109375 238.04100036621094 237.36300659179688 236.79400634765625 236.25399780273438 235.9029998779297 235.8979949951172 236.3300018310547 236.6959991455078 237.33700561523438 238.15499877929688 239.55999755859375 240.21499633789062 241.46200561523438 242.78599548339844 244.21299743652344 246.5800018310547 248.83399963378906 251.35800170898438 253.23599243164062 254.73699951171875 255.1199951171875 255.43699645996094 255.52200317382812 255.3990020751953 255.11500549316406 253.8159942626953 251.1510009765625 248.2270050048828 244.80999755859375 242.0189971923828 240.2100067138672 239.1529998779297 -9999 -9999 -9999 -9999 -9999 -9999 -9999 -9999 -9999 -9999 -9999 -9999 -9999 -9999 -9999
-9999 -9999 -9999 -9999 -9999 -9999 -9999 -9999 -9999 -9999 -9999 -9999 -9999 -9999 -9999 -9999 -9999 -9999 -9999 -9999 -9999 -9999 -9999 -9999 -9999 -9999 -9999 -9999 -9999 -9999 -9999 -9999 -9999 -9999 -9999 -9999 -9999 -9999 -9999 -9999 -9999 -9999 -9999 224.8350067138672 225.08700561523438 225.27000427246094 225.4499969482422 225.44500732421875 225.58299255371094 225.47500610351562 225.29400634765625 224.98300170898438 224.92100524902344 224.88400268554688 225.0709991455078 224.656005859375 224.6280059814453 224.54800415039062 224.4429931640625 224.79400634765625 225.16600036621094 225.1199951171875 225.2790069580078 225.36599731445312 225.4239959716797 225.51100158691406 225.6510009765625 225.77099609375 225.9029998779297 225.8800048828125 225.83900451660156 225.92599487304688 225.9510040283203 226.10400390625 226.1999969482422 226.21200561523438 226.2169952392578 226.05799865722656 225.9759979248047 225.94200134277344 226.11500549316406 226.38099670410156 226.4810028076172 226.5229949951172 226.49899291992188 226.54400634765625 226.5449981689453 226.51800537109375 226.64599609375 226.6269989013672 226.77099609375 226.88499450683594 227.21499633789062 227.3300018310547 227.5540008544922 227.7100067138672 227.67799377441406 227.35499572753906 228.76199340820312 230.32000732421875 233.7239990234375 233.68299865722656 235.86199951171875 236.99000549316406 238.156005859375 239.19900512695312 239.9320068359375 240.23899841308594 240.1219940185547 239.5749969482422 238.927001953125 238.23699951171875 237.5050048828125 236.85800170898438 236.7100067138672 236.7220001220703 236.86599731445312 237.36300659179688 237.82699584960938 239.3939971923828 240.32000732421875 241.09100341796875 242.00399780273438 243.00599670410156 244.76499938964844 246.5399932861328 248.56900024414062 251.71800231933594 254.11599731445312 254.89700317382812 255.2969970703125 255.3820037841797 255.5919952392578 255.32699584960938 254.95700073242188 253.4600067138672 251.2030029296875 247.53599548339844 244.24000549316406 241.80999755859375 240.26199340820312 -9999 -9999 -9999 -9999 -9999 -9999 -9999 -9999 -9999 -9999 -9999 -9999 -9999 -9999 -9999 -9999
-9999 -9999 -9999 -9999 -9999 -9999 -9999 -9999 -9999 -9999 -9999 -9999 -9999 -9999 -9999 -9999 -9999 -9999 -9999 -9999 -9999 -9999 -9999 -9999 -9999 -9999 -9999 -9999 -9999 -9999 -9999 -9999 -9999 -9999 -9999 -9999 -9999 -9999 -9999 -9999 -9999 -9999 -9999 -9999 -9999 225.27699279785156 225.5240020751953 225.51600646972656 225.60699462890625 225.54800415039062 225.6179962158203 225.42999267578125 225.25 225.12399291992188 224.9810028076172 224.9949951171875 224.63800048828125 224.64500427246094 224.76100158691406 224.531005859375 223.8769989013672 224.83999633789062 225.02099609375 225.4010009765625 225.35899353027344 225.47900390625 225.5709991455078 225.66000366210938 225.71299743652344 225.83599853515625 225.91700744628906 225.92999267578125 226.0240020751953 226.08700561523438 226.17999267578125 226.3090057373047 226.36000061035156 226.31500244140625 226.20399475097656 226.06100463867188 226.19500732421875 226.5050048828125 226.61300659179688 226.58799743652344 226.64599609375 226.65499877929688 226.6540069580078 226.69900512695312 226.70899963378906 226.72999572753906 226.84300231933594 227.02999877929688 227.3939971923828 227.5489959716797 227.7519989013672 227.85800170898438 228.53500366210938 229.23899841308594 231.58900451660156 234.1959991455078 235.49099731445312 236.48199462890625 237.86199951171875 239.1479949951172 240.18899536132812 240.91400146484375 241.35000610351562 241.29299926757812 240.96800231933594 240.2570037841797 239.43299865722656 238.58200073242188 238.02499389648438 237.57899475097656 237.23800659179688 237.30099487304688 237.58099365234375 238.2209930419922 239.61900329589844 240.8040008544922 241.5449981689453 242.20799255371094 242.7989959716797 243.98899841308594 245.0500030517578 246.63900756835938 248.41099548339844 251.0959930419922 254.42599487304688 255.052001953125 255.23899841308594 255.39500427246094 255.50900268554688 255.2550048828125 254.6269989013672 252.83200073242188 250.5500030517578 246.7830047607422 243.78700256347656 241.55499267578125 -9999 -9999 -9999 -9999 -9999 -9999 -9999 -9999 -9999 -9999 -9999 -9999 -9999 -9999 -9999 -9999 -9999
-9999 -9999 -9999 -9999 -9999 -9999 -9999 -9999 -9999 -9999 -9999 -9999 -9999 -9999 -9999 -9999 -9999 -9999 -9999 -9999 -9999 -9999 -9999 -9999 -9999 -9999 -9999 -9999 -9999 -9999 -9999 -9999 -9999 -9999 -9999 -9999 -9999 -9999 -9999 -9999 -9999 -9999 -9999 -9999 -9999 -9999 -9999 225.6959991455078 225.81500244140625 225.6649932861328 225.85299682617188 225.9080047607422 225.45799255371094 225.36500549316406 225.53599548339844 225.50799560546875 225.21499633789062 225.14500427246094 225.04600524902344 225.1790008544922 224.9340057373047 224.88299560546875 224.41900634765625 224.4239959716797 225.0399932861328 225.3560028076172 225.4770050048828 225.60400390625 225.7989959716797 225.8040008544922 225.87899780273438 225.95899963378906 226.14300537109375 226.197998046875 226.25999450683594 226.3699951171875 226.3990020751953 226.47900390625 226.41000366210938 226.31300354003906 226.44000244140625 226.62600708007812 226.66299438476562 226.6750030517578 226.6999969482422 226.73199462890625 226.74099731445312 226.76800537109375 226.822998046875 226.86900329589844 227.0260009765625 227.1490020751953 227.54200744628906 227.75799560546875 228.11900329589844 228.14999389648438 230.41000366210938 231.71800231933594 234.25 235.25 238.08700561523438 238.72000122070312 239.95799255371094 241.06100463867188 241.77699279785156 242.14100646972656 242.18499755859375 242.05299377441406 241.45799255371094 240.4510040283203 239.67300415039062 238.99200439453125 238.38499450683594 238.00399780273438 237.8260040283203 237.96200561523438 238.72799682617188 239.7030029296875 241.0989990234375 242.60499572753906 243.30099487304688 243.96499633789062 244.2570037841797 244.91600036621094 245.77999877929688 247.04400634765625 248.55499267578125 250.56399536132812 253.56199645996094 254.9340057373047 255.07000732421875 255.15499877929688 255.26699829101562 255.04299926757812 254.30499267578125 252.2969970703125 249.75 245.7169952392578 243.33099365234375 241.5540008544922 -9999 -9999 -9999 -9999 -9999 -9999 -9999 -9999 -9999 -9999 -9999 -9999 -9999 -9999 -9999 -9999 -9999
-9999 -9999 -9999 -9999 -9999 -9999 -9999 -9999 -9999 -9999 -9999 -9999 -9999 -9999 -9999 -9999 -9999 -9999 -9999 -9999 -9999 -9999 -9999 -9999 -9999 -9999 -9999 -9999 -9999 -9999 -9999 -9999 -9999 -9999 -9999 -9999 -9999 -9999 -9999 -9999 -9999 -9999 -9999 -9999 -9999 -9999 -9999 -9999 -9999 225.75900268554688 225.9499969482422 226.1490020751953 226.16200256347656 226.1439971923828 226.01100158691406 225.92100524902344 225.68699645996094 225.58299255371094 225.38099670410156 225.1580047607422 225.4409942626953 225.20199584960938 225.11500549316406 225.08099365234375 224.89199829101562 224.4409942626953 225.4010009765625 225.61300659179688 225.8249969482422 225.9029998779297 225.947998046875 226.02499389648438 226.0780029296875 226.2100067138672 226.3699951171875 226.32400512695312 226.4250030517578 226.48699951171875 226.53399658203125 226.60000610351562 226.593994140625 226.66000366210938 226.697998046875 226.7969970703125 226.84100341796875 226.88800048828125 226.88099670410156 226.85800170898438 226.97999572753906 227.11500549316406 227.29400634765625 227.63099670410156 228.13099670410156 227.99200439453125 228.32000732421875 230.5679931640625 232.33299255371094 234.1959991455078 235.25599670410156 238.2729949951172 239.71499633789062 240.61599731445312 241.57400512695312 242.2830047607422 242.72799682617188 242.91299438476562 242.78900146484375 242.29400634765625 241.62100219726562 240.71200561523438 239.82699584960938 239.1840057373047 238.79299926757812 238.58900451660156 238.81500244140625 239.01400756835938 239.6540069580078 241.1280059814453 242.78399658203125 244.21299743652344 246.04299926757812 246.13299560546875 245.8800048828125 245.9720001220703 246.77000427246094 247.7169952392578 249.0570068359375 250.79400634765625 252.87899780273438 254.5749969482422 254.8179931640625 255.01199340820312 254.85299682617188 254.63699340820312 253.822998046875 251.66700744628906 249.18800354003906 245.5989990234375 243.3260040283203 -9999 -9999 -9999 -9999 -9999 -9999 -9999 -9999 -9999 -9999 -9999 -9999 -9999 -9999 -9999 -9999 -9999 -9999
-9999 -9999 -9999 -9999 -9999 -9999 -9999 -9999 -9999 -9999 -9999 -9999 -9999 -9999 -9999 -9999 -9999 -9999 -9999 -9999 -9999 -9999 -9999 -9999 -9999 -9999 -9999 -9999 -9999 -9999 -9999 -9999 -9999 -9999 -9999 -9999 -9999 -9999 -9999 -9999 -9999 -9999 -9999 -9999 -9999 -9999 -9999 -9999 -9999 -9999 226.10499572753906 226.34100341796875 226.5279998779297 226.38400268554688 226.4810028076172 226.5399932861328 226.92799377441406 225.93499755859375 225.8280029296875 225.73300170898438 225.8719940185547 225.5500030517578 225.41099548339844 225.36199951171875 225.51100158691406 225.61099243164062 224.8419952392578 225.78599548339844 225.406005859375 225.88699340820312 226.0330047607422 226.18699645996094 226.1580047607422 226.29299926757812 226.41000366210938 226.39999389648438 226.36599731445312 226.3820037841797 226.5449981689453 226.572998046875 226.55599975585938 226.68899536132812 226.64199829101562 226.75399780273438 226.86000061035156 226.99200439453125 227.12399291992188 227.2259979248047 227.41099548339844 227.56500244140625 227.89999389648438 227.83399963378906 228.57899475097656 229.3679962158203 231.02699279785156 233.052001953125 234.28399658203125 235.3300018310547 238.1719970703125 239.42300415039062 240.89199829101562 241.97500610351562 242.6060028076172 243.13400268554688 243.4250030517578 243.2740020751953 242.7989959716797 242.302001953125 241.7030029296875 241.2449951171875 240.33399963378906 239.64199829101562 239.4429931640625 239.2570037841797 239.2899932861328 239.88999938964844 241.0489959716797 242.5760040283203 244.02699279785156 246.38299560546875 247.81300354003906 248.0800018310547 248.20399475097656 248.16900634765625 248.40499877929688 248.92599487304688 249.78199768066406 251.03500366210938 252.86099243164062 254.35699462890625 254.76100158691406 255.01300048828125 254.65199279785156 254.28799438476562 253.60499572753906 251.39599609375 248.65499877929688 246.02099609375 -9999 -9999 -9999 -9999 -9999 -9999 -9999 -9999 -9999 -9999 -9999 -9999 -9999 -9999 -9999 -9999 -9999 -9999 -9999
-9999 -9999 -9999 -9999 -9999 -9999 -9999 -9999 -9999 -9999 -9999 -9999 -9999 -9999 -9999 -9999 -9999 -9999 -9999 -9999 -9999 -9999 -9999 -9999 -9999 -9999 -9999 -9999 -9999 -9999 -9999 -9999 -9999 -9999 -9999 -9999 -9999 -9999 -9999 -9999 -9999 -9999 -9999 -9999 -9999 -9999 -9999 -9999 -9999 -9999 -9999 -9999 226.7790069580078 226.81399536132812 227.1490020751953 227.47900390625 227.3719940185547 226.9040069580078 226.03799438476562 226.10000610351562 226.0749969482422 225.79100036621094 225.82899475097656 225.63699340820312 225.64300537109375 225.53700256347656 225.6009979248047 225.83700561523438 225.95899963378906 226.04299926757812 225.91099548339844 225.69500732421875 226.29400634765625 226.3260040283203 226.67799377441406 226.6699981689453 226.78500366210938 226.72000122070312 226.718994140625 226.697998046875 226.78599548339844 226.83999633789062 226.89300537109375 227.05999755859375 227.24899291992188 227.48300170898438 227.78500366210938 227.81500244140625 227.6320037841797 228.56500244140625 228.61500549316406 228.96299743652344 230.3260040283203 231.96200561523438 233.2570037841797 234.21800231933594 235.26400756835938 238.05599975585938 239.25599670410156 240.79299926757812 241.84100341796875 242.58099365234375 243.2239990234375 243.66799926757812 243.10899353027344 242.9149932861328 242.58399963378906 242.2519989013672 241.9340057373047 241.64100646972656 241.21400451660156 240.41299438476562 239.92799377441406 239.98899841308594 240.41600036621094 241.33099365234375 242.47000122070312 243.70899963378906 245.74000549316406 247.35400390625 249.47799682617188 250.41900634765625 250.6490020751953 250.88299560546875 251.17799377441406 251.53799438476562 251.63299560546875 251.61099243164062 253.08299255371094 254.20399475097656 254.81500244140625 254.96299743652344 254.86000061035156 254.39999389648438 253.40199279785156 251.3419952392578 248.54200744628906 246.05099487304688 -9999 -9999 -9999 -9999 -9999 -9999 -9999 -9999 -9999 -9999 -9999 -9999 -9999 -9999 -9999 -9999 -9999 -9999 -9999
-9999 -9999 -9999 -9999 -9999 -9999 -9999 -9999 -9999 -9999 -9999 -9999 -9999 -9999 -9999 -9999 -9999 -9999 -9999 -9999 -9999 -9999 -9999 -9999 -9999 -9999 -9999 -9999 -9999 -9999 -9999 -9999 -9999 -9999 -9999 -9999 -9999 -9999 -9999 -9999 -9999 -9999 -9999 -9999 -9999 -9999 -9999 -9999 -9999 -9999 -9999 -9999 -9999 -9999 228.3939971923828 227.70799255371094 227.6269989013672 227.81199645996094 226.57200622558594 226.48800659179688 226.2899932861328 225.96099853515625 225.86900329589844 225.8040008544922 225.7429962158203 225.85000610351562 225.73199462890625 225.80099487304688 225.9499969482422 226.07699584960938 226.31300354003906 226.5919952392578 226.77099609375 227.26600646972656 227.06500244140625 226.95199584960938 226.802001953125 226.72000122070312 226.8520050048828 227 227.12899780273438 227.18499755859375 227.12600708007812 227.3730010986328 228.04299926757812 228.20399475097656 228.46099853515625 228.91700744628906 229.45199584960938 229.89500427246094 230.2259979248047 231.552001953125 232.3939971923828 233.37899780273438 234.1739959716797 235.22999572753906 237.66900634765625 239.0500030517578 240.51499938964844 241.5590057373047 242.31300354003906 243.0970001220703 242.98599243164062 243.16900634765625 243.84500122070312 243.7899932861328 243.4290008544922 243.16000366210938 242.93499755859375 242.78900146484375 242.96200561523438 241.1230010986328 241.10400390625 241.26600646972656 242.1269989013672 242.99899291992188 243.80999755859375 245.36000061035156 247.19400024414062 248.843994140625 250.72799682617188 252.35400390625 252.99899291992188 253.13900756835938 253.37899780273438 253.62899780273438 253.7010040283203 253.63999938964844 253.6320037841797 254.13600158691406 255.03500366210938 255.37600708007812 255.27499389648438 254.86300659179688 253.947998046875 252.03500366210938 248.9219970703125 -9999 -9999 -9999 -9999 -9999 -9999 -9999 -9999 -9999 -9999 -9999 -9999 -9999 -9999 -9999 -9999 -9999 -9999 -9999 -9999
-9999 -9999 -9999 -9999 -9999 -9999 -9999 -9999 -9999 -9999 -9999 -9999 -9999 -9999 -9999 -9999 -9999 -9999 -9999 -9999 -9999 -9999 -9999 -9999 -9999 -9999 -9999 -9999 -9999 -9999 -9999 -9999 -9999 -9999 -9999 -9999 -9999 -9999 -9999 -9999 -9999 -9999 -9999 -9999 -9999 -9999 -9999 -9999 -9999 -9999 -9999 -9999 -9999 -9999 -9999 229.00599670410156 229.17999267578125 228.63699340820312 227.36700439453125 226.9949951171875 226.83200073242188 226.7259979248047 226.66299438476562 226.54200744628906 226.57699584960938 226.5489959716797 226.53799438476562 226.5749969482422 226.63499450683594 226.73899841308594 227.05499267578125 227.3249969482422 227.43600463867188 227.6840057373047 227.89199829101562 227.7689971923828 227.8939971923828 227.95199584960938 228.05799865722656 228.09100341796875 228.125 228.3249969482422 228.49000549316406 228.60499572753906 228.85499572753906 229.16700744628906 229.6280059814453 230.16400146484375 230.89999389648438 231.68699645996094 232.60800170898438 233.2220001220703 233.71800231933594 234.3209991455078 235.6009979248047 237.2779998779297 238.69900512695312 240.1479949951172 241.0959930419922 241.91900634765625 242.67999267578125 243.36599731445312 244.3560028076172 244.3179931640625 244.28799438476562 244.08700561523438 244.09300231933594 243.66099548339844 243.6060028076172 243.1649932861328 243.3719940185547 242.3179931640625 242.41799926757812 242.98500061035156 243.77200317382812 244.73500061035156 246.19200134277344 247.23300170898438 248.697998046875 250.51600646972656 252.23599243164062 253.68099975585938 254.4510040283203 254.77099609375 255.00599670410156 255.1739959716797 255.11000061035156 255.07699584960938 255.1009979248047 255.3000030517578 255.7469940185547 256.2179870605469 256.35699462890625 256.3550109863281 255.4929962158203 252.4010009765625 -9999 -9999 -9999 -9999 -9999 -9999 -9999 -9999 -9999 -9999 -9999 -9999 -9999 -9999 -9999 -9999 -9999 -9999 -9999 -9999 -9999
-9999 -9999 -9999 -9999 -9999 -9999 -9999 -9999 -9999 -9999 -9999 -9999 -9999 -9999 -9999 -9999 -9999 -9999 -9999 -9999 -9999 -9999 -9999 -9999 -9999 -9999 -9999 -9999 -9999 -9999 -9999 -9999 -9999 -9999 -9999 -9999 -9999 -9999 -9999 -9999 -9999 -9999 -9999 -9999 -9999 -9999 -9999 -9999 -9999 -9999 -9999 -9999 -9999 -9999 -9999 -9999 -9999 229.50799560546875 228.61300659179688 228.1199951171875 227.89100646972656 227.88600158691406 227.85000610351562 227.9290008544922 227.9340057373047 228.04100036621094 227.98199462890625 227.92100524902344 227.97300720214844 228.072998046875 228.3560028076172 228.97300720214844 229.2449951171875 229.44200134277344 229.61900329589844 229.4669952392578 229.4709930419922 229.7689971923828 230.16600036621094 229.7740020751953 230.01499938964844 230.01699829101562 229.843994140625 229.9340057373047 230.156005859375 230.48300170898438 230.91700744628906 231.50100708007812 232.2779998779297 233.1820068359375 233.86300659179688 234.27699279785156 234.7480010986328 236.37100219726562 237.11199951171875 238.34800720214844 239.62399291992188 240.6959991455078 241.8470001220703 242.74200439453125 244.99099731445312 244.7449951171875 244.83399963378906 245.04200744628906 244.72900390625 244.677001953125 244.35499572753906 244.3679962158203 243.9429931640625 243.86000061035156 243.7050018310547 244.05099487304688 243.8820037841797 244.5189971923828 246.27099609375 247.57400512695312 248.19000244140625 249.70899963378906 251.1479949951172 252.4459991455078 253.98800659179688 255.1060028076172 256.0710144042969 256.45001220703125 256.7439880371094 256.8299865722656 256.885009765625 256.6780090332031 256.6409912109375 256.8810119628906 257.47698974609375 257.5419921875 257.531005859375 257.9079895019531 256.6780090332031 253.2480010986328 -9999 -9999 -9999 -9999 -9999 -9999 -9999 -9999 -9999 -9999 -9999 -9999 -9999 -9999 -9999 -9999 -9999 -9999 -9999 -9999 -9999
-9999 -9999 -9999 -9999 -9999 -9999 -9999 -9999 -9999 -9999 -9999 -9999 -9999 -9999 -9999 -9999 -9999 -9999 -9999 -9999 -9999 -9999 -9999 -9999 -9999 -9999 -9999 -9999 -9999 -9999 -9999 -9999 -9999 -9999 -9999 -9999 -9999 -9999 -9999 -9999 -9999 -9999 -9999 -9999 -9999 -9999 -9999 -9999 -9999 -9999 -9999 -9999 -9999 -9999 -9999 -9999 -9999 -9999 -9999 229.79600524902344 229.7469940185547 229.89999389648438 229.97000122070312 230.26400756835938 231.25 231.4080047607422 231.1739959716797 230.89300537109375 230.66700744628906 230.53500366210938 230.67799377441406 230.2689971923828 230.5469970703125 230.69700622558594 231.01499938964844 230.9969940185547 230.8459930419922 230.86300659179688 230.96800231933594 231.36599731445312 231.5850067138672 231.6840057373047 231.72300720214844 231.89999389648438 232.04600524902344 232.17799377441406 232.41700744628906 232.88999938964844 233.63099670410156 234.4290008544922 235.0749969482422 235.89700317382812 236.94900512695312 237.52200317382812 238.31900024414062 239.27999877929688 240.85699462890625 241.18899536132812 243.35499572753906 245.4029998779297 246.2480010986328 246.7779998779297 245.36700439453125 245.24899291992188 245.2989959716797 245.10499572753906 244.9969940185547 244.75900268554688 244.68800354003906 244.5399932861328 244.427001953125 244.48800659179688 244.87899780273438 246.6510009765625 248.74400329589844 249.656005859375 250.7220001220703 252.33399963378906 253.947998046875 254.84100341796875 255.76800537109375 256.81201171875 257.6839904785156 258.3739929199219 258.9549865722656 258.8699951171875 259.07598876953125 259.22100830078125 259.1610107421875 259.2909851074219 259.67401123046875 260.11700439453125 258.989990234375 258.8450012207031 257.3039855957031 -9999 -9999 -9999 -9999 -9999 -9999 -9999 -9999 -9999 -9999 -9999 -9999 -9999 -9999 -9999 -9999 -9999 -9999 -9999 -9999 -9999 -9999
-9999 -9999 -9999 -9999 -9999 -9999 -9999 -9999 -9999 -9999 -9999 -9999 -9999 -9999 -9999 -9999 -9999 -9999 -9999 -9999 -9999 -9999 -9999 -9999 -9999 -9999 -9999 -9999 -9999 -9999 -9999 -9999 -9999 -9999 -9999 -9999 -9999 -9999 -9999 -9999 -9999 -9999 -9999 -9999 -9999 -9999 -9999 -9999 -9999 -9999 -9999 -9999 -9999 -9999 -9999 -9999 -9999 -9999 -9999 -9999 -9999 232.2949981689453 232.39300537109375 232.5749969482422 232.77200317382812 232.70399475097656 232.39199829101562 231.92599487304688 231.61700439453125 231.38499450683594 231.37600708007812 231.26699829101562 231.41900634765625 231.56399536132812 232.18099975585938 231.84100341796875 231.9550018310547 232.0709991455078 232.49899291992188 233.10699462890625 233.57000732421875 233.89300537109375 234.2469940185547 234.12399291992188 234.093994140625 233.95899963378906 234.06399536132812 234.34100341796875 234.95399475097656 235.6840057373047 237.0749969482422 237.91099548339844 238.21600341796875 238.7259979248047 239.59800720214844 240.75599670410156 242.14999389648438 244.08599853515625 245.43499755859375 246.9969940185547 248.60800170898438 249.2050018310547 247.75 245.94000244140625 245.7100067138672 245.74000549316406 245.4929962158203 245.4080047607422 245.10299682617188 245.1060028076172 245.24899291992188 245.08399963378906 246.7220001220703 248.83900451660156 250.58700561523438 251.83599853515625 252.906005859375 254.99099731445312 255.71099853515625 256.4700012207031 257.802001953125 258.822998046875 259.9800109863281 261.0169982910156 262.010009765625 262.031005859375 262.1319885253906 261.9630126953125 261.8299865722656 261.9840087890625 261.97100830078125 261.54901123046875 260.39599609375 259.4630126953125 -9999 -9999 -9999 -9999 -9999 -9999 -9999 -9999 -9999 -9999 -9999 -9999 -9999 -9999 -9999 -9999 -9999 -9999 -9999 -9999 -9999 -9999 -9999
-9999 -9999 -9999 -9999 -9999 -9999 -9999 -9999 -9999 -9999 -9999 -9999 -9999 -9999 -9999 -9999 -9999 -9999 -9999 -9999 -9999 -9999 -9999 -9999 -9999 -9999 -9999 -9999 -9999 -9999 -9999 -9999 -9999 -9999 -9999 -9999 -9999 -9999 -9999 -9999 -9999 -9999 -9999 -9999 -9999 -9999 -9999 -9999 -9999 -9999 -9999 -9999 -9999 -9999 -9999 -9999 -9999 -9999 -9999 -9999 -9999 -9999 233.58799743652344 233.86000061035156 234.19900512695312 233.9010009765625 233.57000732421875 233.10699462890625 232.6179962158203 232.2790069580078 232.2310028076172 232.24200439453125 232.27200317382812 232.43099975585938 232.97799682617188 232.89199829101562 233.156005859375 233.63900756835938 234.20599365234375 234.781005859375 235.69900512695312 236.25399780273438 236.95199584960938 236.20799255371094 235.9290008544922 235.74899291992188 235.5959930419922 235.97900390625 237.4669952392578 238.16700744628906 238.74000549316406 239.14599609375 239.54400634765625 240.48599243164062 241.78900146484375 243.76600646972656 244.97500610351562 246.22799682617188 248.04600524902344 249.5070037841797 251.0679931640625 252.03900146484375 250.95199584960938 247.34300231933594 246.56700134277344 246.197998046875 246.06700134277344 245.91700744628906 245.91700744628906 245.73399353027344 245.8090057373047 246.9739990234375 248.72000122070312 250.49400329589844 252.85699462890625 253.96499633789062 254.97900390625 256.0880126953125 257.5929870605469 258.47900390625 259.8280029296875 261.1820068359375 262.3529968261719 263.7130126953125 264.4779968261719 264.5660095214844 264.52398681640625 264.260986328125 263.9219970703125 263.4549865722656 262.8190002441406 262.0580139160156 260.9949951171875 259.7929992675781 -9999 -9999 -9999 -9999 -9999 -9999 -9999 -9999 -9999 -9999 -9999 -9999 -9999 -9999 -9999 -9999 -9999 -9999 -9999 -9999 -9999 -9999 -9999
-9999 -9999 -9999 -9999 -9999 -9999 -9999 -9999 -9999 -9999 -9999 -9999 -9999 -9999 -9999 -9999 -9999 -9999 -9999 -9999 -9999 -9999 -9999 -9999 -9999 -9999 -9999 -9999 -9999 -9999 -9999 -9999 -9999 -9999 -9999 -9999 -9999 -9999 -9999 -9999 -9999 -9999 -9999 -9999 -9999 -9999 -9999 -9999 -9999 -9999 -9999 -9999 -9999 -9999 -9999 -9999 -9999 -9999 -9999 -9999 -9999 -9999 -9999 -9999 235.447998046875 236.75900268554688 235.927001953125 235.3459930419922 235.07200622558594 234.36000061035156 233.53599548339844 233.45899963378906 233.34100341796875 233.4530029296875 233.86900329589844 233.91900634765625 234.3159942626953 234.85499572753906 235.66799926757812 236.42999267578125 237.56900024414062 238.0800018310547 238.36000061035156 239.23500061035156 238.88900756835938 238.6199951171875 238.40499877929688 238.44200134277344 238.63600158691406 238.88099670410156 239.16400146484375 240.4669952392578 240.9720001220703 243.79800415039062 245.06100463867188 246.27699279785156 247.62100219726562 248.99000549316406 250.6280059814453 252.23899841308594 253.67300415039062 254.1219940185547 252.80499267578125 250.093994140625 247.1219940185547 247.2220001220703 246.69500732421875 246.60699462890625 246.3459930419922 246.19900512695312 247.08999633789062 249.302001953125 251.2729949951172 253.04600524902344 254.50900268554688 255.5970001220703 256.6310119628906 257.8559875488281 259.0920104980469 260.64300537109375 262.11700439453125 263.64898681640625 265.2300109863281 265.6289978027344 265.5669860839844 265.6300048828125 265.4840087890625 265.02801513671875 264.5400085449219 263.8179931640625 263.0169982910156 262.0769958496094 261.0199890136719 -9999 -9999 -9999 -9999 -9999 -9999 -9999 -9999 -9999 -9999 -9999 -9999 -9999 -9999 -9999 -9999 -9999 -9999 -9999 -9999 -9999 -9999 -9999 -9999
-9999 -9999 -9999 -9999 -9999 -9999 -9999 -9999 -9999 -9999 -9999 -9999 -9999 -9999 -9999 -9999 -9999 -9999 -9999 -9999 -9999 -9999 -9999 -9999 -9999 -9999 -9999 -9999 -9999 -9999 -9999 -9999 -9999 -9999 -9999 -9999 -9999 -9999 -9999 -9999 -9999 -9999 -9999 -9999 -9999 -9999 -9999 -9999 -9999 -9999 -9999 -9999 -9999 -9999 -9999 -9999 -9999 -9999 -9999 -9999 -9999 -9999 -9999 -9999 -9999 -9999 237.71299743652344 236.48599243164062 235.75100708007812 235.34100341796875 234.86199951171875 234.7050018310547 235.18099975585938 235.26199340820312 234.9409942626953 235.10899353027344 235.58999633789062 236.0540008544922 237.1510009765625 237.6439971923828 238.531005859375 239.29400634765625 239.86500549316406 239.99099731445312 239.86199951171875 239.59100341796875 239.3470001220703 239.13600158691406 239.0709991455078 240.58399963378906 240.552001953125 243.15699768066406 245.1790008544922 246.29299926757812 247.91200256347656 249.13400268554688 250.13099670410156 251.2779998779297 252.64999389648438 254.4219970703125 255.2779998779297 254.28199768066406 252.33900451660156 250.60299682617188 248.91200256347656 247.59800720214844 247.54600524902344 247.35000610351562 247.21400451660156 247.41799926757812 248.61399841308594 251.4010009765625 253.28500366210938 254.6929931640625 255.7989959716797 257.1340026855469 258.5090026855469 259.6919860839844 261.2640075683594 263.5840148925781 265.2300109863281 265.75 265.86700439453125 265.9590148925781 265.81298828125 265.8659973144531 265.8039855957031 265.10400390625 264.6050109863281 263.72100830078125 262.8290100097656 261.9830017089844 -9999 -9999 -9999 -9999 -9999 -9999 -9999 -9999 -9999 -9999 -9999 -9999 -9999 -9999 -9999 -9999 -9999 -9999 -9999 -9999 -9999 -9999 -9999 -9999 -9999
-9999 -9999 -9999 -9999 -9999 -9999 -9999 -9999 -9999 -9999 -9999 -9999 -9999 -9999 -9999 -9999 -9999 -9999 -9999 -9999 -9999 -9999 -9999 -9999 -9999 -9999 -9999 -9999 -9999 -9999 -9999 -9999 -9999 -9999 -9999 -9999 -9999 -9999 -9999 -9999 -9999 -9999 -9999 -9999 -9999 -9999 -9999 -9999 -9999 -9999 -9999 -9999 -9999 -9999 -9999 -9999 -9999 -9999 -9999 -9999 -9999 -9999 -9999 -9999 -9999 -9999 -9999 -9999 236.86700439453125 236.46400451660156 236.12100219726562 235.9949951171875 236.13400268554688 236.86599731445312 236.7050018310547 236.32699584960938 236.76800537109375 237.27499389648438 237.72999572753906 238.38499450683594 239.11300659179688 239.8520050048828 240.4290008544922 240.76499938964844 240.4290008544922 240.16299438476562 240.7209930419922 240.71299743652344 241.25999450683594 242.6580047607422 244.48399353027344 246.281005859375 247.78500366210938 249.15699768066406 250.68800354003906 252.44700622558594 252.8090057373047 253.68600463867188 254.74099731445312 255.77099609375 255.96400451660156 254.29200744628906 252.0590057373047 250.4320068359375 248.83900451660156 248.1060028076172 248.25599670410156 248.16099548339844 247.86300659179688 248.11199951171875 250.17300415039062 252.81500244140625 255 256.3739929199219 257.6659851074219 259.0360107421875 260.6619873046875 262.1570129394531 263.6650085449219 265.9549865722656 266.3479919433594 266.3139953613281 266.2040100097656 266.20001220703125 266.0679931640625 265.9679870605469 265.6929931640625 265.31201171875 264.35198974609375 263.4289855957031 262.49200439453125 261.4599914550781 -9999 -9999 -9999 -9999 -9999 -9999 -9999 -9999 -9999 -9999 -9999 -9999 -9999 -9999 -9999 -9999 -9999 -9999 -9999 -9999 -9999 -9999 -9999 -9999 -9999
-9999 -9999 -9999 -9999 -9999 -9999 -9999 -9999 -9999 -9999 -9999 -9999 -9999 -9999 -9999 -9999 -9999 -9999 -9999 -9999 -9999 -9999 -9999 -9999 -9999 -9999 -9999 -9999 -9999 -9999 -9999 -9999 -9999 -9999 -9999 -9999 -9999 -9999 -9999 -9999 -9999 -9999 -9999 -9999 -9999 -9999 -9999 -9999 -9999 -9999 -9999 -9999 -9999 -9999 -9999 -9999 -9999 -9999 -9999 -9999 -9999 -9999 -9999 -9999 -9999 -9999 -9999 -9999 -9999 238.3990020751953 238.19200134277344 237.41700744628906 237.33900451660156 238.8040008544922 239.0279998779297 237.69400024414062 237.7270050048828 238.1999969482422 238.82400512695312 239.57000732421875 240.24400329589844 240.8090057373047 240.98599243164062 241.49099731445312 241.43299865722656 241.26800537109375 243.22500610351562 244.0290069580078 245.1909942626953 246.47999572753906 248.05799865722656 250.1179962158203 252.2519989013672 253.75100708007812 254.21200561523438 254.3719940185547 254.51800537109375 255.50999450683594 256.65399169921875 257.34698486328125 256.8030090332031 254.5970001220703 251.67599487304688 250.14700317382812 248.2550048828125 248.2270050048828 248.26600646972656 248.197998046875 248.89700317382812 249.13900756835938 251.7220001220703 254.4720001220703 256.6090087890625 258.3380126953125 259.8030090332031 261.2359924316406 262.89898681640625 265.01800537109375 266.3380126953125 266.55999755859375 266.85400390625 266.68701171875 266.50799560546875 266.3080139160156 266.1340026855469 265.9079895019531 265.4909973144531 265.1610107421875 264.0169982910156 262.9110107421875 261.9599914550781 -9999 -9999 -9999 -9999 -9999 -9999 -9999 -9999 -9999 -9999 -9999 -9999 -9999 -9999 -9999 -9999 -9999 -9999 -9999 -9999 -9999 -9999 -9999 -9999 -9999 -9999
-9999 -9999 -9999 -9999 -9999 -9999 -9999 -9999 -9999 -9999 -9999 -9999 -9999 -9999 -9999 -9999 -9999 -9999 -9999 -9999 -9999 -9999 -9999 -9999 -9999 -9999 -9999 -9999 -9999 -9999 -9999 -9999 -9999 -9999 -9999 -9999 -9999 -9999 -9999 -9999 -9999 -9999 -9999 -9999 -9999 -9999 -9999 -9999 -9999 -9999 -9999 -9999 -9999 -9999 -9999 -9999 -9999 -9999 -9999 -9999 -9999 -9999 -9999 -9999 -9999 -9999 -9999 -9999 -9999 -9999 -9999 237.93699645996094 237.69400024414062 239.64100646972656 239.5449981689453 238.7519989013672 238.85800170898438 239.21099853515625 240.15199279785156 240.6699981689453 240.93499755859375 241.67999267578125 241.8090057373047 243.39100646972656 245.46400451660156 246.80799865722656 247.94200134277344 248.88499450683594 249.656005859375 250.3260040283203 251.08399963378906 251.9080047607422 252.77000427246094 253.6230010986328 254.48800659179688 255.27499389648438 256.31500244140625 256.8479919433594 257.510986328125 258.9079895019531 257.2560119628906 254.82200622558594 252.11099243164062 250.88800048828125 248.2310028076172 248.22500610351562 248.42999267578125 249.93800354003906 249.64999389648438 250.97500610351562 253.52200317382812 256.2099914550781 259.2919921875 260.71099853515625 262.4440002441406 263.7539978027344 265.43701171875 266.7439880371094 267.0790100097656 267.3869934082031 267.22900390625 266.9849853515625 266.6579895019531 266.2820129394531 266.0069885253906 265.4100036621094 265.125 264.2879943847656 263.0060119628906 262.2950134277344 -9999 -9999 -9999 -9999 -9999 -9999 -9999 -9999 -9999 -9999 -9999 -9999 -9999 -9999 -9999 -9999 -9999 -9999 -9999 -9999 -9999 -9999 -9999 -9999 -9999 -9999 -9999
-9999 -9999 -9999 -9999 -9999 -9999 -9999 -9999 -9999 -9999 -9999 -9999 -9999 -9999 -9999 -9999 -9999 -9999 -9999 -9999 -9999 -9999 -9999 -9999 -9999 -9999 -9999 -9999 -9999 -9999 -9999 -9999 -9999 -9999 -9999 -9999 -9999 -9999 -9999 -9999 -9999 -9999 -9999 -9999 -9999 -9999 -9999 -9999 -9999 -9999 -9999 -9999 -9999 -9999 -9999 -9999 -9999 -9999 -9999 -9999 -9999 -9999 -9999 -9999 -9999 -9999 -9999 -9999 -9999 -9999 -9999 -9999 -9999 241.22999572753906 240.9929962158203 240.12399291992188 240.33799743652344 240.58999633789062 240.90499877929688 242.35000610351562 242.95899963378906 245.14300537109375 245.80499267578125 246.3459930419922 246.9199981689453 247.56300354003906 248.5989990234375 249.802001953125 250.8090057373047 252.02999877929688 253.93699645996094 255.406005859375 256.9280090332031 258.1679992675781 258.9169921875 259.39599609375 258.30999755859375 257.2820129394531 258.12298583984375 258.7120056152344 257.75 254.58200073242188 252.7480010986328 252.37100219726562 252.0970001220703 251.3419952392578 250.78399658203125 250.49099731445312 251.05299377441406 253.06300354003906 256.2860107421875 258.8479919433594 261 -9999 -9999 -9999 -9999 -9999 -9999 -9999 -9999 -9999 -9999 -9999 -9999 -9999 -9999 -9999 -9999 -9999 -9999 -9999 -9999 -9999 -9999 -9999 -9999 -9999 -9999 -9999 -9999 -9999 -9999 -9999 -9999 -9999 -9999 -9999 -9999 -9999 -9999 -9999 -9999 -9999 -9999 -9999 -9999
